(.../Program Files (x86)/EAGLE-6.4.0/ulp/pcb-gcode.ulp)
(Copyright 2005 - 2012 by John Johnson)
(See readme.txt for licensing terms.)
(This file generated from the board:)
(.../Dropbox/GitHub/Xpark/xpark.brd)
(Current profile is .../EAGLE-6.4.0/ulp/profiles/generic.pp  )
(This file generated 20.05.2013 12:26:43)
(Settings from pcb-machine.h)
(  Tool Size)
(0.1778 )
(Z Axis Settings)
(  High     Up        Down     Drill)
(12.7000 	2.5400 	-0.1778 	-2.0000 )
(spindle on time = 1.0000)
(milling depth = -0.5000)
(text depth = -0.1270)
(tool change at 0.0000 0.0000 30.0000 )
(feed rate xy = F508.00 )
(feed rate z  = F254.00 )
(Settings from pcb-defaults.h)
(isolate min = 0.0254)
(isolate max = 0.5080)
(isolate step = 0.1270)
(Generated bottom outlines, bottom drill, )
(Unit of measure: mm)
(Metric Mode)
G21
(Absolute Coordinates)
G90
G00 X0.0000 Y0.0000 
M03
G04 P1.000000
G00 Z2.5400 
G00 X-11.4808 Y5.9130 
G01 Z-0.1778 F254.00 
G01 X-11.5030 Y6.0532 F508.00 
G01 X-11.5469 Y6.1881 
G01 X-11.6113 Y6.3146 
G01 X-11.6947 Y6.4294 
G01 X-11.7951 Y6.5298 
G01 X-11.9099 Y6.6132 
G01 X-12.0142 Y6.6663 
G01 X-12.0142 Y6.6379 
G01 X-11.9674 Y6.6186 
G01 X-11.8239 Y6.5227 
G01 X-11.7018 Y6.4006 
G01 X-11.6059 Y6.2571 
G01 X-11.5399 Y6.0976 
G01 X-11.5062 Y5.9283 
G01 X-11.5062 Y5.4483 
G01 X-11.4808 Y5.4483 
G01 X-11.4808 Y5.9130 
G00 Z2.5400 
G00 X-1.6383 Y24.3280 
G01 Z-0.1778 F254.00 
G01 X-1.6605 Y24.4682 F508.00 
G01 X-1.7044 Y24.6031 
G01 X-1.7688 Y24.7296 
G01 X-1.8522 Y24.8444 
G01 X-1.9526 Y24.9448 
G01 X-2.0674 Y25.0282 
G01 X-2.1717 Y25.0813 
G01 X-2.1717 Y25.0529 
G01 X-2.1249 Y25.0336 
G01 X-1.9814 Y24.9377 
G01 X-1.8593 Y24.8156 
G01 X-1.7634 Y24.6721 
G01 X-1.6974 Y24.5126 
G01 X-1.6637 Y24.3433 
G01 X-1.6637 Y23.8633 
G01 X-1.6383 Y23.8633 
G01 X-1.6383 Y24.3280 
G00 Z2.5400 
G00 X-1.8522 Y22.1456 
G01 Z-0.1778 F254.00 
G01 X-1.7688 Y22.2604 F508.00 
G01 X-1.7044 Y22.3869 
G01 X-1.6605 Y22.5218 
G01 X-1.6383 Y22.6620 
G01 X-1.6383 Y23.1267 
G01 X-1.6637 Y23.1267 
G01 X-1.6637 Y22.6467 
G01 X-1.6974 Y22.4774 
G01 X-1.7634 Y22.3179 
G01 X-1.8593 Y22.1744 
G01 X-1.9814 Y22.0523 
G01 X-2.1249 Y21.9564 
G01 X-2.1717 Y21.9371 
G01 X-2.1717 Y21.9087 
G01 X-2.0674 Y21.9618 
G01 X-1.9526 Y22.0452 
G01 X-1.8522 Y22.1456 
G00 Z2.5400 
G00 X-1.6383 Y20.5180 
G01 Z-0.1778 F254.00 
G01 X-1.6605 Y20.6582 F508.00 
G01 X-1.7044 Y20.7931 
G01 X-1.7688 Y20.9196 
G01 X-1.8522 Y21.0344 
G01 X-1.9526 Y21.1348 
G01 X-2.0674 Y21.2182 
G01 X-2.1717 Y21.2713 
G01 X-2.1717 Y21.2429 
G01 X-2.1249 Y21.2236 
G01 X-1.9814 Y21.1277 
G01 X-1.8593 Y21.0056 
G01 X-1.7634 Y20.8621 
G01 X-1.6974 Y20.7026 
G01 X-1.6637 Y20.5333 
G01 X-1.6637 Y20.0533 
G01 X-1.6383 Y20.0533 
G01 X-1.6383 Y20.5180 
G00 Z2.5400 
G00 X-1.8522 Y18.3356 
G01 Z-0.1778 F254.00 
G01 X-1.7688 Y18.4504 F508.00 
G01 X-1.7044 Y18.5769 
G01 X-1.6605 Y18.7118 
G01 X-1.6383 Y18.8520 
G01 X-1.6383 Y19.3167 
G01 X-1.6637 Y19.3167 
G01 X-1.6637 Y18.8367 
G01 X-1.6974 Y18.6674 
G01 X-1.7634 Y18.5079 
G01 X-1.8593 Y18.3644 
G01 X-1.9814 Y18.2423 
G01 X-2.1249 Y18.1464 
G01 X-2.1717 Y18.1271 
G01 X-2.1717 Y18.0987 
G01 X-2.0674 Y18.1518 
G01 X-1.9526 Y18.2352 
G01 X-1.8522 Y18.3356 
G00 Z2.5400 
G00 X-1.6383 Y16.7080 
G01 Z-0.1778 F254.00 
G01 X-1.6605 Y16.8482 F508.00 
G01 X-1.7044 Y16.9831 
G01 X-1.7688 Y17.1096 
G01 X-1.8522 Y17.2244 
G01 X-1.9526 Y17.3248 
G01 X-2.0674 Y17.4082 
G01 X-2.1717 Y17.4613 
G01 X-2.1717 Y17.4329 
G01 X-2.1249 Y17.4136 
G01 X-1.9814 Y17.3177 
G01 X-1.8593 Y17.1956 
G01 X-1.7634 Y17.0521 
G01 X-1.6974 Y16.8926 
G01 X-1.6637 Y16.7233 
G01 X-1.6637 Y16.2433 
G01 X-1.6383 Y16.2433 
G01 X-1.6383 Y16.7080 
G00 Z2.5400 
G00 X-3.4417 Y15.0420 
G01 Z-0.1778 F254.00 
G01 X-3.4195 Y14.9018 F508.00 
G01 X-3.3756 Y14.7669 
G01 X-3.3112 Y14.6404 
G01 X-3.2278 Y14.5256 
G01 X-3.1274 Y14.4252 
G01 X-3.0126 Y14.3418 
G01 X-2.9083 Y14.2887 
G01 X-2.9083 Y14.3171 
G01 X-2.9551 Y14.3364 
G01 X-3.0986 Y14.4323 
G01 X-3.2207 Y14.5544 
G01 X-3.3166 Y14.6979 
G01 X-3.3826 Y14.8574 
G01 X-3.4163 Y15.0267 
G01 X-3.4163 Y15.5067 
G01 X-3.4417 Y15.5067 
G01 X-3.4417 Y15.0420 
G00 Z2.5400 
G00 X-3.2278 Y17.2244 
G01 Z-0.1778 F254.00 
G01 X-3.3112 Y17.1096 F508.00 
G01 X-3.3756 Y16.9831 
G01 X-3.4195 Y16.8482 
G01 X-3.4417 Y16.7080 
G01 X-3.4417 Y16.2433 
G01 X-3.4163 Y16.2433 
G01 X-3.4163 Y16.7233 
G01 X-3.3826 Y16.8926 
G01 X-3.3166 Y17.0521 
G01 X-3.2207 Y17.1956 
G01 X-3.0986 Y17.3177 
G01 X-2.9551 Y17.4136 
G01 X-2.9083 Y17.4329 
G01 X-2.9083 Y17.4613 
G01 X-3.0126 Y17.4082 
G01 X-3.1274 Y17.3248 
G01 X-3.2278 Y17.2244 
G00 Z2.5400 
G00 X-3.4417 Y18.8520 
G01 Z-0.1778 F254.00 
G01 X-3.4195 Y18.7118 F508.00 
G01 X-3.3756 Y18.5769 
G01 X-3.3112 Y18.4504 
G01 X-3.2278 Y18.3356 
G01 X-3.1274 Y18.2352 
G01 X-3.0126 Y18.1518 
G01 X-2.9083 Y18.0986 
G01 X-2.9083 Y18.1271 
G01 X-2.9551 Y18.1464 
G01 X-3.0986 Y18.2423 
G01 X-3.2207 Y18.3644 
G01 X-3.3166 Y18.5079 
G01 X-3.3826 Y18.6674 
G01 X-3.4163 Y18.8367 
G01 X-3.4163 Y19.3167 
G01 X-3.4417 Y19.3167 
G01 X-3.4417 Y18.8520 
G00 Z2.5400 
G00 X-3.2278 Y21.0344 
G01 Z-0.1778 F254.00 
G01 X-3.3112 Y20.9196 F508.00 
G01 X-3.3756 Y20.7931 
G01 X-3.4195 Y20.6582 
G01 X-3.4417 Y20.5180 
G01 X-3.4417 Y20.0533 
G01 X-3.4163 Y20.0533 
G01 X-3.4163 Y20.5333 
G01 X-3.3826 Y20.7026 
G01 X-3.3166 Y20.8621 
G01 X-3.2207 Y21.0056 
G01 X-3.0986 Y21.1277 
G01 X-2.9551 Y21.2236 
G01 X-2.9083 Y21.2429 
G01 X-2.9083 Y21.2713 
G01 X-3.0126 Y21.2182 
G01 X-3.1274 Y21.1348 
G01 X-3.2278 Y21.0344 
G00 Z2.5400 
G00 X-3.4417 Y22.6620 
G01 Z-0.1778 F254.00 
G01 X-3.4195 Y22.5218 F508.00 
G01 X-3.3756 Y22.3869 
G01 X-3.3112 Y22.2604 
G01 X-3.2278 Y22.1456 
G01 X-3.1274 Y22.0452 
G01 X-3.0126 Y21.9618 
G01 X-2.9083 Y21.9087 
G01 X-2.9083 Y21.9371 
G01 X-2.9551 Y21.9564 
G01 X-3.0986 Y22.0523 
G01 X-3.2207 Y22.1744 
G01 X-3.3166 Y22.3179 
G01 X-3.3826 Y22.4774 
G01 X-3.4163 Y22.6467 
G01 X-3.4163 Y23.1267 
G01 X-3.4417 Y23.1267 
G01 X-3.4417 Y22.6620 
G00 Z2.5400 
G00 X-3.2278 Y24.8444 
G01 Z-0.1778 F254.00 
G01 X-3.3112 Y24.7296 F508.00 
G01 X-3.3756 Y24.6031 
G01 X-3.4195 Y24.4682 
G01 X-3.4417 Y24.3280 
G01 X-3.4417 Y23.8633 
G01 X-3.4163 Y23.8633 
G01 X-3.4163 Y24.3433 
G01 X-3.3826 Y24.5126 
G01 X-3.3166 Y24.6721 
G01 X-3.2207 Y24.8156 
G01 X-3.0986 Y24.9377 
G01 X-2.9551 Y25.0336 
G01 X-2.9083 Y25.0529 
G01 X-2.9083 Y25.0813 
G01 X-3.0126 Y25.0282 
G01 X-3.1274 Y24.9448 
G01 X-3.2278 Y24.8444 
G00 Z2.5400 
G00 X-2.0674 Y14.3418 
G01 Z-0.1778 F254.00 
G01 X-1.9526 Y14.4252 F508.00 
G01 X-1.8522 Y14.5256 
G01 X-1.7688 Y14.6404 
G01 X-1.7044 Y14.7669 
G01 X-1.6605 Y14.9018 
G01 X-1.6383 Y15.0420 
G01 X-1.6383 Y15.5067 
G01 X-1.6637 Y15.5067 
G01 X-1.6637 Y15.0267 
G01 X-1.6974 Y14.8574 
G01 X-1.7634 Y14.6979 
G01 X-1.8593 Y14.5544 
G01 X-1.9814 Y14.4323 
G01 X-2.1249 Y14.3364 
G01 X-2.1717 Y14.3171 
G01 X-2.1717 Y14.2887 
G01 X-2.0674 Y14.3418 
G00 Z2.5400 
G00 X-33.7434 Y30.0101 
G01 Z-0.1778 F254.00 
G01 X-33.8678 Y29.9904 F508.00 
G01 X-33.9875 Y29.9515 
G01 X-34.0997 Y29.8943 
G01 X-34.2016 Y29.8203 
G01 X-34.2907 Y29.7312 
G01 X-34.3647 Y29.6293 
G01 X-34.4166 Y29.5275 
G01 X-34.3874 Y29.5275 
G01 X-34.3669 Y29.5770 
G01 X-34.2821 Y29.7038 
G01 X-34.1742 Y29.8117 
G01 X-34.0474 Y29.8965 
G01 X-33.9064 Y29.9549 
G01 X-33.7567 Y29.9847 
G01 X-33.3375 Y29.9847 
G01 X-33.3375 Y30.0101 
G01 X-33.7434 Y30.0101 
G00 Z2.5400 
G00 X-32.2966 Y28.4099 
G01 Z-0.1778 F254.00 
G01 X-32.1722 Y28.4296 F508.00 
G01 X-32.0525 Y28.4685 
G01 X-31.9402 Y28.5257 
G01 X-31.8384 Y28.5997 
G01 X-31.7493 Y28.6888 
G01 X-31.6753 Y28.7906 
G01 X-31.6234 Y28.8925 
G01 X-31.6526 Y28.8925 
G01 X-31.6731 Y28.8430 
G01 X-31.7579 Y28.7162 
G01 X-31.8658 Y28.6083 
G01 X-31.9926 Y28.5235 
G01 X-32.1336 Y28.4651 
G01 X-32.2833 Y28.4353 
G01 X-32.7025 Y28.4353 
G01 X-32.7025 Y28.4099 
G01 X-32.2966 Y28.4099 
G00 Z2.5400 
G00 X-34.2016 Y28.5997 
G01 Z-0.1778 F254.00 
G01 X-34.0997 Y28.5257 F508.00 
G01 X-33.9875 Y28.4685 
G01 X-33.8678 Y28.4296 
G01 X-33.7434 Y28.4099 
G01 X-33.3375 Y28.4099 
G01 X-33.3375 Y28.4353 
G01 X-33.7567 Y28.4353 
G01 X-33.9064 Y28.4651 
G01 X-34.0474 Y28.5235 
G01 X-34.1742 Y28.6083 
G01 X-34.2821 Y28.7162 
G01 X-34.3669 Y28.8430 
G01 X-34.3874 Y28.8925 
G01 X-34.4166 Y28.8925 
G01 X-34.3647 Y28.7906 
G01 X-34.2907 Y28.6888 
G01 X-34.2016 Y28.5997 
G00 Z2.5400 
G00 X-31.6753 Y29.6293 
G01 Z-0.1778 F254.00 
G01 X-31.7493 Y29.7312 F508.00 
G01 X-31.8384 Y29.8203 
G01 X-31.9402 Y29.8943 
G01 X-32.0525 Y29.9515 
G01 X-32.1722 Y29.9904 
G01 X-32.2966 Y30.0101 
G01 X-32.7025 Y30.0101 
G01 X-32.7025 Y29.9847 
G01 X-32.2833 Y29.9847 
G01 X-32.1336 Y29.9549 
G01 X-31.9926 Y29.8965 
G01 X-31.8658 Y29.8117 
G01 X-31.7579 Y29.7038 
G01 X-31.6731 Y29.5770 
G01 X-31.6526 Y29.5275 
G01 X-31.6234 Y29.5275 
G01 X-31.6753 Y29.6293 
G00 Z2.5400 
G00 X-27.8124 Y23.5814 
G01 Z-0.1778 F254.00 
G01 X-28.0518 Y23.3420 F508.00 
G01 X-28.1784 Y23.0362 
G01 X-28.1849 Y23.0134 
G01 X-28.1944 Y22.9977 
G01 X-28.2014 Y22.9808 
G01 X-28.2158 Y22.9620 
G01 X-28.2280 Y22.9417 
G01 X-28.2411 Y22.9290 
G01 X-28.2523 Y22.9145 
G01 X-28.2710 Y22.9001 
G01 X-28.2881 Y22.8836 
G01 X-28.3041 Y22.8747 
G01 X-28.3186 Y22.8636 
G01 X-28.3405 Y22.8545 
G01 X-28.3611 Y22.8430 
G01 X-28.3789 Y22.8386 
G01 X-28.3958 Y22.8316 
G01 X-28.4193 Y22.8285 
G01 X-30.4880 Y22.3113 
G01 X-30.5258 Y22.3012 
G01 X-30.5285 Y22.3012 
G01 X-30.5311 Y22.3005 
G01 X-30.5588 Y22.3010 
G01 X-30.5653 Y22.2983 
G01 X-30.5860 Y22.2868 
G01 X-30.6037 Y22.2824 
G01 X-30.6206 Y22.2754 
G01 X-30.6441 Y22.2723 
G01 X-30.6510 Y22.2706 
G01 X-30.6729 Y22.2537 
G01 X-30.6776 Y22.2511 
G01 X-30.7034 Y22.2409 
G01 X-30.7084 Y22.2359 
G01 X-30.7231 Y22.2174 
G01 X-30.7378 Y22.2065 
G01 X-30.7507 Y22.1935 
G01 X-30.7712 Y22.1817 
G01 X-30.7769 Y22.1775 
G01 X-30.7907 Y22.1535 
G01 X-30.7940 Y22.1493 
G01 X-30.8140 Y22.1300 
G01 X-30.8167 Y22.1235 
G01 X-30.8232 Y22.1008 
G01 X-30.8326 Y22.0851 
G01 X-30.8396 Y22.0682 
G01 X-30.8540 Y22.0494 
G01 X-30.8576 Y22.0433 
G01 X-30.8612 Y22.0159 
G01 X-30.8627 Y22.0107 
G01 X-30.8737 Y21.9853 
G01 X-30.8737 Y21.9783 
G01 X-30.8710 Y21.9547 
G01 X-30.8737 Y21.9366 
G01 X-30.8737 Y21.9183 
G01 X-30.8798 Y21.8955 
G01 X-30.8809 Y21.8885 
G01 X-30.8737 Y21.8617 
G01 X-30.8737 Y21.8590 
G01 X-30.8730 Y21.8564 
G01 X-30.8737 Y21.8172 
G01 X-30.8737 Y19.3032 
G01 X-30.8710 Y19.2824 
G01 X-30.8737 Y19.2616 
G01 X-30.8737 Y18.8384 
G01 X-30.8710 Y18.8176 
G01 X-30.8737 Y18.7968 
G01 X-30.8737 Y13.0699 
G01 X-30.8953 Y12.9892 
G01 X-30.9371 Y12.9168 
G01 X-30.9962 Y12.8577 
G01 X-31.0416 Y12.8315 
G01 X-31.0686 Y12.8159 
G01 X-31.1494 Y12.7942 
G01 X-31.2330 Y12.7942 
G01 X-31.3137 Y12.8159 
G01 X-31.3861 Y12.8577 
G01 X-31.7185 Y13.1900 
G01 X-32.0685 Y13.3350 
G01 X-32.3506 Y13.3350 
G01 X-32.4314 Y13.3566 
G01 X-32.5037 Y13.3984 
G01 X-32.5629 Y13.4575 
G01 X-32.6047 Y13.5299 
G01 X-32.6263 Y13.6107 
G01 X-32.6263 Y17.9234 
G01 X-32.6047 Y18.0041 
G01 X-32.5629 Y18.0765 
G01 X-32.5037 Y18.1357 
G01 X-32.4314 Y18.1775 
G01 X-32.3506 Y18.1991 
G01 X-32.1903 Y18.1991 
G01 X-31.8776 Y18.3286 
G01 X-31.6382 Y18.5680 
G01 X-31.5087 Y18.8807 
G01 X-31.5087 Y19.2193 
G01 X-31.6382 Y19.5320 
G01 X-31.8776 Y19.7714 
G01 X-32.1903 Y19.9009 
G01 X-33.8497 Y19.9009 
G01 X-34.1624 Y19.7714 
G01 X-34.4018 Y19.5320 
G01 X-34.5313 Y19.2193 
G01 X-34.5313 Y18.8807 
G01 X-34.4018 Y18.5680 
G01 X-34.1624 Y18.3286 
G01 X-33.8497 Y18.1991 
G01 X-33.6894 Y18.1991 
G01 X-33.6086 Y18.1775 
G01 X-33.5362 Y18.1357 
G01 X-33.4771 Y18.0765 
G01 X-33.4353 Y18.0041 
G01 X-33.4137 Y17.9234 
G01 X-33.4137 Y13.6107 
G01 X-33.4353 Y13.5299 
G01 X-33.4771 Y13.4575 
G01 X-33.5362 Y13.3984 
G01 X-33.6086 Y13.3566 
G01 X-33.6894 Y13.3350 
G01 X-33.9715 Y13.3350 
G01 X-34.3216 Y13.1900 
G01 X-34.5895 Y12.9221 
G01 X-34.7345 Y12.5720 
G01 X-34.7345 Y12.1930 
G01 X-34.5895 Y11.8429 
G01 X-34.3216 Y11.5750 
G01 X-33.9715 Y11.4300 
G01 X-32.0685 Y11.4300 
G01 X-31.7185 Y11.5750 
G01 X-31.3861 Y11.9073 
G01 X-31.3137 Y11.9491 
G01 X-31.2330 Y11.9708 
G01 X-31.1494 Y11.9708 
G01 X-31.0686 Y11.9491 
G01 X-31.0427 Y11.9342 
G01 X-30.9962 Y11.9073 
G01 X-30.9371 Y11.8482 
G01 X-30.8953 Y11.7758 
G01 X-30.8737 Y11.6951 
G01 X-30.8737 Y10.8294 
G01 X-30.8953 Y10.7486 
G01 X-30.9371 Y10.6762 
G01 X-30.9962 Y10.6171 
G01 X-31.0686 Y10.5753 
G01 X-31.1494 Y10.5537 
G01 X-31.5324 Y10.5537 
G01 X-31.6132 Y10.5753 
G01 X-31.6856 Y10.6171 
G01 X-31.7184 Y10.6500 
G01 X-32.0685 Y10.7950 
G01 X-33.9715 Y10.7950 
G01 X-34.3216 Y10.6500 
G01 X-34.5895 Y10.3821 
G01 X-34.7345 Y10.0320 
G01 X-34.7345 Y9.6530 
G01 X-34.5895 Y9.3029 
G01 X-34.3216 Y9.0350 
G01 X-33.9715 Y8.8900 
G01 X-32.0685 Y8.8900 
G01 X-31.7184 Y9.0350 
G01 X-31.4505 Y9.3029 
G01 X-31.3477 Y9.5511 
G01 X-31.3423 Y9.5714 
G01 X-31.3318 Y9.5895 
G01 X-31.3238 Y9.6089 
G01 X-31.3110 Y9.6256 
G01 X-31.3005 Y9.6437 
G01 X-31.2857 Y9.6586 
G01 X-31.2729 Y9.6752 
G01 X-31.2562 Y9.6880 
G01 X-31.2414 Y9.7029 
G01 X-31.2232 Y9.7133 
G01 X-31.2066 Y9.7261 
G01 X-31.1872 Y9.7342 
G01 X-31.1690 Y9.7447 
G01 X-31.1487 Y9.7501 
G01 X-31.1293 Y9.7581 
G01 X-31.1085 Y9.7609 
G01 X-31.0882 Y9.7663 
G01 X-31.0673 Y9.7663 
G01 X-31.0464 Y9.7690 
G01 X-31.0256 Y9.7663 
G01 X-30.4017 Y9.7663 
G01 X-30.2570 Y9.8262 
G01 X-30.1161 Y9.9671 
G01 X-30.0438 Y10.0089 
G01 X-29.9630 Y10.0305 
G01 X-29.8794 Y10.0305 
G01 X-29.8587 Y10.0250 
G01 X-29.7986 Y10.0089 
G01 X-29.7263 Y9.9671 
G01 X-29.6671 Y9.9080 
G01 X-29.6253 Y9.8356 
G01 X-29.6037 Y9.7548 
G01 X-29.6037 Y8.2894 
G01 X-29.6253 Y8.2086 
G01 X-29.6671 Y8.1362 
G01 X-29.7262 Y8.0771 
G01 X-29.7986 Y8.0353 
G01 X-29.8794 Y8.0137 
G01 X-31.5324 Y8.0137 
G01 X-31.6132 Y8.0353 
G01 X-31.6856 Y8.0771 
G01 X-31.7184 Y8.1100 
G01 X-32.0685 Y8.2550 
G01 X-33.9715 Y8.2550 
G01 X-34.3216 Y8.1100 
G01 X-34.5895 Y7.8421 
G01 X-34.7345 Y7.4920 
G01 X-34.7345 Y7.1130 
G01 X-34.5895 Y6.7629 
G01 X-34.3216 Y6.4950 
G01 X-33.9715 Y6.3500 
G01 X-32.0685 Y6.3500 
G01 X-31.7184 Y6.4950 
G01 X-31.4505 Y6.7629 
G01 X-31.3477 Y7.0111 
G01 X-31.3423 Y7.0314 
G01 X-31.3318 Y7.0495 
G01 X-31.3238 Y7.0689 
G01 X-31.3110 Y7.0856 
G01 X-31.3005 Y7.1037 
G01 X-31.2857 Y7.1186 
G01 X-31.2729 Y7.1352 
G01 X-31.2562 Y7.1480 
G01 X-31.2414 Y7.1629 
G01 X-31.2232 Y7.1733 
G01 X-31.2066 Y7.1861 
G01 X-31.1872 Y7.1942 
G01 X-31.1690 Y7.2047 
G01 X-31.1487 Y7.2101 
G01 X-31.1293 Y7.2181 
G01 X-31.1085 Y7.2209 
G01 X-31.0882 Y7.2263 
G01 X-31.0673 Y7.2263 
G01 X-31.0464 Y7.2290 
G01 X-31.0256 Y7.2263 
G01 X-29.1317 Y7.2263 
G01 X-28.9870 Y7.2862 
G01 X-28.8762 Y7.3970 
G01 X-28.8163 Y7.5417 
G01 X-28.8163 Y9.9068 
G01 X-28.8190 Y9.9276 
G01 X-28.8163 Y9.9484 
G01 X-28.8163 Y10.3716 
G01 X-28.8190 Y10.3924 
G01 X-28.8163 Y10.4132 
G01 X-28.8163 Y12.4468 
G01 X-28.8190 Y12.4676 
G01 X-28.8163 Y12.4884 
G01 X-28.8163 Y12.9116 
G01 X-28.8190 Y12.9324 
G01 X-28.8163 Y12.9532 
G01 X-28.8163 Y14.9868 
G01 X-28.8190 Y15.0076 
G01 X-28.8163 Y15.0284 
G01 X-28.8163 Y15.4516 
G01 X-28.8190 Y15.4724 
G01 X-28.8163 Y15.4932 
G01 X-28.8163 Y17.5268 
G01 X-28.8190 Y17.5476 
G01 X-28.8163 Y17.5684 
G01 X-28.8163 Y17.9916 
G01 X-28.8190 Y18.0124 
G01 X-28.8163 Y18.0332 
G01 X-28.8163 Y19.0906 
G01 X-28.8170 Y19.0933 
G01 X-28.8163 Y19.1325 
G01 X-28.8163 Y19.1715 
G01 X-28.8156 Y19.1741 
G01 X-28.8156 Y19.1768 
G01 X-28.8048 Y19.2145 
G01 X-28.7947 Y19.2523 
G01 X-28.7926 Y19.2572 
G01 X-28.7724 Y19.2908 
G01 X-28.7529 Y19.3247 
G01 X-28.7495 Y19.3289 
G01 X-28.7214 Y19.3561 
G01 X-28.6937 Y19.3838 
G01 X-28.6894 Y19.3870 
G01 X-28.6552 Y19.4060 
G01 X-28.6213 Y19.4256 
G01 X-28.6187 Y19.4263 
G01 X-28.5785 Y19.4371 
G01 X-28.5406 Y19.4472 
G01 X-28.5379 Y19.4472 
G01 X-27.9819 Y19.5862 
G01 X-27.9650 Y19.5932 
G01 X-27.9416 Y19.5963 
G01 X-27.9186 Y19.6020 
G01 X-27.9003 Y19.6017 
G01 X-27.8821 Y19.6041 
G01 X-27.8587 Y19.6010 
G01 X-27.8350 Y19.6006 
G01 X-27.8174 Y19.5956 
G01 X-27.7993 Y19.5932 
G01 X-27.7774 Y19.5841 
G01 X-27.7546 Y19.5776 
G01 X-27.7389 Y19.5682 
G01 X-27.4997 Y19.4691 
G01 X-25.8229 Y19.4691 
G01 X-25.7867 Y19.4704 
G01 X-25.7812 Y19.4691 
G01 X-25.7755 Y19.4691 
G01 X-25.7405 Y19.4597 
G01 X-25.7052 Y19.4516 
G01 X-25.7002 Y19.4489 
G01 X-25.6948 Y19.4475 
G01 X-25.6634 Y19.4293 
G01 X-25.6314 Y19.4123 
G01 X-25.6273 Y19.4085 
G01 X-25.6224 Y19.4057 
G01 X-25.5968 Y19.3801 
G01 X-25.5702 Y19.3553 
G01 X-25.5672 Y19.3505 
G01 X-25.5633 Y19.3465 
G01 X-25.5451 Y19.3152 
G01 X-25.5259 Y19.2844 
G01 X-25.5243 Y19.2790 
G01 X-25.5215 Y19.2742 
G01 X-25.5121 Y19.2391 
G01 X-25.5015 Y19.2045 
G01 X-25.5013 Y19.1988 
G01 X-25.4998 Y19.1934 
G01 X-25.4998 Y19.1572 
G01 X-25.4986 Y19.1209 
G01 X-25.4998 Y19.1154 
G01 X-25.4998 Y19.1098 
G01 X-25.5092 Y19.0748 
G01 X-25.5174 Y19.0395 
G01 X-25.5200 Y19.0345 
G01 X-25.5215 Y19.0290 
G01 X-25.5396 Y18.9976 
G01 X-25.5566 Y18.9657 
G01 X-25.5604 Y18.9615 
G01 X-25.5633 Y18.9566 
G01 X-25.5889 Y18.9310 
G01 X-25.6136 Y18.9045 
G01 X-25.6184 Y18.9015 
G01 X-25.6224 Y18.8975 
G01 X-25.6537 Y18.8794 
G01 X-25.9435 Y18.6983 
G01 X-25.9475 Y18.6943 
G01 X-25.9789 Y18.6762 
G01 X-26.0096 Y18.6570 
G01 X-26.0150 Y18.6554 
G01 X-26.0199 Y18.6525 
G01 X-26.0549 Y18.6432 
G01 X-26.0896 Y18.6326 
G01 X-26.0952 Y18.6324 
G01 X-26.1006 Y18.6309 
G01 X-26.1369 Y18.6309 
G01 X-26.1731 Y18.6296 
G01 X-26.1786 Y18.6309 
G01 X-27.4997 Y18.6309 
G01 X-27.8124 Y18.5014 
G01 X-28.0518 Y18.2620 
G01 X-28.1813 Y17.9493 
G01 X-28.1813 Y17.6107 
G01 X-28.0518 Y17.2980 
G01 X-27.8124 Y17.0586 
G01 X-27.4997 Y16.9291 
G01 X-25.8403 Y16.9291 
G01 X-25.5276 Y17.0586 
G01 X-25.2882 Y17.2980 
G01 X-25.1587 Y17.6107 
G01 X-25.1587 Y17.9447 
G01 X-25.1640 Y17.9621 
G01 X-25.1742 Y17.9866 
G01 X-25.1762 Y18.0019 
G01 X-25.1807 Y18.0166 
G01 X-25.1816 Y18.0432 
G01 X-25.1851 Y18.0695 
G01 X-25.1831 Y18.0848 
G01 X-25.1836 Y18.1002 
G01 X-25.1777 Y18.1261 
G01 X-25.1742 Y18.1524 
G01 X-25.1683 Y18.1666 
G01 X-25.1648 Y18.1817 
G01 X-25.1524 Y18.2051 
G01 X-25.1422 Y18.2296 
G01 X-25.1328 Y18.2419 
G01 X-25.1256 Y18.2555 
G01 X-25.1075 Y18.2749 
G01 X-25.0913 Y18.2960 
G01 X-25.0791 Y18.3053 
G01 X-25.0686 Y18.3166 
G01 X-25.0460 Y18.3307 
G01 X-25.0250 Y18.3469 
G01 X-25.0108 Y18.3528 
G01 X-23.9844 Y18.9942 
G01 X-23.9633 Y19.0104 
G01 X-23.9491 Y19.0163 
G01 X-23.9360 Y19.0245 
G01 X-23.9106 Y19.0322 
G01 X-23.9076 Y19.0335 
G01 X-23.8881 Y19.0544 
G01 X-23.8833 Y19.0574 
G01 X-23.8793 Y19.0614 
G01 X-23.8545 Y19.0757 
G01 X-23.8526 Y19.0784 
G01 X-23.8394 Y19.1014 
G01 X-23.8285 Y19.1123 
G01 X-23.8195 Y19.1248 
G01 X-23.7990 Y19.1417 
G01 X-23.7867 Y19.1708 
G01 X-23.7834 Y19.1754 
G01 X-23.7813 Y19.1806 
G01 X-23.7638 Y19.2033 
G01 X-23.7631 Y19.2065 
G01 X-23.7596 Y19.2329 
G01 X-23.7537 Y19.2471 
G01 X-23.7503 Y19.2621 
G01 X-23.7378 Y19.2856 
G01 X-23.7366 Y19.2885 
G01 X-23.7376 Y19.3172 
G01 X-23.7363 Y19.3227 
G01 X-23.7363 Y19.3283 
G01 X-23.7289 Y19.3560 
G01 X-23.7294 Y19.3592 
G01 X-23.7363 Y19.3848 
G01 X-23.7363 Y19.4002 
G01 X-23.7388 Y19.4154 
G01 X-23.7363 Y19.4419 
G01 X-23.7363 Y28.0183 
G01 X-23.7962 Y28.1630 
G01 X-23.9070 Y28.2738 
G01 X-24.0517 Y28.3337 
G01 X-24.8181 Y28.3337 
G01 X-24.8989 Y28.3553 
G01 X-24.9713 Y28.3971 
G01 X-25.0304 Y28.4562 
G01 X-25.3650 Y28.7909 
G01 X-26.0700 Y28.7909 
G01 X-26.5684 Y28.2925 
G01 X-26.5684 Y27.5875 
G01 X-26.0700 Y27.0891 
G01 X-25.3650 Y27.0891 
G01 X-25.0361 Y27.4180 
G01 X-24.9637 Y27.4598 
G01 X-24.8830 Y27.4814 
G01 X-24.7994 Y27.4814 
G01 X-24.7186 Y27.4598 
G01 X-24.6927 Y27.4448 
G01 X-24.6462 Y27.4180 
G01 X-24.5871 Y27.3589 
G01 X-24.5453 Y27.2865 
G01 X-24.5237 Y27.2057 
G01 X-24.5237 Y25.6532 
G01 X-24.5210 Y25.6324 
G01 X-24.5237 Y25.6116 
G01 X-24.5237 Y25.1884 
G01 X-24.5210 Y25.1676 
G01 X-24.5237 Y25.1468 
G01 X-24.5237 Y23.1132 
G01 X-24.5210 Y23.0924 
G01 X-24.5237 Y23.0716 
G01 X-24.5237 Y22.6484 
G01 X-24.5210 Y22.6276 
G01 X-24.5237 Y22.6068 
G01 X-24.5237 Y20.5732 
G01 X-24.5210 Y20.5524 
G01 X-24.5237 Y20.5316 
G01 X-24.5237 Y20.1084 
G01 X-24.5210 Y20.0876 
G01 X-24.5237 Y20.0668 
G01 X-24.5237 Y19.7673 
G01 X-24.5224 Y19.7310 
G01 X-24.5237 Y19.7255 
G01 X-24.5237 Y19.7199 
G01 X-24.5331 Y19.6849 
G01 X-24.5412 Y19.6496 
G01 X-24.5439 Y19.6446 
G01 X-24.5453 Y19.6391 
G01 X-24.5634 Y19.6078 
G01 X-24.5805 Y19.5757 
G01 X-24.5843 Y19.5716 
G01 X-24.5871 Y19.5667 
G01 X-24.6127 Y19.5411 
G01 X-24.6375 Y19.5146 
G01 X-24.6423 Y19.5116 
G01 X-24.6462 Y19.5076 
G01 X-24.6776 Y19.4895 
G01 X-24.8406 Y19.3877 
G01 X-24.8446 Y19.3837 
G01 X-24.8759 Y19.3656 
G01 X-24.9067 Y19.3464 
G01 X-24.9121 Y19.3447 
G01 X-24.9170 Y19.3419 
G01 X-24.9519 Y19.3325 
G01 X-24.9866 Y19.3219 
G01 X-24.9923 Y19.3217 
G01 X-24.9977 Y19.3202 
G01 X-25.0339 Y19.3202 
G01 X-25.0702 Y19.3190 
G01 X-25.0757 Y19.3203 
G01 X-25.0813 Y19.3203 
G01 X-25.1163 Y19.3296 
G01 X-25.1516 Y19.3378 
G01 X-25.1566 Y19.3404 
G01 X-25.1621 Y19.3419 
G01 X-25.1934 Y19.3600 
G01 X-25.2254 Y19.3770 
G01 X-25.2296 Y19.3809 
G01 X-25.2345 Y19.3837 
G01 X-25.2600 Y19.4093 
G01 X-25.2866 Y19.4340 
G01 X-25.2896 Y19.4388 
G01 X-25.2936 Y19.4428 
G01 X-25.3117 Y19.4742 
G01 X-25.3309 Y19.5049 
G01 X-25.3325 Y19.5103 
G01 X-25.3354 Y19.5152 
G01 X-25.3447 Y19.5502 
G01 X-25.3553 Y19.5849 
G01 X-25.3555 Y19.5905 
G01 X-25.3570 Y19.5960 
G01 X-25.3570 Y19.6322 
G01 X-25.3583 Y19.6684 
G01 X-25.3570 Y19.6739 
G01 X-25.3570 Y19.6796 
G01 X-25.3476 Y19.7146 
G01 X-25.3395 Y19.7499 
G01 X-25.3368 Y19.7549 
G01 X-25.3353 Y19.7603 
G01 X-25.3172 Y19.7917 
G01 X-25.3002 Y19.8237 
G01 X-25.2964 Y19.8278 
G01 X-25.2935 Y19.8327 
G01 X-25.2882 Y19.8380 
G01 X-25.1587 Y20.1507 
G01 X-25.1587 Y20.4893 
G01 X-25.2882 Y20.8020 
G01 X-25.5276 Y21.0414 
G01 X-25.8403 Y21.1709 
G01 X-27.4997 Y21.1709 
G01 X-27.8124 Y21.0414 
G01 X-28.0518 Y20.8020 
G01 X-28.1784 Y20.4961 
G01 X-28.1849 Y20.4734 
G01 X-28.1944 Y20.4577 
G01 X-28.2014 Y20.4408 
G01 X-28.2158 Y20.4220 
G01 X-28.2280 Y20.4017 
G01 X-28.2411 Y20.3890 
G01 X-28.2523 Y20.3745 
G01 X-28.2710 Y20.3601 
G01 X-28.2881 Y20.3436 
G01 X-28.3041 Y20.3347 
G01 X-28.3186 Y20.3236 
G01 X-28.3405 Y20.3145 
G01 X-28.3611 Y20.3030 
G01 X-28.3789 Y20.2986 
G01 X-28.3958 Y20.2916 
G01 X-28.4193 Y20.2885 
G01 X-29.2180 Y20.0888 
G01 X-29.2558 Y20.0787 
G01 X-29.2585 Y20.0787 
G01 X-29.2611 Y20.0780 
G01 X-29.2888 Y20.0785 
G01 X-29.2953 Y20.0758 
G01 X-29.3160 Y20.0643 
G01 X-29.3337 Y20.0599 
G01 X-29.3506 Y20.0529 
G01 X-29.3741 Y20.0498 
G01 X-29.3810 Y20.0481 
G01 X-29.4029 Y20.0312 
G01 X-29.4076 Y20.0286 
G01 X-29.4334 Y20.0184 
G01 X-29.4383 Y20.0134 
G01 X-29.4531 Y19.9949 
G01 X-29.4678 Y19.9840 
G01 X-29.4807 Y19.9710 
G01 X-29.5012 Y19.9592 
G01 X-29.5065 Y19.9553 
G01 X-29.5147 Y19.9410 
G01 X-29.5180 Y19.9368 
G01 X-29.5463 Y19.9095 
G01 X-29.5739 Y19.8819 
G01 X-29.5781 Y19.8787 
G01 X-29.6124 Y19.8597 
G01 X-29.6462 Y19.8401 
G01 X-29.6489 Y19.8394 
G01 X-29.6891 Y19.8286 
G01 X-29.7270 Y19.8185 
G01 X-29.7297 Y19.8185 
G01 X-29.7323 Y19.8178 
G01 X-29.7714 Y19.8185 
G01 X-29.8106 Y19.8185 
G01 X-29.8132 Y19.8192 
G01 X-29.8159 Y19.8192 
G01 X-29.8535 Y19.8300 
G01 X-29.8914 Y19.8401 
G01 X-29.8963 Y19.8422 
G01 X-29.9299 Y19.8624 
G01 X-29.9637 Y19.8819 
G01 X-29.9680 Y19.8852 
G01 X-29.9953 Y19.9134 
G01 X-30.0229 Y19.9410 
G01 X-30.0261 Y19.9453 
G01 X-30.0451 Y19.9796 
G01 X-30.0647 Y20.0134 
G01 X-30.0654 Y20.0161 
G01 X-30.0762 Y20.0563 
G01 X-30.0863 Y20.0942 
G01 X-30.0863 Y20.0969 
G01 X-30.0870 Y20.0995 
G01 X-30.0863 Y20.1386 
G01 X-30.0863 Y21.3131 
G01 X-30.0870 Y21.3158 
G01 X-30.0863 Y21.3550 
G01 X-30.0863 Y21.3940 
G01 X-30.0856 Y21.3966 
G01 X-30.0856 Y21.3993 
G01 X-30.0748 Y21.4370 
G01 X-30.0647 Y21.4748 
G01 X-30.0626 Y21.4797 
G01 X-30.0424 Y21.5133 
G01 X-30.0229 Y21.5472 
G01 X-30.0195 Y21.5514 
G01 X-29.9913 Y21.5787 
G01 X-29.9637 Y21.6063 
G01 X-29.9594 Y21.6095 
G01 X-29.9252 Y21.6285 
G01 X-29.8914 Y21.6481 
G01 X-29.8887 Y21.6488 
G01 X-29.8484 Y21.6596 
G01 X-29.8106 Y21.6697 
G01 X-29.8079 Y21.6697 
G01 X-27.9819 Y22.1262 
G01 X-27.9650 Y22.1332 
G01 X-27.9416 Y22.1363 
G01 X-27.9186 Y22.1420 
G01 X-27.9003 Y22.1417 
G01 X-27.8821 Y22.1441 
G01 X-27.8587 Y22.1410 
G01 X-27.8350 Y22.1406 
G01 X-27.8174 Y22.1356 
G01 X-27.7993 Y22.1332 
G01 X-27.7774 Y22.1241 
G01 X-27.7546 Y22.1176 
G01 X-27.7389 Y22.1082 
G01 X-27.4997 Y22.0091 
G01 X-25.8403 Y22.0091 
G01 X-25.5276 Y22.1386 
G01 X-25.2882 Y22.3780 
G01 X-25.1587 Y22.6907 
G01 X-25.1587 Y23.0293 
G01 X-25.2882 Y23.3420 
G01 X-25.5276 Y23.5814 
G01 X-25.8403 Y23.7109 
G01 X-27.4997 Y23.7109 
G01 X-27.8124 Y23.5814 
G00 Z2.5400 
G00 X-25.9333 Y17.0053 
G01 Z-0.1778 F254.00 
G01 X-27.4067 Y17.0053 F508.00 
G01 X-27.5564 Y17.0351 
G01 X-27.6974 Y17.0935 
G01 X-27.8242 Y17.1783 
G01 X-27.9321 Y17.2862 
G01 X-28.0169 Y17.4130 
G01 X-28.0753 Y17.5540 
G01 X-28.1051 Y17.7037 
G01 X-28.1051 Y17.8563 
G01 X-28.0753 Y18.0060 
G01 X-28.0169 Y18.1470 
G01 X-27.9321 Y18.2738 
G01 X-27.8242 Y18.3817 
G01 X-27.6974 Y18.4665 
G01 X-27.5564 Y18.5249 
G01 X-27.4067 Y18.5547 
G01 X-26.0295 Y18.5547 
G01 X-24.4475 Y19.5435 
G01 X-24.4475 Y27.6225 
G01 X-24.9428 Y27.6225 
G01 X-24.9428 Y27.6191 
G01 X-25.3966 Y27.1653 
G01 X-26.0384 Y27.1653 
G01 X-26.4922 Y27.6191 
G01 X-26.4922 Y28.2609 
G01 X-26.0384 Y28.7147 
G01 X-25.3966 Y28.7147 
G01 X-24.9428 Y28.2609 
G01 X-24.9428 Y28.2575 
G01 X-24.0882 Y28.2575 
G01 X-24.0074 Y28.2359 
G01 X-23.9351 Y28.1941 
G01 X-23.8759 Y28.1349 
G01 X-23.8341 Y28.0626 
G01 X-23.8125 Y27.9818 
G01 X-23.8125 Y19.3731 
G01 X-23.8112 Y19.3368 
G01 X-23.8125 Y19.3313 
G01 X-23.8125 Y19.3257 
G01 X-23.8219 Y19.2907 
G01 X-23.8300 Y19.2554 
G01 X-23.8327 Y19.2504 
G01 X-23.8341 Y19.2449 
G01 X-23.8522 Y19.2136 
G01 X-23.8693 Y19.1816 
G01 X-23.8731 Y19.1774 
G01 X-23.8759 Y19.1726 
G01 X-23.9015 Y19.1470 
G01 X-23.9263 Y19.1204 
G01 X-23.9311 Y19.1174 
G01 X-23.9351 Y19.1134 
G01 X-23.9664 Y19.0953 
G01 X-25.3704 Y18.2178 
G01 X-25.3231 Y18.1470 
G01 X-25.2647 Y18.0060 
G01 X-25.2349 Y17.8563 
G01 X-25.2349 Y17.7037 
G01 X-25.2647 Y17.5540 
G01 X-25.3231 Y17.4130 
G01 X-25.4078 Y17.2862 
G01 X-25.5158 Y17.1783 
G01 X-25.6426 Y17.0935 
G01 X-25.7836 Y17.0351 
G01 X-25.9333 Y17.0053 
G00 Z2.5400 
G00 X-25.9333 Y22.0853 
G01 Z-0.1778 F254.00 
G01 X-27.4067 Y22.0853 F508.00 
G01 X-27.5564 Y22.1151 
G01 X-27.6974 Y22.1735 
G01 X-27.8089 Y22.2480 
G01 X-30.1625 Y21.6596 
G01 X-30.1625 Y10.1182 
G01 X-30.1841 Y10.0374 
G01 X-30.2259 Y9.9650 
G01 X-30.2851 Y9.9059 
G01 X-30.3574 Y9.8641 
G01 X-30.4382 Y9.8425 
G01 X-31.3817 Y9.8425 
G01 X-31.3817 Y9.7562 
G01 X-31.4154 Y9.5869 
G01 X-31.4814 Y9.4274 
G01 X-31.5773 Y9.2839 
G01 X-31.6994 Y9.1618 
G01 X-31.8429 Y9.0659 
G01 X-32.0024 Y8.9999 
G01 X-32.1717 Y8.9662 
G01 X-33.8683 Y8.9662 
G01 X-34.0376 Y8.9999 
G01 X-34.1971 Y9.0659 
G01 X-34.3406 Y9.1618 
G01 X-34.4627 Y9.2839 
G01 X-34.5586 Y9.4274 
G01 X-34.6246 Y9.5869 
G01 X-34.6583 Y9.7562 
G01 X-34.6583 Y9.9288 
G01 X-34.6246 Y10.0981 
G01 X-34.5586 Y10.2576 
G01 X-34.4627 Y10.4011 
G01 X-34.3406 Y10.5232 
G01 X-34.1971 Y10.6191 
G01 X-34.0376 Y10.6851 
G01 X-33.8683 Y10.7188 
G01 X-32.1717 Y10.7188 
G01 X-32.0024 Y10.6851 
G01 X-31.8429 Y10.6191 
G01 X-31.6994 Y10.5232 
G01 X-31.6537 Y10.4775 
G01 X-30.7975 Y10.4775 
G01 X-30.7975 Y21.8684 
G01 X-30.7982 Y21.8710 
G01 X-30.7975 Y21.9102 
G01 X-30.7975 Y21.9493 
G01 X-30.7968 Y21.9519 
G01 X-30.7968 Y21.9546 
G01 X-30.7860 Y21.9923 
G01 X-30.7759 Y22.0301 
G01 X-30.7738 Y22.0350 
G01 X-30.7536 Y22.0686 
G01 X-30.7341 Y22.1024 
G01 X-30.7307 Y22.1067 
G01 X-30.7025 Y22.1340 
G01 X-30.6749 Y22.1616 
G01 X-30.6706 Y22.1648 
G01 X-30.6364 Y22.1838 
G01 X-30.6026 Y22.2034 
G01 X-30.5999 Y22.2041 
G01 X-30.5597 Y22.2149 
G01 X-30.5218 Y22.2250 
G01 X-30.5191 Y22.2250 
G01 X-28.1051 Y22.8285 
G01 X-28.1051 Y22.9363 
G01 X-28.0753 Y23.0860 
G01 X-28.0169 Y23.2270 
G01 X-27.9321 Y23.3538 
G01 X-27.8242 Y23.4617 
G01 X-27.6974 Y23.5465 
G01 X-27.5564 Y23.6049 
G01 X-27.4067 Y23.6347 
G01 X-25.9333 Y23.6347 
G01 X-25.7836 Y23.6049 
G01 X-25.6426 Y23.5465 
G01 X-25.5158 Y23.4617 
G01 X-25.4078 Y23.3538 
G01 X-25.3231 Y23.2270 
G01 X-25.2647 Y23.0860 
G01 X-25.2349 Y22.9363 
G01 X-25.2349 Y22.7837 
G01 X-25.2647 Y22.6340 
G01 X-25.3231 Y22.4930 
G01 X-25.4078 Y22.3662 
G01 X-25.5158 Y22.2583 
G01 X-25.6426 Y22.1735 
G01 X-25.7836 Y22.1151 
G01 X-25.9333 Y22.0853 
G00 Z2.5400 
G00 X-32.1717 Y6.4262 
G01 Z-0.1778 F254.00 
G01 X-33.8683 Y6.4262 F508.00 
G01 X-34.0376 Y6.4599 
G01 X-34.1971 Y6.5259 
G01 X-34.3406 Y6.6218 
G01 X-34.4627 Y6.7439 
G01 X-34.5586 Y6.8874 
G01 X-34.6246 Y7.0469 
G01 X-34.6583 Y7.2162 
G01 X-34.6583 Y7.3888 
G01 X-34.6246 Y7.5581 
G01 X-34.5586 Y7.7176 
G01 X-34.4627 Y7.8611 
G01 X-34.3406 Y7.9832 
G01 X-34.1971 Y8.0791 
G01 X-34.0376 Y8.1451 
G01 X-33.8683 Y8.1788 
G01 X-32.1717 Y8.1788 
G01 X-32.0024 Y8.1451 
G01 X-31.8429 Y8.0791 
G01 X-31.6994 Y7.9832 
G01 X-31.6537 Y7.9375 
G01 X-29.5275 Y7.9375 
G01 X-29.5275 Y19.6459 
G01 X-29.5282 Y19.6485 
G01 X-29.5275 Y19.6877 
G01 X-29.5275 Y19.7268 
G01 X-29.5268 Y19.7294 
G01 X-29.5267 Y19.7321 
G01 X-29.5160 Y19.7698 
G01 X-29.5059 Y19.8076 
G01 X-29.5038 Y19.8125 
G01 X-29.4836 Y19.8461 
G01 X-29.4641 Y19.8799 
G01 X-29.4607 Y19.8842 
G01 X-29.4325 Y19.9115 
G01 X-29.4049 Y19.9391 
G01 X-29.4006 Y19.9423 
G01 X-29.3664 Y19.9613 
G01 X-29.3326 Y19.9809 
G01 X-29.3299 Y19.9816 
G01 X-29.2897 Y19.9924 
G01 X-29.2518 Y20.0025 
G01 X-29.2491 Y20.0025 
G01 X-28.1051 Y20.2885 
G01 X-28.1051 Y20.3963 
G01 X-28.0753 Y20.5460 
G01 X-28.0169 Y20.6870 
G01 X-27.9321 Y20.8138 
G01 X-27.8242 Y20.9217 
G01 X-27.6974 Y21.0065 
G01 X-27.5564 Y21.0649 
G01 X-27.4067 Y21.0947 
G01 X-25.9333 Y21.0947 
G01 X-25.7836 Y21.0649 
G01 X-25.6426 Y21.0065 
G01 X-25.5158 Y20.9217 
G01 X-25.4078 Y20.8138 
G01 X-25.3231 Y20.6870 
G01 X-25.2647 Y20.5460 
G01 X-25.2349 Y20.3963 
G01 X-25.2349 Y20.2437 
G01 X-25.2647 Y20.0940 
G01 X-25.3231 Y19.9530 
G01 X-25.4078 Y19.8262 
G01 X-25.5158 Y19.7183 
G01 X-25.6426 Y19.6335 
G01 X-25.7836 Y19.5751 
G01 X-25.9333 Y19.5453 
G01 X-27.4067 Y19.5453 
G01 X-27.5564 Y19.5751 
G01 X-27.6974 Y19.6335 
G01 X-27.8089 Y19.7080 
G01 X-28.8925 Y19.4371 
G01 X-28.8925 Y7.5782 
G01 X-28.9141 Y7.4974 
G01 X-28.9559 Y7.4251 
G01 X-29.0151 Y7.3659 
G01 X-29.0874 Y7.3241 
G01 X-29.1682 Y7.3025 
G01 X-31.3817 Y7.3025 
G01 X-31.3817 Y7.2162 
G01 X-31.4154 Y7.0469 
G01 X-31.4814 Y6.8874 
G01 X-31.5773 Y6.7439 
G01 X-31.6994 Y6.6218 
G01 X-31.8429 Y6.5259 
G01 X-32.0024 Y6.4599 
G01 X-32.1717 Y6.4262 
G00 Z2.5400 
G00 X-32.1717 Y11.5062 
G01 Z-0.1778 F254.00 
G01 X-33.8683 Y11.5062 F508.00 
G01 X-34.0376 Y11.5399 
G01 X-34.1971 Y11.6059 
G01 X-34.3406 Y11.7018 
G01 X-34.4627 Y11.8239 
G01 X-34.5586 Y11.9674 
G01 X-34.6246 Y12.1269 
G01 X-34.6583 Y12.2962 
G01 X-34.6583 Y12.4688 
G01 X-34.6246 Y12.6381 
G01 X-34.5586 Y12.7976 
G01 X-34.4627 Y12.9411 
G01 X-34.3406 Y13.0632 
G01 X-34.1971 Y13.1591 
G01 X-34.0376 Y13.2251 
G01 X-33.8683 Y13.2588 
G01 X-33.3375 Y13.2588 
G01 X-33.3375 Y18.2753 
G01 X-33.7567 Y18.2753 
G01 X-33.9064 Y18.3051 
G01 X-34.0474 Y18.3635 
G01 X-34.1742 Y18.4483 
G01 X-34.2821 Y18.5562 
G01 X-34.3669 Y18.6830 
G01 X-34.4253 Y18.8240 
G01 X-34.4551 Y18.9737 
G01 X-34.4551 Y19.1263 
G01 X-34.4253 Y19.2760 
G01 X-34.3669 Y19.4170 
G01 X-34.2821 Y19.5438 
G01 X-34.1742 Y19.6517 
G01 X-34.0474 Y19.7365 
G01 X-33.9064 Y19.7949 
G01 X-33.7567 Y19.8247 
G01 X-32.2833 Y19.8247 
G01 X-32.1336 Y19.7949 
G01 X-31.9926 Y19.7365 
G01 X-31.8658 Y19.6517 
G01 X-31.7579 Y19.5438 
G01 X-31.6731 Y19.4170 
G01 X-31.6147 Y19.2760 
G01 X-31.5849 Y19.1263 
G01 X-31.5849 Y18.9737 
G01 X-31.6147 Y18.8240 
G01 X-31.6731 Y18.6830 
G01 X-31.7579 Y18.5562 
G01 X-31.8658 Y18.4483 
G01 X-31.9926 Y18.3635 
G01 X-32.1336 Y18.3051 
G01 X-32.2833 Y18.2753 
G01 X-32.7025 Y18.2753 
G01 X-32.7025 Y13.2588 
G01 X-32.1717 Y13.2588 
G01 X-32.0024 Y13.2251 
G01 X-31.8429 Y13.1591 
G01 X-31.6994 Y13.0632 
G01 X-31.5773 Y12.9411 
G01 X-31.4814 Y12.7976 
G01 X-31.4154 Y12.6381 
G01 X-31.3817 Y12.4688 
G01 X-31.3817 Y12.2962 
G01 X-31.4154 Y12.1269 
G01 X-31.4814 Y11.9674 
G01 X-31.5773 Y11.8239 
G01 X-31.6994 Y11.7018 
G01 X-31.8429 Y11.6059 
G01 X-32.0024 Y11.5399 
G01 X-32.1717 Y11.5062 
G00 Z2.5400 
G00 X-28.1813 Y12.8693 
G01 Z-0.1778 F254.00 
G01 X-28.1813 Y12.5307 F508.00 
G01 X-28.0518 Y12.2180 
G01 X-27.8124 Y11.9786 
G01 X-27.4997 Y11.8491 
G01 X-25.9330 Y11.8491 
G01 X-25.9008 Y11.8510 
G01 X-25.8913 Y11.8491 
G01 X-25.8817 Y11.8491 
G01 X-25.8505 Y11.8407 
G01 X-25.8189 Y11.8343 
G01 X-25.8102 Y11.8300 
G01 X-25.8009 Y11.8275 
G01 X-25.7730 Y11.8113 
G01 X-24.6367 Y11.2432 
G01 X-24.6178 Y11.2368 
G01 X-24.5995 Y11.2246 
G01 X-24.5798 Y11.2147 
G01 X-24.5649 Y11.2015 
G01 X-24.5483 Y11.1904 
G01 X-24.5337 Y11.1739 
G01 X-24.5172 Y11.1593 
G01 X-24.5063 Y11.1426 
G01 X-24.4931 Y11.1276 
G01 X-24.4833 Y11.1079 
G01 X-24.4712 Y11.0895 
G01 X-24.4649 Y11.0706 
G01 X-24.4560 Y11.0527 
G01 X-24.4517 Y11.0311 
G01 X-24.4447 Y11.0102 
G01 X-24.4436 Y10.9903 
G01 X-23.4909 Y6.2269 
G01 X-23.4868 Y6.2170 
G01 X-23.4827 Y6.1861 
G01 X-23.4766 Y6.1554 
G01 X-23.4773 Y6.1448 
G01 X-23.4759 Y6.1341 
G01 X-23.4800 Y6.1032 
G01 X-23.4820 Y6.0720 
G01 X-23.4854 Y6.0619 
G01 X-23.4868 Y6.0513 
G01 X-23.4950 Y6.0315 
G01 X-23.4950 Y4.1285 
G01 X-23.3500 Y3.7784 
G01 X-23.0821 Y3.5105 
G01 X-22.7320 Y3.3655 
G01 X-22.3530 Y3.3655 
G01 X-22.0029 Y3.5105 
G01 X-21.7350 Y3.7784 
G01 X-21.5900 Y4.1285 
G01 X-21.5900 Y6.0315 
G01 X-21.7350 Y6.3816 
G01 X-22.0029 Y6.6495 
G01 X-22.3530 Y6.7945 
G01 X-22.5097 Y6.7945 
G01 X-22.5198 Y6.7925 
G01 X-22.5513 Y6.7945 
G01 X-22.5829 Y6.7945 
G01 X-22.5929 Y6.7972 
G01 X-22.6033 Y6.7978 
G01 X-22.6332 Y6.8080 
G01 X-22.6637 Y6.8161 
G01 X-22.6726 Y6.8213 
G01 X-22.6825 Y6.8246 
G01 X-22.7087 Y6.8422 
G01 X-22.7361 Y6.8579 
G01 X-22.7434 Y6.8653 
G01 X-22.7520 Y6.8710 
G01 X-22.7729 Y6.8947 
G01 X-22.7952 Y6.9170 
G01 X-22.8004 Y6.9260 
G01 X-22.8072 Y6.9338 
G01 X-22.8212 Y6.9621 
G01 X-22.8370 Y6.9894 
G01 X-22.8397 Y6.9995 
G01 X-22.8443 Y7.0087 
G01 X-22.8504 Y7.0397 
G01 X-22.8586 Y7.0702 
G01 X-22.8586 Y7.0806 
G01 X-23.7171 Y11.3731 
G01 X-23.7254 Y11.4143 
G01 X-23.7333 Y11.4541 
G01 X-23.7317 Y11.4802 
G01 X-23.7356 Y11.4918 
G01 X-23.7444 Y11.5097 
G01 X-23.7488 Y11.5313 
G01 X-23.7557 Y11.5522 
G01 X-23.7569 Y11.5721 
G01 X-23.7593 Y11.5840 
G01 X-23.7727 Y11.6040 
G01 X-23.7813 Y11.6288 
G01 X-23.7893 Y11.6380 
G01 X-23.8043 Y11.6511 
G01 X-23.8165 Y11.6694 
G01 X-23.8310 Y11.6861 
G01 X-23.8397 Y11.7040 
G01 X-23.8465 Y11.7141 
G01 X-23.8665 Y11.7275 
G01 X-23.8839 Y11.7471 
G01 X-23.8948 Y11.7526 
G01 X-23.9137 Y11.7589 
G01 X-23.9320 Y11.7712 
G01 X-23.9517 Y11.7810 
G01 X-23.9666 Y11.7943 
G01 X-23.9768 Y11.8010 
G01 X-24.0004 Y11.8057 
G01 X-24.0390 Y11.8247 
G01 X-24.0754 Y11.8426 
G01 X-24.9544 Y12.2824 
G01 X-24.9638 Y12.2849 
G01 X-24.9917 Y12.3010 
G01 X-25.0206 Y12.3155 
G01 X-25.0278 Y12.3219 
G01 X-25.0361 Y12.3267 
G01 X-25.0590 Y12.3495 
G01 X-25.0831 Y12.3709 
G01 X-25.0884 Y12.3790 
G01 X-25.0953 Y12.3858 
G01 X-25.1114 Y12.4137 
G01 X-25.1292 Y12.4407 
G01 X-25.1322 Y12.4498 
G01 X-25.1371 Y12.4582 
G01 X-25.1454 Y12.4894 
G01 X-25.1556 Y12.5200 
G01 X-25.1562 Y12.5296 
G01 X-25.1587 Y12.5389 
G01 X-25.1587 Y12.5712 
G01 X-25.1606 Y12.6034 
G01 X-25.1587 Y12.6129 
G01 X-25.1587 Y12.8693 
G01 X-25.2882 Y13.1820 
G01 X-25.5276 Y13.4214 
G01 X-25.8403 Y13.5509 
G01 X-27.4997 Y13.5509 
G01 X-27.8124 Y13.4214 
G01 X-28.0518 Y13.1820 
G01 X-28.1813 Y12.8693 
G00 Z2.5400 
G00 X-25.9333 Y11.9253 
G01 Z-0.1778 F254.00 
G01 X-27.4067 Y11.9253 F508.00 
G01 X-27.5564 Y11.9551 
G01 X-27.6974 Y12.0135 
G01 X-27.8242 Y12.0983 
G01 X-27.9321 Y12.2062 
G01 X-28.0169 Y12.3330 
G01 X-28.0753 Y12.4740 
G01 X-28.1051 Y12.6237 
G01 X-28.1051 Y12.7763 
G01 X-28.0753 Y12.9260 
G01 X-28.0169 Y13.0670 
G01 X-27.9321 Y13.1938 
G01 X-27.8242 Y13.3017 
G01 X-27.6974 Y13.3865 
G01 X-27.5564 Y13.4449 
G01 X-27.4067 Y13.4747 
G01 X-25.9333 Y13.4747 
G01 X-25.7836 Y13.4449 
G01 X-25.6426 Y13.3865 
G01 X-25.5158 Y13.3017 
G01 X-25.4078 Y13.1938 
G01 X-25.3231 Y13.0670 
G01 X-25.2647 Y12.9260 
G01 X-25.2349 Y12.7763 
G01 X-25.2349 Y12.6237 
G01 X-25.2647 Y12.4740 
G01 X-25.3064 Y12.3732 
G01 X-24.0076 Y11.7238 
G01 X-23.9887 Y11.7174 
G01 X-23.9703 Y11.7051 
G01 X-23.9506 Y11.6953 
G01 X-23.9357 Y11.6821 
G01 X-23.9191 Y11.6710 
G01 X-23.9046 Y11.6544 
G01 X-23.8881 Y11.6398 
G01 X-23.8771 Y11.6232 
G01 X-23.8639 Y11.6082 
G01 X-23.8541 Y11.5884 
G01 X-23.8420 Y11.5701 
G01 X-23.8357 Y11.5511 
G01 X-23.8269 Y11.5333 
G01 X-23.8225 Y11.5116 
G01 X-23.8156 Y11.4907 
G01 X-23.8144 Y11.4708 
G01 X-22.8526 Y6.6620 
G01 X-22.7981 Y6.6846 
G01 X-22.6288 Y6.7183 
G01 X-22.4562 Y6.7183 
G01 X-22.2869 Y6.6846 
G01 X-22.1274 Y6.6186 
G01 X-21.9839 Y6.5227 
G01 X-21.8618 Y6.4006 
G01 X-21.7659 Y6.2571 
G01 X-21.6999 Y6.0976 
G01 X-21.6662 Y5.9283 
G01 X-21.6662 Y4.2317 
G01 X-21.6999 Y4.0624 
G01 X-21.7659 Y3.9029 
G01 X-21.8618 Y3.7594 
G01 X-21.9839 Y3.6373 
G01 X-22.1274 Y3.5414 
G01 X-22.2869 Y3.4754 
G01 X-22.4562 Y3.4417 
G01 X-22.6288 Y3.4417 
G01 X-22.7981 Y3.4754 
G01 X-22.9576 Y3.5414 
G01 X-23.1011 Y3.6373 
G01 X-23.2232 Y3.7594 
G01 X-23.3191 Y3.9029 
G01 X-23.3851 Y4.0624 
G01 X-23.4188 Y4.2317 
G01 X-23.4188 Y5.9283 
G01 X-23.3862 Y6.0921 
G01 X-24.4109 Y11.2155 
G01 X-25.8598 Y11.9399 
G01 X-25.9333 Y11.9253 
G00 Z2.5400 
G00 X-25.2882 Y24.9180 
G01 Z-0.1778 F254.00 
G01 X-25.1587 Y25.2307 F508.00 
G01 X-25.1587 Y25.5693 
G01 X-25.2882 Y25.8820 
G01 X-25.5276 Y26.1214 
G01 X-25.8403 Y26.2509 
G01 X-26.8744 Y26.2509 
G01 X-26.9552 Y26.2725 
G01 X-27.0276 Y26.3143 
G01 X-27.0867 Y26.3734 
G01 X-27.5911 Y26.8779 
G01 X-27.7170 Y27.0038 
G01 X-27.8617 Y27.0637 
G01 X-29.1294 Y27.0637 
G01 X-29.1609 Y27.0617 
G01 X-29.1710 Y27.0637 
G01 X-29.1814 Y27.0637 
G01 X-29.2096 Y27.0713 
G01 X-29.2379 Y27.0637 
G01 X-29.2486 Y27.0637 
G01 X-29.2591 Y27.0616 
G01 X-29.2902 Y27.0637 
G01 X-30.5583 Y27.0637 
G01 X-30.7030 Y27.0038 
G01 X-30.8880 Y26.8188 
G01 X-32.6624 Y25.0443 
G01 X-32.7348 Y25.0025 
G01 X-32.8156 Y24.9809 
G01 X-33.8497 Y24.9809 
G01 X-34.1624 Y24.8514 
G01 X-34.4018 Y24.6120 
G01 X-34.5313 Y24.2993 
G01 X-34.5313 Y23.9607 
G01 X-34.4018 Y23.6480 
G01 X-34.1624 Y23.4086 
G01 X-33.8497 Y23.2791 
G01 X-32.1903 Y23.2791 
G01 X-31.8776 Y23.4086 
G01 X-31.6382 Y23.6480 
G01 X-31.5087 Y23.9607 
G01 X-31.5087 Y24.2993 
G01 X-31.6496 Y24.6393 
G01 X-31.6600 Y24.6575 
G01 X-31.6655 Y24.6777 
G01 X-31.6735 Y24.6971 
G01 X-31.6763 Y24.7180 
G01 X-31.6817 Y24.7382 
G01 X-31.6817 Y24.7592 
G01 X-31.6844 Y24.7800 
G01 X-31.6817 Y24.8008 
G01 X-31.6817 Y24.8218 
G01 X-31.6763 Y24.8421 
G01 X-31.6735 Y24.8629 
G01 X-31.6655 Y24.8823 
G01 X-31.6600 Y24.9026 
G01 X-31.6496 Y24.9207 
G01 X-31.6415 Y24.9401 
G01 X-31.6287 Y24.9568 
G01 X-31.6182 Y24.9750 
G01 X-31.6034 Y24.9898 
G01 X-31.5906 Y25.0065 
G01 X-31.5740 Y25.0192 
G01 X-31.0686 Y25.5246 
G01 X-30.9962 Y25.5664 
G01 X-30.9155 Y25.5880 
G01 X-30.8319 Y25.5880 
G01 X-30.7511 Y25.5664 
G01 X-30.7252 Y25.5514 
G01 X-30.6787 Y25.5246 
G01 X-30.6196 Y25.4655 
G01 X-30.5778 Y25.3931 
G01 X-30.5562 Y25.3123 
G01 X-30.5562 Y24.8779 
G01 X-30.3996 Y24.4998 
G01 X-30.1102 Y24.2104 
G01 X-29.7321 Y24.0538 
G01 X-29.3229 Y24.0538 
G01 X-28.9448 Y24.2104 
G01 X-28.6554 Y24.4998 
G01 X-28.5459 Y24.7641 
G01 X-28.5405 Y24.7844 
G01 X-28.5300 Y24.8026 
G01 X-28.5220 Y24.8220 
G01 X-28.5092 Y24.8386 
G01 X-28.4987 Y24.8568 
G01 X-28.4839 Y24.8716 
G01 X-28.4711 Y24.8883 
G01 X-28.4544 Y24.9011 
G01 X-28.4396 Y24.9159 
G01 X-28.4214 Y24.9264 
G01 X-28.4047 Y24.9392 
G01 X-28.3854 Y24.9472 
G01 X-28.3672 Y24.9577 
G01 X-28.3469 Y24.9631 
G01 X-28.3275 Y24.9712 
G01 X-28.3067 Y24.9739 
G01 X-28.2864 Y24.9794 
G01 X-28.2654 Y24.9794 
G01 X-28.2446 Y24.9821 
G01 X-28.2238 Y24.9794 
G01 X-28.2028 Y24.9794 
G01 X-28.1825 Y24.9739 
G01 X-28.1617 Y24.9712 
G01 X-28.1423 Y24.9631 
G01 X-28.1221 Y24.9577 
G01 X-28.1039 Y24.9472 
G01 X-28.0845 Y24.9392 
G01 X-28.0678 Y24.9264 
G01 X-28.0497 Y24.9159 
G01 X-28.0348 Y24.9011 
G01 X-28.0182 Y24.8883 
G01 X-28.0054 Y24.8716 
G01 X-27.8124 Y24.6786 
G01 X-27.4997 Y24.5491 
G01 X-25.8403 Y24.5491 
G01 X-25.5276 Y24.6786 
G01 X-25.2882 Y24.9180 
G00 Z2.5400 
G00 X-33.7567 Y24.9047 
G01 Z-0.1778 F254.00 
G01 X-32.6943 Y24.9047 F508.00 
G01 X-30.7341 Y26.8649 
G01 X-30.6749 Y26.9241 
G01 X-30.6026 Y26.9659 
G01 X-30.5218 Y26.9875 
G01 X-29.2202 Y26.9875 
G01 X-29.1887 Y26.9895 
G01 X-29.1786 Y26.9875 
G01 X-27.8982 Y26.9875 
G01 X-27.8174 Y26.9659 
G01 X-27.7451 Y26.9241 
G01 X-27.6859 Y26.8649 
G01 X-26.9957 Y26.1747 
G01 X-25.9333 Y26.1747 
G01 X-25.7836 Y26.1449 
G01 X-25.6426 Y26.0865 
G01 X-25.5158 Y26.0017 
G01 X-25.4078 Y25.8938 
G01 X-25.3231 Y25.7670 
G01 X-25.2647 Y25.6260 
G01 X-25.2349 Y25.4763 
G01 X-25.2349 Y25.3237 
G01 X-25.2647 Y25.1740 
G01 X-25.3231 Y25.0330 
G01 X-25.4078 Y24.9062 
G01 X-25.5158 Y24.7982 
G01 X-25.6426 Y24.7135 
G01 X-25.7836 Y24.6551 
G01 X-25.9333 Y24.6253 
G01 X-27.4067 Y24.6253 
G01 X-27.5564 Y24.6551 
G01 X-27.6974 Y24.7135 
G01 X-27.8242 Y24.7982 
G01 X-27.9321 Y24.9062 
G01 X-28.0169 Y25.0330 
G01 X-28.0753 Y25.1740 
G01 X-28.1051 Y25.3237 
G01 X-28.1051 Y25.4763 
G01 X-28.0753 Y25.6260 
G01 X-28.0169 Y25.7670 
G01 X-27.9321 Y25.8938 
G01 X-27.8242 Y26.0017 
G01 X-27.7622 Y26.0432 
G01 X-28.0715 Y26.3525 
G01 X-28.9497 Y26.3525 
G01 X-29.0398 Y25.9022 
G01 X-28.9203 Y25.8224 
G01 X-28.7876 Y25.6897 
G01 X-28.6834 Y25.5337 
G01 X-28.6116 Y25.3603 
G01 X-28.5750 Y25.1763 
G01 X-28.5750 Y24.9887 
G01 X-28.6116 Y24.8047 
G01 X-28.6834 Y24.6313 
G01 X-28.7876 Y24.4753 
G01 X-28.9203 Y24.3426 
G01 X-29.0763 Y24.2384 
G01 X-29.2497 Y24.1666 
G01 X-29.4337 Y24.1300 
G01 X-29.6213 Y24.1300 
G01 X-29.8053 Y24.1666 
G01 X-29.9787 Y24.2384 
G01 X-30.1347 Y24.3426 
G01 X-30.2674 Y24.4753 
G01 X-30.3716 Y24.6313 
G01 X-30.4434 Y24.8047 
G01 X-30.4800 Y24.9887 
G01 X-30.4800 Y25.1763 
G01 X-30.4434 Y25.3603 
G01 X-30.3716 Y25.5337 
G01 X-30.2674 Y25.6897 
G01 X-30.1347 Y25.8224 
G01 X-29.9787 Y25.9266 
G01 X-29.8053 Y25.9984 
G01 X-29.6624 Y26.0268 
G01 X-29.5973 Y26.3525 
G01 X-30.3485 Y26.3525 
G01 X-31.9278 Y24.7732 
G01 X-31.8658 Y24.7317 
G01 X-31.7579 Y24.6238 
G01 X-31.6731 Y24.4970 
G01 X-31.6147 Y24.3560 
G01 X-31.5849 Y24.2063 
G01 X-31.5849 Y24.0537 
G01 X-31.6147 Y23.9040 
G01 X-31.6731 Y23.7630 
G01 X-31.7579 Y23.6362 
G01 X-31.8658 Y23.5282 
G01 X-31.9926 Y23.4435 
G01 X-32.1336 Y23.3851 
G01 X-32.2833 Y23.3553 
G01 X-33.7567 Y23.3553 
G01 X-33.9064 Y23.3851 
G01 X-34.0474 Y23.4435 
G01 X-34.1742 Y23.5282 
G01 X-34.2821 Y23.6362 
G01 X-34.3669 Y23.7630 
G01 X-34.4253 Y23.9040 
G01 X-34.4551 Y24.0537 
G01 X-34.4551 Y24.2063 
G01 X-34.4253 Y24.3560 
G01 X-34.3669 Y24.4970 
G01 X-34.2821 Y24.6238 
G01 X-34.1742 Y24.7317 
G01 X-34.0474 Y24.8165 
G01 X-33.9064 Y24.8749 
G01 X-33.7567 Y24.9047 
G00 Z2.5400 
G00 X-17.8980 Y22.1482 
G01 Z-0.1778 F254.00 
G01 X-17.8734 Y22.1729 F508.00 
G01 X-17.8733 Y22.1729 
G01 X-17.8217 Y22.2027 
G01 X-17.8010 Y22.2147 
G01 X-17.7529 Y22.2276 
G01 X-17.7202 Y22.2363 
G01 X-17.6366 Y22.2363 
G01 X-17.5558 Y22.2147 
G01 X-17.5018 Y22.1835 
G01 X-17.4835 Y22.1729 
G01 X-17.4512 Y22.1407 
G01 X-17.4243 Y22.1138 
G01 X-17.3945 Y22.0622 
G01 X-17.3825 Y22.0414 
G01 X-17.3697 Y21.9933 
G01 X-17.3609 Y21.9606 
G01 X-17.3609 Y21.8725 
G01 X-16.8625 Y21.3741 
G01 X-16.1575 Y21.3741 
G01 X-15.6591 Y21.8725 
G01 X-15.6591 Y22.5775 
G01 X-16.2052 Y23.1235 
G01 X-16.2326 Y23.1393 
G01 X-16.2870 Y23.1938 
G01 X-16.4317 Y23.2537 
G01 X-17.4902 Y23.2537 
G01 X-17.5710 Y23.2753 
G01 X-17.6434 Y23.3171 
G01 X-17.7025 Y23.3762 
G01 X-17.9076 Y23.5814 
G01 X-18.2203 Y23.7109 
G01 X-19.8797 Y23.7109 
G01 X-20.1924 Y23.5814 
G01 X-20.4318 Y23.3420 
G01 X-20.5613 Y23.0293 
G01 X-20.5613 Y22.6907 
G01 X-20.4318 Y22.3780 
G01 X-20.1924 Y22.1386 
G01 X-19.8797 Y22.0091 
G01 X-18.2203 Y22.0091 
G01 X-17.9076 Y22.1386 
G01 X-17.8980 Y22.1482 
G00 Z2.5400 
G00 X-17.2847 Y21.9041 
G01 Z-0.1778 F254.00 
G01 X-17.2847 Y22.5425 F508.00 
G01 X-17.6826 Y22.5425 
G01 X-17.7031 Y22.4930 
G01 X-17.7879 Y22.3662 
G01 X-17.8958 Y22.2583 
G01 X-18.0226 Y22.1735 
G01 X-18.1636 Y22.1151 
G01 X-18.3133 Y22.0853 
G01 X-19.7867 Y22.0853 
G01 X-19.9364 Y22.1151 
G01 X-20.0774 Y22.1735 
G01 X-20.2042 Y22.2583 
G01 X-20.3121 Y22.3662 
G01 X-20.3969 Y22.4930 
G01 X-20.4553 Y22.6340 
G01 X-20.4851 Y22.7837 
G01 X-20.4851 Y22.9363 
G01 X-20.4553 Y23.0860 
G01 X-20.3969 Y23.2270 
G01 X-20.3121 Y23.3538 
G01 X-20.2042 Y23.4617 
G01 X-20.0774 Y23.5465 
G01 X-19.9364 Y23.6049 
G01 X-19.7867 Y23.6347 
G01 X-18.3133 Y23.6347 
G01 X-18.1636 Y23.6049 
G01 X-18.0226 Y23.5465 
G01 X-17.8958 Y23.4617 
G01 X-17.7879 Y23.3538 
G01 X-17.7031 Y23.2270 
G01 X-17.6826 Y23.1775 
G01 X-16.4682 Y23.1775 
G01 X-16.3874 Y23.1559 
G01 X-16.3150 Y23.1141 
G01 X-16.2559 Y23.0549 
G01 X-16.2240 Y22.9997 
G01 X-16.1891 Y22.9997 
G01 X-15.7353 Y22.5459 
G01 X-15.7353 Y21.9041 
G01 X-16.1891 Y21.4503 
G01 X-16.8309 Y21.4503 
G01 X-17.2847 Y21.9041 
G00 Z2.5400 
G00 X-32.1870 Y3.8608 
G01 Z-0.1778 F254.00 
G01 X-32.0468 Y3.8830 F508.00 
G01 X-31.9119 Y3.9269 
G01 X-31.7854 Y3.9913 
G01 X-31.6706 Y4.0747 
G01 X-31.5702 Y4.1751 
G01 X-31.4868 Y4.2899 
G01 X-31.4337 Y4.3942 
G01 X-31.4621 Y4.3942 
G01 X-31.4814 Y4.3474 
G01 X-31.5773 Y4.2039 
G01 X-31.6994 Y4.0818 
G01 X-31.8429 Y3.9859 
G01 X-32.0024 Y3.9199 
G01 X-32.1717 Y3.8862 
G01 X-32.6517 Y3.8862 
G01 X-32.6517 Y3.8608 
G01 X-32.1870 Y3.8608 
G00 Z2.5400 
G00 X-33.8530 Y5.6642 
G01 Z-0.1778 F254.00 
G01 X-33.9932 Y5.6420 F508.00 
G01 X-34.1281 Y5.5981 
G01 X-34.2546 Y5.5337 
G01 X-34.3694 Y5.4503 
G01 X-34.4698 Y5.3499 
G01 X-34.5532 Y5.2351 
G01 X-34.6063 Y5.1308 
G01 X-34.5779 Y5.1308 
G01 X-34.5586 Y5.1776 
G01 X-34.4627 Y5.3211 
G01 X-34.3406 Y5.4432 
G01 X-34.1971 Y5.5391 
G01 X-34.0376 Y5.6051 
G01 X-33.8683 Y5.6388 
G01 X-33.3883 Y5.6388 
G01 X-33.3883 Y5.6642 
G01 X-33.8530 Y5.6642 
G00 Z2.5400 
G00 X-31.6706 Y5.4503 
G01 Z-0.1778 F254.00 
G01 X-31.7854 Y5.5337 F508.00 
G01 X-31.9119 Y5.5981 
G01 X-32.0468 Y5.6420 
G01 X-32.1870 Y5.6642 
G01 X-32.6517 Y5.6642 
G01 X-32.6517 Y5.6388 
G01 X-32.1717 Y5.6388 
G01 X-32.0024 Y5.6051 
G01 X-31.8429 Y5.5391 
G01 X-31.6994 Y5.4432 
G01 X-31.5773 Y5.3211 
G01 X-31.4814 Y5.1776 
G01 X-31.4621 Y5.1308 
G01 X-31.4337 Y5.1308 
G01 X-31.4868 Y5.2351 
G01 X-31.5702 Y5.3499 
G01 X-31.6706 Y5.4503 
G00 Z2.5400 
G00 X-8.7771 Y34.2138 
G01 Z-0.1778 F254.00 
G01 X-8.3679 Y34.2138 F508.00 
G01 X-7.9898 Y34.3704 
G01 X-7.8221 Y34.5381 
G01 X-7.8013 Y34.5618 
G01 X-7.7927 Y34.5675 
G01 X-7.7853 Y34.5749 
G01 X-7.7580 Y34.5906 
G01 X-7.7317 Y34.6082 
G01 X-7.7219 Y34.6115 
G01 X-7.7129 Y34.6167 
G01 X-7.6825 Y34.6248 
G01 X-7.6525 Y34.6349 
G01 X-7.6422 Y34.6356 
G01 X-7.6322 Y34.6383 
G01 X-7.6006 Y34.6383 
G01 X-7.5691 Y34.6403 
G01 X-7.5590 Y34.6383 
G01 X-7.5486 Y34.6383 
G01 X-7.5181 Y34.6301 
G01 X-5.8614 Y34.2988 
G01 X-5.8510 Y34.2988 
G01 X-5.8205 Y34.2906 
G01 X-5.7895 Y34.2844 
G01 X-5.7803 Y34.2798 
G01 X-5.7702 Y34.2771 
G01 X-5.7429 Y34.2614 
G01 X-5.7146 Y34.2474 
G01 X-5.7068 Y34.2405 
G01 X-5.6978 Y34.2353 
G01 X-5.6755 Y34.2130 
G01 X-5.6518 Y34.1922 
G01 X-5.6461 Y34.1835 
G01 X-5.6387 Y34.1762 
G01 X-5.6230 Y34.1489 
G01 X-5.6054 Y34.1226 
G01 X-5.6021 Y34.1128 
G01 X-5.5969 Y34.1038 
G01 X-5.5888 Y34.0734 
G01 X-5.5786 Y34.0434 
G01 X-5.5780 Y34.0331 
G01 X-5.5753 Y34.0231 
G01 X-5.5753 Y33.9915 
G01 X-5.5733 Y33.9600 
G01 X-5.5753 Y33.9498 
G01 X-5.5753 Y33.5588 
G01 X-4.5412 Y32.5247 
G01 X-3.0788 Y32.5247 
G01 X-2.0447 Y33.5588 
G01 X-2.0447 Y35.0212 
G01 X-3.0788 Y36.0553 
G01 X-4.5412 Y36.0553 
G01 X-5.4285 Y35.1681 
G01 X-5.4493 Y35.1443 
G01 X-5.4579 Y35.1386 
G01 X-5.4652 Y35.1313 
G01 X-5.4926 Y35.1155 
G01 X-5.5189 Y35.0980 
G01 X-5.5287 Y35.0946 
G01 X-5.5376 Y35.0895 
G01 X-5.5682 Y35.0813 
G01 X-5.5980 Y35.0712 
G01 X-5.6084 Y35.0705 
G01 X-5.6184 Y35.0678 
G01 X-5.6500 Y35.0678 
G01 X-5.6815 Y35.0658 
G01 X-5.6916 Y35.0678 
G01 X-5.7020 Y35.0678 
G01 X-5.7325 Y35.0760 
G01 X-7.3632 Y35.4021 
G01 X-7.3942 Y35.4062 
G01 X-7.4041 Y35.4103 
G01 X-7.4146 Y35.4124 
G01 X-7.4426 Y35.4263 
G01 X-7.4714 Y35.4382 
G01 X-7.4799 Y35.4447 
G01 X-7.4895 Y35.4495 
G01 X-7.5130 Y35.4701 
G01 X-7.5378 Y35.4891 
G01 X-7.5443 Y35.4976 
G01 X-7.5523 Y35.5046 
G01 X-7.5696 Y35.5306 
G01 X-7.5887 Y35.5554 
G01 X-7.5928 Y35.5653 
G01 X-7.5987 Y35.5742 
G01 X-7.6087 Y35.6038 
G01 X-7.7004 Y35.8252 
G01 X-7.9898 Y36.1146 
G01 X-8.3679 Y36.2712 
G01 X-8.7771 Y36.2712 
G01 X-9.1552 Y36.1146 
G01 X-9.4446 Y35.8252 
G01 X-9.6012 Y35.4471 
G01 X-9.6012 Y35.0379 
G01 X-9.4446 Y34.6598 
G01 X-9.1552 Y34.3704 
G01 X-8.7771 Y34.2138 
G00 Z2.5400 
G00 X-5.4991 Y33.5904 
G01 Z-0.1778 F254.00 
G01 X-5.4991 Y34.3040 F508.00 
G01 X-7.7528 Y34.7548 
G01 X-7.8326 Y34.6353 
G01 X-7.9653 Y34.5026 
G01 X-8.1213 Y34.3984 
G01 X-8.2947 Y34.3266 
G01 X-8.4787 Y34.2900 
G01 X-8.6663 Y34.2900 
G01 X-8.8503 Y34.3266 
G01 X-9.0237 Y34.3984 
G01 X-9.1797 Y34.5026 
G01 X-9.3124 Y34.6353 
G01 X-9.4166 Y34.7913 
G01 X-9.4884 Y34.9647 
G01 X-9.5250 Y35.1487 
G01 X-9.5250 Y35.3363 
G01 X-9.4884 Y35.5203 
G01 X-9.4166 Y35.6937 
G01 X-9.3124 Y35.8497 
G01 X-9.1797 Y35.9824 
G01 X-9.0237 Y36.0866 
G01 X-8.8503 Y36.1584 
G01 X-8.6663 Y36.1950 
G01 X-8.4787 Y36.1950 
G01 X-8.2947 Y36.1584 
G01 X-8.1213 Y36.0866 
G01 X-7.9653 Y35.9824 
G01 X-7.8326 Y35.8497 
G01 X-7.7284 Y35.6937 
G01 X-7.6566 Y35.5203 
G01 X-7.6282 Y35.3774 
G01 X-5.4991 Y34.9516 
G01 X-5.4991 Y34.9896 
G01 X-4.5096 Y35.9791 
G01 X-3.1104 Y35.9791 
G01 X-2.1209 Y34.9896 
G01 X-2.1209 Y33.5904 
G01 X-3.1104 Y32.6009 
G01 X-4.5096 Y32.6009 
G01 X-5.4991 Y33.5904 
G00 Z2.5400 
G00 X-34.5532 Y4.2899 
G01 Z-0.1778 F254.00 
G01 X-34.4698 Y4.1751 F508.00 
G01 X-34.3694 Y4.0747 
G01 X-34.2546 Y3.9913 
G01 X-34.1281 Y3.9269 
G01 X-33.9932 Y3.8830 
G01 X-33.8530 Y3.8608 
G01 X-33.3883 Y3.8608 
G01 X-33.3883 Y3.8862 
G01 X-33.8683 Y3.8862 
G01 X-34.0376 Y3.9199 
G01 X-34.1971 Y3.9859 
G01 X-34.3406 Y4.0818 
G01 X-34.4627 Y4.2039 
G01 X-34.5586 Y4.3474 
G01 X-34.5779 Y4.3942 
G01 X-34.6063 Y4.3942 
G01 X-34.5532 Y4.2899 
G00 Z2.5400 
G00 X-2.0955 Y29.9202 
G01 Z-0.1778 F254.00 
G01 X-3.0998 Y30.9245 F508.00 
G01 X-3.4163 Y30.9245 
G01 X-3.4163 Y30.8991 
G01 X-3.1104 Y30.8991 
G01 X-2.1209 Y29.9096 
G01 X-2.1209 Y29.6037 
G01 X-2.0955 Y29.6037 
G01 X-2.0955 Y29.9202 
G00 Z2.5400 
G00 X-5.4991 Y29.9096 
G01 Z-0.1778 F254.00 
G01 X-4.5096 Y30.8991 F508.00 
G01 X-4.2037 Y30.8991 
G01 X-4.2037 Y30.9245 
G01 X-4.5202 Y30.9245 
G01 X-5.5245 Y29.9202 
G01 X-5.5245 Y29.6037 
G01 X-5.4991 Y29.6037 
G01 X-5.4991 Y29.9096 
G00 Z2.5400 
G00 X-5.4991 Y28.5104 
G01 Z-0.1778 F254.00 
G01 X-5.4991 Y28.8163 F508.00 
G01 X-5.5245 Y28.8163 
G01 X-5.5245 Y28.4998 
G01 X-4.5202 Y27.4955 
G01 X-4.2037 Y27.4955 
G01 X-4.2037 Y27.5209 
G01 X-4.5096 Y27.5209 
G01 X-5.4991 Y28.5104 
G00 Z2.5400 
G00 X-3.0998 Y27.4955 
G01 Z-0.1778 F254.00 
G01 X-2.0955 Y28.4998 F508.00 
G01 X-2.0955 Y28.8163 
G01 X-2.1209 Y28.8163 
G01 X-2.1209 Y28.5104 
G01 X-3.1104 Y27.5209 
G01 X-3.4163 Y27.5209 
G01 X-3.4163 Y27.4955 
G01 X-3.0998 Y27.4955 
G00 Z2.5400 
G00 X-29.0763 Y36.0866 
G01 Z-0.1778 F254.00 
G01 X-28.9203 Y35.9824 F508.00 
G01 X-28.7876 Y35.8497 
G01 X-28.6834 Y35.6937 
G01 X-28.6596 Y35.6362 
G01 X-28.6306 Y35.6362 
G01 X-28.6911 Y35.7550 
G01 X-28.7816 Y35.8796 
G01 X-28.8904 Y35.9884 
G01 X-29.0150 Y36.0789 
G01 X-29.1338 Y36.1394 
G01 X-29.1338 Y36.1104 
G01 X-29.0763 Y36.0866 
G00 Z2.5400 
G00 X-28.6834 Y34.7913 
G01 Z-0.1778 F254.00 
G01 X-28.7876 Y34.6353 F508.00 
G01 X-28.9203 Y34.5026 
G01 X-29.0763 Y34.3984 
G01 X-29.1338 Y34.3746 
G01 X-29.1338 Y34.3456 
G01 X-29.0150 Y34.4061 
G01 X-28.8904 Y34.4966 
G01 X-28.7816 Y34.6054 
G01 X-28.6911 Y34.7300 
G01 X-28.6306 Y34.8488 
G01 X-28.6596 Y34.8488 
G01 X-28.6834 Y34.7913 
G00 Z2.5400 
G00 X-30.2734 Y35.8796 
G01 Z-0.1778 F254.00 
G01 X-30.3639 Y35.7550 F508.00 
G01 X-30.4244 Y35.6362 
G01 X-30.3954 Y35.6362 
G01 X-30.3716 Y35.6937 
G01 X-30.2674 Y35.8497 
G01 X-30.1347 Y35.9824 
G01 X-29.9787 Y36.0866 
G01 X-29.9212 Y36.1104 
G01 X-29.9212 Y36.1394 
G01 X-30.0400 Y36.0789 
G01 X-30.1646 Y35.9884 
G01 X-30.2734 Y35.8796 
G00 Z2.5400 
G00 X-30.3639 Y34.7300 
G01 Z-0.1778 F254.00 
G01 X-30.2734 Y34.6054 F508.00 
G01 X-30.1646 Y34.4966 
G01 X-30.0400 Y34.4061 
G01 X-29.9212 Y34.3456 
G01 X-29.9212 Y34.3746 
G01 X-29.9787 Y34.3984 
G01 X-30.1347 Y34.5026 
G01 X-30.2674 Y34.6353 
G01 X-30.3716 Y34.7913 
G01 X-30.3954 Y34.8488 
G01 X-30.4244 Y34.8488 
G01 X-30.3639 Y34.7300 
G00 Z2.5400 
G00 X-23.2493 Y36.4998 
G01 Z-0.1778 F254.00 
G01 X-23.7998 Y35.9493 F508.00 
G01 X-23.7998 Y35.8775 
G01 X-23.7744 Y35.8775 
G01 X-23.7744 Y35.9388 
G01 X-23.2388 Y36.4744 
G01 X-23.1775 Y36.4744 
G01 X-23.1775 Y36.4998 
G01 X-23.2493 Y36.4998 
G00 Z2.5400 
G00 X-21.9202 Y35.9493 
G01 Z-0.1778 F254.00 
G01 X-22.4707 Y36.4998 F508.00 
G01 X-22.5425 Y36.4998 
G01 X-22.5425 Y36.4744 
G01 X-22.4812 Y36.4744 
G01 X-21.9456 Y35.9388 
G01 X-21.9456 Y35.8775 
G01 X-21.9202 Y35.8775 
G01 X-21.9202 Y35.9493 
G00 Z2.5400 
G00 X-11.0744 Y30.8588 
G01 Z-0.1778 F254.00 
G01 X-10.5388 Y31.3944 F508.00 
G01 X-9.7812 Y31.3944 
G01 X-9.2456 Y30.8588 
G01 X-9.2456 Y30.7975 
G01 X-9.2202 Y30.7975 
G01 X-9.2202 Y30.8693 
G01 X-9.7707 Y31.4198 
G01 X-9.8177 Y31.4198 
G01 X-9.8385 Y31.4171 
G01 X-9.8593 Y31.4198 
G01 X-9.8803 Y31.4198 
G01 X-9.9006 Y31.4252 
G01 X-9.9214 Y31.4280 
G01 X-9.9408 Y31.4360 
G01 X-9.9610 Y31.4414 
G01 X-9.9792 Y31.4519 
G01 X-9.9986 Y31.4600 
G01 X-10.0153 Y31.4727 
G01 X-10.0334 Y31.4832 
G01 X-10.0483 Y31.4981 
G01 X-10.0649 Y31.5109 
G01 X-10.0777 Y31.5275 
G01 X-10.0926 Y31.5423 
G01 X-10.1030 Y31.5605 
G01 X-10.1158 Y31.5772 
G01 X-10.1239 Y31.5966 
G01 X-10.1344 Y31.6147 
G01 X-10.1398 Y31.6350 
G01 X-10.1478 Y31.6544 
G01 X-10.1506 Y31.6752 
G01 X-10.1560 Y31.6955 
G01 X-10.1560 Y31.7165 
G01 X-10.1587 Y31.7373 
G01 X-10.1560 Y31.7581 
G01 X-10.1560 Y31.7791 
G01 X-10.1506 Y31.7994 
G01 X-10.1478 Y31.8202 
G01 X-10.1398 Y31.8396 
G01 X-10.1344 Y31.8598 
G01 X-10.1239 Y31.8780 
G01 X-10.1158 Y31.8974 
G01 X-10.1030 Y31.9141 
G01 X-10.0926 Y31.9322 
G01 X-10.0777 Y31.9471 
G01 X-10.0649 Y31.9637 
G01 X-10.0483 Y31.9765 
G01 X-10.0334 Y31.9914 
G01 X-10.0153 Y32.0018 
G01 X-9.9986 Y32.0146 
G01 X-9.9792 Y32.0227 
G01 X-9.9610 Y32.0332 
G01 X-9.9408 Y32.0386 
G01 X-9.5989 Y32.1802 
G01 X-9.3202 Y32.4589 
G01 X-9.1694 Y32.8229 
G01 X-9.1694 Y33.2170 
G01 X-9.3202 Y33.5811 
G01 X-9.5989 Y33.8598 
G01 X-9.9630 Y34.0106 
G01 X-10.3570 Y34.0106 
G01 X-10.7211 Y33.8598 
G01 X-10.9998 Y33.5811 
G01 X-11.0039 Y33.5711 
G01 X-11.0167 Y33.5544 
G01 X-11.0272 Y33.5362 
G01 X-11.0421 Y33.5214 
G01 X-11.0548 Y33.5048 
G01 X-11.0715 Y33.4920 
G01 X-11.0863 Y33.4771 
G01 X-11.1045 Y33.4666 
G01 X-11.1212 Y33.4539 
G01 X-11.1405 Y33.4458 
G01 X-11.1587 Y33.4353 
G01 X-11.1790 Y33.4299 
G01 X-11.1984 Y33.4219 
G01 X-11.2192 Y33.4191 
G01 X-11.2395 Y33.4137 
G01 X-11.2605 Y33.4137 
G01 X-11.2813 Y33.4110 
G01 X-11.3021 Y33.4137 
G01 X-15.6106 Y33.4137 
G01 X-15.6914 Y33.4353 
G01 X-15.7638 Y33.4771 
G01 X-15.8229 Y33.5362 
G01 X-16.1575 Y33.8709 
G01 X-16.7144 Y33.8709 
G01 X-16.7952 Y33.8925 
G01 X-16.8676 Y33.9343 
G01 X-16.9267 Y33.9934 
G01 X-17.6174 Y34.6841 
G01 X-17.6340 Y34.6969 
G01 X-17.6468 Y34.7136 
G01 X-17.6616 Y34.7284 
G01 X-17.6721 Y34.7466 
G01 X-17.6849 Y34.7632 
G01 X-17.6929 Y34.7826 
G01 X-17.7034 Y34.8008 
G01 X-17.7089 Y34.8211 
G01 X-17.7169 Y34.8405 
G01 X-17.7196 Y34.8613 
G01 X-17.7251 Y34.8816 
G01 X-17.7251 Y34.9026 
G01 X-17.7278 Y34.9234 
G01 X-17.7251 Y34.9442 
G01 X-17.7251 Y34.9652 
G01 X-17.7196 Y34.9854 
G01 X-17.7169 Y35.0063 
G01 X-17.7089 Y35.0256 
G01 X-17.7038 Y35.0446 
G01 X-17.7038 Y35.4471 
G01 X-17.8604 Y35.8252 
G01 X-18.1498 Y36.1146 
G01 X-18.5279 Y36.2712 
G01 X-18.9371 Y36.2712 
G01 X-19.3152 Y36.1146 
G01 X-19.6046 Y35.8252 
G01 X-19.7612 Y35.4471 
G01 X-19.7612 Y35.0379 
G01 X-19.6046 Y34.6598 
G01 X-19.3152 Y34.3704 
G01 X-18.9371 Y34.2138 
G01 X-18.5346 Y34.2138 
G01 X-18.5156 Y34.2189 
G01 X-18.4963 Y34.2269 
G01 X-18.4754 Y34.2296 
G01 X-18.4552 Y34.2351 
G01 X-18.4342 Y34.2351 
G01 X-18.4134 Y34.2378 
G01 X-18.3925 Y34.2351 
G01 X-18.3716 Y34.2351 
G01 X-18.3513 Y34.2296 
G01 X-18.3305 Y34.2269 
G01 X-18.3111 Y34.2189 
G01 X-18.2908 Y34.2134 
G01 X-18.2726 Y34.2029 
G01 X-18.2532 Y34.1949 
G01 X-18.2366 Y34.1821 
G01 X-18.2184 Y34.1716 
G01 X-18.2036 Y34.1568 
G01 X-18.1869 Y34.1440 
G01 X-18.1741 Y34.1274 
G01 X-17.4243 Y33.3776 
G01 X-17.3825 Y33.3052 
G01 X-17.3609 Y33.2244 
G01 X-17.3609 Y32.6675 
G01 X-16.8625 Y32.1691 
G01 X-16.1575 Y32.1691 
G01 X-15.9175 Y32.4091 
G01 X-15.8451 Y32.4509 
G01 X-15.7644 Y32.4725 
G01 X-15.6808 Y32.4725 
G01 X-15.6000 Y32.4509 
G01 X-15.5741 Y32.4359 
G01 X-15.5276 Y32.4091 
G01 X-15.4685 Y32.3500 
G01 X-15.4267 Y32.2776 
G01 X-15.4051 Y32.1968 
G01 X-15.4051 Y32.0675 
G01 X-15.3797 Y32.0675 
G01 X-15.3797 Y32.0709 
G01 X-14.9259 Y32.5247 
G01 X-14.2841 Y32.5247 
G01 X-13.8303 Y32.0709 
G01 X-13.8303 Y32.0675 
G01 X-13.8049 Y32.0675 
G01 X-13.8049 Y32.0814 
G01 X-13.8373 Y32.1138 
G01 X-13.8791 Y32.1862 
G01 X-13.9008 Y32.2670 
G01 X-13.9008 Y32.3506 
G01 X-13.8894 Y32.3929 
G01 X-13.8791 Y32.4313 
G01 X-13.8689 Y32.4492 
G01 X-13.8373 Y32.5037 
G01 X-13.7782 Y32.5629 
G01 X-13.7058 Y32.6047 
G01 X-13.6251 Y32.6263 
G01 X-11.3021 Y32.6263 
G01 X-11.2813 Y32.6290 
G01 X-11.2605 Y32.6263 
G01 X-11.2395 Y32.6263 
G01 X-11.2192 Y32.6209 
G01 X-11.1984 Y32.6181 
G01 X-11.1790 Y32.6101 
G01 X-11.1587 Y32.6047 
G01 X-11.1405 Y32.5942 
G01 X-11.1212 Y32.5861 
G01 X-11.1045 Y32.5734 
G01 X-11.0863 Y32.5629 
G01 X-11.0715 Y32.5480 
G01 X-11.0548 Y32.5352 
G01 X-11.0421 Y32.5186 
G01 X-11.0272 Y32.5037 
G01 X-11.0167 Y32.4856 
G01 X-11.0039 Y32.4689 
G01 X-10.9998 Y32.4589 
G01 X-10.7211 Y32.1802 
G01 X-10.3792 Y32.0386 
G01 X-10.3590 Y32.0332 
G01 X-10.3408 Y32.0227 
G01 X-10.3214 Y32.0146 
G01 X-10.3047 Y32.0018 
G01 X-10.2866 Y31.9914 
G01 X-10.2717 Y31.9765 
G01 X-10.2551 Y31.9637 
G01 X-10.2423 Y31.9471 
G01 X-10.2274 Y31.9322 
G01 X-10.2170 Y31.9141 
G01 X-10.2042 Y31.8974 
G01 X-10.1961 Y31.8780 
G01 X-10.1856 Y31.8598 
G01 X-10.1802 Y31.8396 
G01 X-10.1722 Y31.8202 
G01 X-10.1694 Y31.7994 
G01 X-10.1640 Y31.7791 
G01 X-10.1640 Y31.7581 
G01 X-10.1613 Y31.7373 
G01 X-10.1640 Y31.7165 
G01 X-10.1640 Y31.6955 
G01 X-10.1694 Y31.6752 
G01 X-10.1722 Y31.6544 
G01 X-10.1802 Y31.6350 
G01 X-10.1856 Y31.6147 
G01 X-10.1961 Y31.5966 
G01 X-10.2042 Y31.5772 
G01 X-10.2170 Y31.5605 
G01 X-10.2274 Y31.5423 
G01 X-10.2423 Y31.5275 
G01 X-10.2551 Y31.5109 
G01 X-10.2717 Y31.4981 
G01 X-10.2866 Y31.4832 
G01 X-10.3047 Y31.4727 
G01 X-10.3214 Y31.4600 
G01 X-10.3408 Y31.4519 
G01 X-10.3590 Y31.4414 
G01 X-10.3792 Y31.4360 
G01 X-10.3986 Y31.4280 
G01 X-10.4194 Y31.4252 
G01 X-10.4397 Y31.4198 
G01 X-10.4607 Y31.4198 
G01 X-10.4815 Y31.4171 
G01 X-10.5023 Y31.4198 
G01 X-10.5493 Y31.4198 
G01 X-11.0998 Y30.8693 
G01 X-11.0998 Y30.7975 
G01 X-11.0744 Y30.7975 
G01 X-11.0744 Y30.8588 
G00 Z2.5400 
G00 X-10.9703 Y33.4531 
G01 Z-0.1778 F254.00 
G01 X-10.8703 Y33.6029 F508.00 
G01 X-10.7429 Y33.7303 
G01 X-10.5931 Y33.8303 
G01 X-10.4267 Y33.8993 
G01 X-10.2501 Y33.9344 
G01 X-10.0699 Y33.9344 
G01 X-9.8933 Y33.8993 
G01 X-9.7269 Y33.8303 
G01 X-9.5771 Y33.7303 
G01 X-9.4497 Y33.6029 
G01 X-9.3497 Y33.4531 
G01 X-9.2807 Y33.2867 
G01 X-9.2456 Y33.1101 
G01 X-9.2456 Y32.9299 
G01 X-9.2807 Y32.7533 
G01 X-9.3497 Y32.5869 
G01 X-9.4497 Y32.4371 
G01 X-9.5771 Y32.3097 
G01 X-9.7269 Y32.2097 
G01 X-9.8933 Y32.1407 
G01 X-10.0699 Y32.1056 
G01 X-10.2501 Y32.1056 
G01 X-10.4267 Y32.1407 
G01 X-10.5931 Y32.2097 
G01 X-10.7429 Y32.3097 
G01 X-10.8703 Y32.4371 
G01 X-10.9703 Y32.5869 
G01 X-11.0182 Y32.7025 
G01 X-15.7353 Y32.7025 
G01 X-15.7353 Y32.6991 
G01 X-16.1891 Y32.2453 
G01 X-16.8309 Y32.2453 
G01 X-17.2847 Y32.6991 
G01 X-17.2847 Y33.3409 
G01 X-18.3210 Y34.3820 
G01 X-18.4547 Y34.3266 
G01 X-18.6387 Y34.2900 
G01 X-18.8263 Y34.2900 
G01 X-19.0103 Y34.3266 
G01 X-19.1837 Y34.3984 
G01 X-19.3397 Y34.5026 
G01 X-19.4724 Y34.6353 
G01 X-19.5766 Y34.7913 
G01 X-19.6484 Y34.9647 
G01 X-19.6850 Y35.1487 
G01 X-19.6850 Y35.3363 
G01 X-19.6484 Y35.5203 
G01 X-19.5766 Y35.6937 
G01 X-19.4724 Y35.8497 
G01 X-19.3397 Y35.9824 
G01 X-19.1837 Y36.0866 
G01 X-19.0103 Y36.1584 
G01 X-18.8263 Y36.1950 
G01 X-18.6387 Y36.1950 
G01 X-18.4547 Y36.1584 
G01 X-18.2813 Y36.0866 
G01 X-18.1253 Y35.9824 
G01 X-17.9926 Y35.8497 
G01 X-17.8884 Y35.6937 
G01 X-17.8166 Y35.5203 
G01 X-17.7800 Y35.3363 
G01 X-17.7800 Y35.1487 
G01 X-17.8166 Y34.9647 
G01 X-17.8720 Y34.8310 
G01 X-16.8333 Y33.7923 
G01 X-16.1891 Y33.7947 
G01 X-15.7353 Y33.3409 
G01 X-15.7353 Y33.3375 
G01 X-11.0182 Y33.3375 
G01 X-10.9703 Y33.4531 
G00 Z2.5400 
G00 X-14.9259 Y30.9753 
G01 Z-0.1778 F254.00 
G01 X-15.3797 Y31.4291 F508.00 
G01 X-15.3797 Y31.4325 
G01 X-15.4051 Y31.4325 
G01 X-15.4051 Y31.3032 
G01 X-15.4267 Y31.2224 
G01 X-15.4339 Y31.2101 
G01 X-15.3834 Y31.2236 
G01 X-15.2998 Y31.2236 
G01 X-15.2190 Y31.2019 
G01 X-15.1466 Y31.1601 
G01 X-14.9364 Y30.9499 
G01 X-14.9225 Y30.9499 
G01 X-14.9225 Y30.9753 
G01 X-14.9259 Y30.9753 
G00 Z2.5400 
G00 X-17.7031 Y9.7930 
G01 Z-0.1778 F254.00 
G01 X-17.7879 Y9.6662 F508.00 
G01 X-17.8958 Y9.5583 
G01 X-18.0226 Y9.4735 
G01 X-18.1636 Y9.4151 
G01 X-18.3133 Y9.3853 
G01 X-18.7325 Y9.3853 
G01 X-18.7325 Y9.3599 
G01 X-18.3266 Y9.3599 
G01 X-18.2022 Y9.3796 
G01 X-18.0825 Y9.4185 
G01 X-17.9702 Y9.4757 
G01 X-17.8684 Y9.5497 
G01 X-17.7793 Y9.6388 
G01 X-17.7053 Y9.7406 
G01 X-17.6534 Y9.8425 
G01 X-17.6826 Y9.8425 
G01 X-17.7031 Y9.7930 
G00 Z2.5400 
G00 X-13.2842 Y4.2470 
G01 Z-0.1778 F254.00 
G01 X-13.2620 Y4.1068 F508.00 
G01 X-13.2181 Y3.9719 
G01 X-13.1537 Y3.8454 
G01 X-13.0703 Y3.7306 
G01 X-12.9699 Y3.6302 
G01 X-12.8551 Y3.5468 
G01 X-12.7508 Y3.4937 
G01 X-12.7508 Y3.5221 
G01 X-12.7976 Y3.5414 
G01 X-12.9411 Y3.6373 
G01 X-13.0632 Y3.7594 
G01 X-13.1591 Y3.9029 
G01 X-13.2251 Y4.0624 
G01 X-13.2588 Y4.2317 
G01 X-13.2588 Y4.7117 
G01 X-13.2842 Y4.7117 
G01 X-13.2842 Y4.2470 
G00 Z2.5400 
G00 X-13.0703 Y6.4294 
G01 Z-0.1778 F254.00 
G01 X-13.1537 Y6.3146 F508.00 
G01 X-13.2181 Y6.1881 
G01 X-13.2620 Y6.0532 
G01 X-13.2842 Y5.9130 
G01 X-13.2842 Y5.4483 
G01 X-13.2588 Y5.4483 
G01 X-13.2588 Y5.9283 
G01 X-13.2251 Y6.0976 
G01 X-13.1591 Y6.2571 
G01 X-13.0632 Y6.4006 
G01 X-12.9411 Y6.5227 
G01 X-12.7976 Y6.6186 
G01 X-12.7508 Y6.6379 
G01 X-12.7508 Y6.6663 
G01 X-12.8551 Y6.6132 
G01 X-12.9699 Y6.5298 
G01 X-13.0703 Y6.4294 
G00 Z2.5400 
G00 X-16.5100 Y4.1285 
G01 Z-0.1778 F254.00 
G01 X-16.5100 Y6.0315 F508.00 
G01 X-16.6550 Y6.3816 
G01 X-16.9229 Y6.6495 
G01 X-17.2730 Y6.7945 
G01 X-17.6520 Y6.7945 
G01 X-18.0021 Y6.6495 
G01 X-18.2700 Y6.3816 
G01 X-18.4150 Y6.0315 
G01 X-18.4150 Y4.1285 
G01 X-18.2700 Y3.7784 
G01 X-18.0021 Y3.5105 
G01 X-17.6520 Y3.3655 
G01 X-17.2730 Y3.3655 
G01 X-16.9229 Y3.5105 
G01 X-16.6550 Y3.7784 
G01 X-16.5100 Y4.1285 
G00 Z2.5400 
G00 X-16.5862 Y5.9283 
G01 Z-0.1778 F254.00 
G01 X-16.5862 Y4.2317 F508.00 
G01 X-16.6199 Y4.0624 
G01 X-16.6859 Y3.9029 
G01 X-16.7818 Y3.7594 
G01 X-16.9039 Y3.6373 
G01 X-17.0474 Y3.5414 
G01 X-17.2069 Y3.4754 
G01 X-17.3762 Y3.4417 
G01 X-17.5488 Y3.4417 
G01 X-17.7181 Y3.4754 
G01 X-17.8776 Y3.5414 
G01 X-18.0211 Y3.6373 
G01 X-18.1432 Y3.7594 
G01 X-18.2391 Y3.9029 
G01 X-18.3051 Y4.0624 
G01 X-18.3388 Y4.2317 
G01 X-18.3388 Y5.9283 
G01 X-18.3051 Y6.0976 
G01 X-18.2391 Y6.2571 
G01 X-18.1432 Y6.4006 
G01 X-18.0211 Y6.5227 
G01 X-17.8776 Y6.6186 
G01 X-17.7181 Y6.6846 
G01 X-17.5488 Y6.7183 
G01 X-17.3762 Y6.7183 
G01 X-17.2069 Y6.6846 
G01 X-17.0474 Y6.6186 
G01 X-16.9039 Y6.5227 
G01 X-16.7818 Y6.4006 
G01 X-16.6859 Y6.2571 
G01 X-16.6199 Y6.0976 
G01 X-16.5862 Y5.9283 
G00 Z2.5400 
G00 X-11.9099 Y3.5468 
G01 Z-0.1778 F254.00 
G01 X-11.7951 Y3.6302 F508.00 
G01 X-11.6947 Y3.7306 
G01 X-11.6113 Y3.8454 
G01 X-11.5469 Y3.9719 
G01 X-11.5030 Y4.1068 
G01 X-11.4808 Y4.2470 
G01 X-11.4808 Y4.7117 
G01 X-11.5062 Y4.7117 
G01 X-11.5062 Y4.2317 
G01 X-11.5399 Y4.0624 
G01 X-11.6059 Y3.9029 
G01 X-11.7018 Y3.7594 
G01 X-11.8239 Y3.6373 
G01 X-11.9674 Y3.5414 
G01 X-12.0142 Y3.5221 
G01 X-12.0142 Y3.4937 
G01 X-11.9099 Y3.5468 
G00 Z2.5400 
G00 X-19.7867 Y9.3853 
G01 Z-0.1778 F254.00 
G01 X-19.9364 Y9.4151 F508.00 
G01 X-20.0774 Y9.4735 
G01 X-20.2042 Y9.5583 
G01 X-20.3121 Y9.6662 
G01 X-20.3969 Y9.7930 
G01 X-20.4553 Y9.9340 
G01 X-20.4851 Y10.0837 
G01 X-20.4851 Y10.2363 
G01 X-20.4553 Y10.3860 
G01 X-20.3969 Y10.5270 
G01 X-20.3121 Y10.6538 
G01 X-20.2042 Y10.7617 
G01 X-20.0774 Y10.8465 
G01 X-19.9364 Y10.9049 
G01 X-19.7867 Y10.9347 
G01 X-19.3675 Y10.9347 
G01 X-19.3675 Y10.9601 
G01 X-19.7734 Y10.9601 
G01 X-19.8978 Y10.9404 
G01 X-20.0175 Y10.9015 
G01 X-20.1297 Y10.8443 
G01 X-20.2316 Y10.7703 
G01 X-20.3200 Y10.6820 
G01 X-20.3322 Y10.6649 
G01 X-20.3602 Y10.6417 
G01 X-20.3679 Y10.6340 
G01 X-20.3737 Y10.6306 
G01 X-20.3967 Y10.6117 
G01 X-20.4357 Y10.5940 
G01 X-20.4728 Y10.5771 
G01 X-20.5150 Y10.5701 
G01 X-20.5553 Y10.5634 
G01 X-20.5981 Y10.5675 
G01 X-20.6385 Y10.5714 
G01 X-20.6787 Y10.5865 
G01 X-20.7168 Y10.6008 
G01 X-20.7517 Y10.6258 
G01 X-20.7848 Y10.6494 
G01 X-20.8121 Y10.6826 
G01 X-20.8379 Y10.7139 
G01 X-20.8557 Y10.7529 
G01 X-20.8725 Y10.7900 
G01 X-20.8796 Y10.8322 
G01 X-21.1048 Y12.1835 
G01 X-21.1069 Y12.1886 
G01 X-21.1116 Y12.2246 
G01 X-21.1176 Y12.2605 
G01 X-21.1171 Y12.2660 
G01 X-21.1178 Y12.2715 
G01 X-21.1131 Y12.3076 
G01 X-21.1096 Y12.3438 
G01 X-21.1076 Y12.3489 
G01 X-21.1069 Y12.3544 
G01 X-21.0930 Y12.3880 
G01 X-21.0802 Y12.4220 
G01 X-21.0770 Y12.4265 
G01 X-21.0749 Y12.4316 
G01 X-21.0528 Y12.4604 
G01 X-21.0374 Y12.4820 
G01 X-21.0509 Y12.4915 
G01 X-21.0737 Y12.5048 
G01 X-21.0847 Y12.5157 
G01 X-21.0974 Y12.5248 
G01 X-21.1142 Y12.5452 
G01 X-21.1329 Y12.5639 
G01 X-21.1406 Y12.5773 
G01 X-21.1505 Y12.5893 
G01 X-21.1614 Y12.6134 
G01 X-21.1747 Y12.6363 
G01 X-21.1787 Y12.6513 
G01 X-21.1851 Y12.6654 
G01 X-21.1895 Y12.6915 
G01 X-21.1963 Y12.7170 
G01 X-21.1963 Y12.7325 
G01 X-21.4957 Y14.5290 
G01 X-21.4979 Y14.5343 
G01 X-21.5026 Y14.5701 
G01 X-21.5085 Y14.6057 
G01 X-21.5079 Y14.6115 
G01 X-21.5087 Y14.6172 
G01 X-21.5069 Y14.6306 
G01 X-21.5115 Y14.6480 
G01 X-21.5178 Y14.6619 
G01 X-21.5222 Y14.6882 
G01 X-21.5291 Y14.7140 
G01 X-21.5291 Y14.7293 
G01 X-21.5320 Y14.7470 
G01 X-21.5391 Y14.7584 
G01 X-21.5408 Y14.7639 
G01 X-21.5437 Y14.7690 
G01 X-21.5472 Y14.7820 
G01 X-21.5581 Y14.7962 
G01 X-21.5693 Y14.8066 
G01 X-21.5834 Y14.8293 
G01 X-21.5996 Y14.8505 
G01 X-21.6054 Y14.8646 
G01 X-21.6149 Y14.8798 
G01 X-21.6259 Y14.8877 
G01 X-21.6296 Y14.8921 
G01 X-21.6342 Y14.8957 
G01 X-21.6423 Y14.9064 
G01 X-21.6579 Y14.9154 
G01 X-21.6722 Y14.9207 
G01 X-21.6939 Y14.9362 
G01 X-21.7170 Y14.9496 
G01 X-21.7278 Y14.9604 
G01 X-21.7424 Y14.9709 
G01 X-21.7555 Y14.9739 
G01 X-21.7606 Y14.9766 
G01 X-21.7662 Y14.9782 
G01 X-21.7778 Y14.9849 
G01 X-21.7957 Y14.9873 
G01 X-21.8109 Y14.9867 
G01 X-21.8369 Y14.9928 
G01 X-21.8634 Y14.9963 
G01 X-21.8775 Y15.0022 
G01 X-21.8950 Y15.0062 
G01 X-21.9082 Y15.0040 
G01 X-21.9140 Y15.0046 
G01 X-21.9197 Y15.0038 
G01 X-21.9556 Y15.0086 
G01 X-21.9915 Y15.0121 
G01 X-21.9969 Y15.0141 
G01 X-24.9882 Y15.4129 
G01 X-25.0299 Y15.4184 
G01 X-25.0690 Y15.4346 
G01 X-25.1071 Y15.4504 
G01 X-25.1403 Y15.4759 
G01 X-25.1734 Y15.5013 
G01 X-25.1987 Y15.5342 
G01 X-25.2243 Y15.5676 
G01 X-25.2405 Y15.6067 
G01 X-25.2882 Y15.7220 
G01 X-25.5276 Y15.9614 
G01 X-25.8403 Y16.0909 
G01 X-27.4997 Y16.0909 
G01 X-27.8124 Y15.9614 
G01 X-28.0518 Y15.7220 
G01 X-28.1813 Y15.4093 
G01 X-28.1813 Y15.0707 
G01 X-28.0518 Y14.7580 
G01 X-27.8124 Y14.5186 
G01 X-27.4997 Y14.3891 
G01 X-25.8403 Y14.3891 
G01 X-25.5276 Y14.5186 
G01 X-25.5014 Y14.5448 
G01 X-25.4885 Y14.5616 
G01 X-25.4720 Y14.5742 
G01 X-25.4574 Y14.5889 
G01 X-25.4390 Y14.5995 
G01 X-25.4221 Y14.6124 
G01 X-25.4029 Y14.6203 
G01 X-25.3850 Y14.6307 
G01 X-25.3644 Y14.6362 
G01 X-25.3448 Y14.6443 
G01 X-25.3242 Y14.6470 
G01 X-25.3042 Y14.6523 
G01 X-25.2830 Y14.6523 
G01 X-25.2619 Y14.6551 
G01 X-25.2413 Y14.6523 
G01 X-25.2206 Y14.6523 
G01 X-25.2001 Y14.6468 
G01 X-22.4863 Y14.2850 
G01 X-22.4503 Y14.2815 
G01 X-22.4449 Y14.2795 
G01 X-22.4392 Y14.2787 
G01 X-22.4059 Y14.2648 
G01 X-22.3721 Y14.2522 
G01 X-22.3674 Y14.2488 
G01 X-22.3620 Y14.2466 
G01 X-22.3334 Y14.2246 
G01 X-22.3040 Y14.2036 
G01 X-22.3004 Y14.1991 
G01 X-22.2958 Y14.1956 
G01 X-22.2739 Y14.1669 
G01 X-22.2509 Y14.1390 
G01 X-22.2485 Y14.1338 
G01 X-22.2450 Y14.1292 
G01 X-22.2312 Y14.0958 
G01 X-22.2163 Y14.0629 
G01 X-22.2153 Y14.0572 
G01 X-22.2131 Y14.0519 
G01 X-22.2085 Y14.0161 
G01 X-20.9208 Y6.2900 
G01 X-20.9187 Y6.2849 
G01 X-20.9139 Y6.2489 
G01 X-20.9080 Y6.2130 
G01 X-20.9085 Y6.2075 
G01 X-20.9078 Y6.2020 
G01 X-20.9125 Y6.1660 
G01 X-20.9160 Y6.1298 
G01 X-20.9180 Y6.1246 
G01 X-20.9187 Y6.1191 
G01 X-20.9326 Y6.0855 
G01 X-20.9454 Y6.0515 
G01 X-20.9486 Y6.0470 
G01 X-20.9550 Y6.0315 
G01 X-20.9550 Y4.1285 
G01 X-20.8100 Y3.7784 
G01 X-20.5420 Y3.5105 
G01 X-20.1920 Y3.3655 
G01 X-19.8130 Y3.3655 
G01 X-19.4629 Y3.5105 
G01 X-19.1950 Y3.7784 
G01 X-19.0500 Y4.1285 
G01 X-19.0500 Y6.0315 
G01 X-19.1950 Y6.3816 
G01 X-19.4629 Y6.6495 
G01 X-19.8130 Y6.7945 
G01 X-19.9114 Y6.7945 
G01 X-19.9267 Y6.7919 
G01 X-19.9530 Y6.7945 
G01 X-19.9795 Y6.7945 
G01 X-19.9944 Y6.7985 
G01 X-20.0099 Y6.8000 
G01 X-20.0347 Y6.8093 
G01 X-20.0602 Y6.8161 
G01 X-20.0736 Y6.8239 
G01 X-20.0882 Y6.8293 
G01 X-20.1097 Y6.8447 
G01 X-20.1326 Y6.8579 
G01 X-20.1436 Y6.8689 
G01 X-20.1562 Y6.8779 
G01 X-20.1730 Y6.8984 
G01 X-20.1917 Y6.9170 
G01 X-20.1995 Y6.9305 
G01 X-20.2093 Y6.9425 
G01 X-20.2203 Y6.9666 
G01 X-20.2335 Y6.9894 
G01 X-20.2375 Y7.0044 
G01 X-20.2440 Y7.0186 
G01 X-20.2483 Y7.0447 
G01 X-20.2552 Y7.0702 
G01 X-20.2552 Y7.0857 
G01 X-20.5947 Y9.1231 
G01 X-20.6003 Y9.1403 
G01 X-20.6016 Y9.1642 
G01 X-20.6055 Y9.1877 
G01 X-20.6037 Y9.2057 
G01 X-20.6047 Y9.2238 
G01 X-20.5997 Y9.2472 
G01 X-20.5974 Y9.2709 
G01 X-20.5911 Y9.2879 
G01 X-20.5873 Y9.3056 
G01 X-20.5765 Y9.3269 
G01 X-20.5681 Y9.3492 
G01 X-20.5576 Y9.3639 
G01 X-20.5494 Y9.3801 
G01 X-20.5334 Y9.3978 
G01 X-20.5195 Y9.4172 
G01 X-20.5055 Y9.4288 
G01 X-20.4934 Y9.4422 
G01 X-20.4734 Y9.4552 
G01 X-20.4550 Y9.4704 
G01 X-20.4385 Y9.4779 
G01 X-20.4233 Y9.4877 
G01 X-20.4006 Y9.4951 
G01 X-20.3789 Y9.5050 
G01 X-20.3610 Y9.5080 
G01 X-20.3438 Y9.5136 
G01 X-20.3200 Y9.5148 
G01 X-20.2964 Y9.5187 
G01 X-20.2784 Y9.5170 
G01 X-20.2603 Y9.5179 
G01 X-20.2370 Y9.5130 
G01 X-20.2132 Y9.5107 
G01 X-20.1962 Y9.5043 
G01 X-20.1785 Y9.5006 
G01 X-20.1573 Y9.4897 
G01 X-20.1349 Y9.4813 
G01 X-20.1202 Y9.4708 
G01 X-20.0175 Y9.4185 
G01 X-19.8978 Y9.3796 
G01 X-19.7734 Y9.3599 
G01 X-19.3675 Y9.3599 
G01 X-19.3675 Y9.3853 
G01 X-19.7867 Y9.3853 
G00 Z2.5400 
G00 X-25.9333 Y14.4653 
G01 Z-0.1778 F254.00 
G01 X-27.4067 Y14.4653 F508.00 
G01 X-27.5564 Y14.4951 
G01 X-27.6974 Y14.5535 
G01 X-27.8242 Y14.6383 
G01 X-27.9321 Y14.7462 
G01 X-28.0169 Y14.8730 
G01 X-28.0753 Y15.0140 
G01 X-28.1051 Y15.1637 
G01 X-28.1051 Y15.3163 
G01 X-28.0753 Y15.4660 
G01 X-28.0169 Y15.6070 
G01 X-27.9321 Y15.7338 
G01 X-27.8242 Y15.8417 
G01 X-27.6974 Y15.9265 
G01 X-27.5564 Y15.9849 
G01 X-27.4067 Y16.0147 
G01 X-25.9333 Y16.0147 
G01 X-25.7836 Y15.9849 
G01 X-25.6426 Y15.9265 
G01 X-25.5158 Y15.8417 
G01 X-25.4078 Y15.7338 
G01 X-25.3231 Y15.6070 
G01 X-25.2647 Y15.4660 
G01 X-25.2457 Y15.3704 
G01 X-21.8712 Y14.9205 
G01 X-21.8353 Y14.9170 
G01 X-21.8298 Y14.9150 
G01 X-21.8241 Y14.9142 
G01 X-21.7908 Y14.9003 
G01 X-21.7570 Y14.8877 
G01 X-21.7523 Y14.8843 
G01 X-21.7469 Y14.8821 
G01 X-21.7183 Y14.8601 
G01 X-21.6889 Y14.8391 
G01 X-21.6853 Y14.8346 
G01 X-21.6807 Y14.8311 
G01 X-21.6588 Y14.8024 
G01 X-21.6358 Y14.7745 
G01 X-21.6334 Y14.7693 
G01 X-21.6299 Y14.7647 
G01 X-21.6162 Y14.7313 
G01 X-21.6012 Y14.6984 
G01 X-21.6002 Y14.6927 
G01 X-21.5980 Y14.6874 
G01 X-21.5934 Y14.6516 
G01 X-20.2651 Y6.6817 
G01 X-20.2581 Y6.6846 
G01 X-20.0888 Y6.7183 
G01 X-19.9162 Y6.7183 
G01 X-19.7469 Y6.6846 
G01 X-19.5874 Y6.6186 
G01 X-19.4439 Y6.5227 
G01 X-19.3218 Y6.4006 
G01 X-19.2259 Y6.2571 
G01 X-19.1599 Y6.0976 
G01 X-19.1262 Y5.9283 
G01 X-19.1262 Y4.2317 
G01 X-19.1599 Y4.0624 
G01 X-19.2259 Y3.9029 
G01 X-19.3218 Y3.7594 
G01 X-19.4439 Y3.6373 
G01 X-19.5874 Y3.5414 
G01 X-19.7469 Y3.4754 
G01 X-19.9162 Y3.4417 
G01 X-20.0888 Y3.4417 
G01 X-20.2581 Y3.4754 
G01 X-20.4176 Y3.5414 
G01 X-20.5611 Y3.6373 
G01 X-20.6832 Y3.7594 
G01 X-20.7791 Y3.9029 
G01 X-20.8451 Y4.0624 
G01 X-20.8788 Y4.2317 
G01 X-20.8788 Y5.9283 
G01 X-20.8451 Y6.0976 
G01 X-20.8211 Y6.1555 
G01 X-22.1821 Y14.3213 
G01 X-25.4046 Y14.7510 
G01 X-25.4078 Y14.7462 
G01 X-25.5158 Y14.6383 
G01 X-25.6426 Y14.5535 
G01 X-25.7836 Y14.4951 
G01 X-25.9333 Y14.4653 
G00 Z2.5400 
G00 X-20.1924 Y26.1214 
G01 Z-0.1778 F254.00 
G01 X-20.4318 Y25.8820 F508.00 
G01 X-20.5613 Y25.5693 
G01 X-20.5613 Y25.2307 
G01 X-20.4318 Y24.9180 
G01 X-20.1924 Y24.6786 
G01 X-19.8797 Y24.5491 
G01 X-18.2203 Y24.5491 
G01 X-17.9076 Y24.6786 
G01 X-17.6434 Y24.9429 
G01 X-17.5710 Y24.9847 
G01 X-17.4902 Y25.0063 
G01 X-16.4317 Y25.0063 
G01 X-16.2870 Y25.0662 
G01 X-16.2618 Y25.0914 
G01 X-16.2326 Y25.1207 
G01 X-16.2052 Y25.1365 
G01 X-15.6591 Y25.6825 
G01 X-15.6591 Y26.3875 
G01 X-16.1575 Y26.8859 
G01 X-16.8625 Y26.8859 
G01 X-17.3609 Y26.3875 
G01 X-17.3609 Y26.2993 
G01 X-17.3780 Y26.2354 
G01 X-17.3825 Y26.2186 
G01 X-17.4126 Y26.1665 
G01 X-17.4243 Y26.1462 
G01 X-17.4825 Y26.0880 
G01 X-17.5217 Y26.0650 
G01 X-17.5558 Y26.0453 
G01 X-17.5708 Y26.0413 
G01 X-17.6366 Y26.0237 
G01 X-17.7202 Y26.0237 
G01 X-17.7842 Y26.0408 
G01 X-17.8009 Y26.0453 
G01 X-17.8530 Y26.0754 
G01 X-17.8733 Y26.0871 
G01 X-17.9076 Y26.1214 
G01 X-18.2203 Y26.2509 
G01 X-19.8797 Y26.2509 
G01 X-20.1924 Y26.1214 
G00 Z2.5400 
G00 X-17.2847 Y26.3559 
G01 Z-0.1778 F254.00 
G01 X-16.8309 Y26.8097 F508.00 
G01 X-16.1891 Y26.8097 
G01 X-15.7353 Y26.3559 
G01 X-15.7353 Y25.7141 
G01 X-16.1891 Y25.2603 
G01 X-16.2240 Y25.2603 
G01 X-16.2559 Y25.2050 
G01 X-16.3150 Y25.1459 
G01 X-16.3874 Y25.1041 
G01 X-16.4682 Y25.0825 
G01 X-17.6826 Y25.0825 
G01 X-17.7031 Y25.0330 
G01 X-17.7879 Y24.9062 
G01 X-17.8958 Y24.7982 
G01 X-18.0226 Y24.7135 
G01 X-18.1636 Y24.6551 
G01 X-18.3133 Y24.6253 
G01 X-19.7867 Y24.6253 
G01 X-19.9364 Y24.6551 
G01 X-20.0774 Y24.7135 
G01 X-20.2042 Y24.7982 
G01 X-20.3121 Y24.9062 
G01 X-20.3969 Y25.0330 
G01 X-20.4553 Y25.1740 
G01 X-20.4851 Y25.3237 
G01 X-20.4851 Y25.4763 
G01 X-20.4553 Y25.6260 
G01 X-20.3969 Y25.7670 
G01 X-20.3121 Y25.8938 
G01 X-20.2042 Y26.0017 
G01 X-20.0774 Y26.0865 
G01 X-19.9364 Y26.1449 
G01 X-19.7867 Y26.1747 
G01 X-18.3133 Y26.1747 
G01 X-18.1636 Y26.1449 
G01 X-18.0226 Y26.0865 
G01 X-17.8958 Y26.0017 
G01 X-17.7879 Y25.8938 
G01 X-17.7031 Y25.7670 
G01 X-17.6826 Y25.7175 
G01 X-17.2847 Y25.7175 
G01 X-17.2847 Y26.3559 
G00 Z2.5400 
G00 X-15.6808 Y31.0275 
G01 Z-0.1778 F254.00 
G01 X-15.7644 Y31.0275 F508.00 
G01 X-15.8451 Y31.0491 
G01 X-15.9175 Y31.0909 
G01 X-16.1575 Y31.3309 
G01 X-16.8625 Y31.3309 
G01 X-17.3609 Y30.8325 
G01 X-17.3609 Y30.1275 
G01 X-16.9671 Y29.7338 
G01 X-16.9253 Y29.6614 
G01 X-16.9037 Y29.5806 
G01 X-16.9037 Y28.6743 
G01 X-16.9253 Y28.5935 
G01 X-16.9671 Y28.5211 
G01 X-17.0262 Y28.4620 
G01 X-17.0716 Y28.4358 
G01 X-17.0986 Y28.4202 
G01 X-17.1794 Y28.3986 
G01 X-17.2630 Y28.3986 
G01 X-17.3437 Y28.4202 
G01 X-17.4161 Y28.4620 
G01 X-17.7450 Y28.7909 
G01 X-17.9844 Y28.7909 
G01 X-18.0652 Y28.8125 
G01 X-18.1376 Y28.8543 
G01 X-18.1949 Y28.9117 
G01 X-21.7740 Y32.4908 
G01 X-21.7907 Y32.5036 
G01 X-21.8035 Y32.5202 
G01 X-21.8183 Y32.5351 
G01 X-21.8288 Y32.5533 
G01 X-21.8416 Y32.5699 
G01 X-21.8496 Y32.5893 
G01 X-21.8601 Y32.6075 
G01 X-21.8655 Y32.6278 
G01 X-21.8736 Y32.6472 
G01 X-21.8763 Y32.6680 
G01 X-21.8817 Y32.6882 
G01 X-21.8817 Y32.7092 
G01 X-21.8845 Y32.7300 
G01 X-21.8817 Y32.7508 
G01 X-21.8817 Y32.7718 
G01 X-21.8763 Y32.7921 
G01 X-21.8736 Y32.8129 
G01 X-21.8694 Y32.8230 
G01 X-21.8694 Y33.2170 
G01 X-22.0202 Y33.5811 
G01 X-22.2989 Y33.8598 
G01 X-22.6408 Y34.0014 
G01 X-22.6610 Y34.0068 
G01 X-22.6792 Y34.0173 
G01 X-22.6986 Y34.0254 
G01 X-22.7153 Y34.0381 
G01 X-22.7334 Y34.0486 
G01 X-22.7483 Y34.0635 
G01 X-22.7649 Y34.0763 
G01 X-22.7777 Y34.0929 
G01 X-22.7926 Y34.1078 
G01 X-22.8031 Y34.1259 
G01 X-22.8158 Y34.1426 
G01 X-22.8239 Y34.1620 
G01 X-22.8344 Y34.1801 
G01 X-22.8398 Y34.2004 
G01 X-22.8478 Y34.2198 
G01 X-22.8506 Y34.2406 
G01 X-22.8560 Y34.2609 
G01 X-22.8560 Y34.2819 
G01 X-22.8587 Y34.3027 
G01 X-22.8560 Y34.3235 
G01 X-22.8560 Y34.3445 
G01 X-22.8506 Y34.3648 
G01 X-22.8478 Y34.3856 
G01 X-22.8398 Y34.4050 
G01 X-22.8344 Y34.4252 
G01 X-22.8239 Y34.4434 
G01 X-22.8158 Y34.4628 
G01 X-22.8030 Y34.4795 
G01 X-22.7926 Y34.4976 
G01 X-22.7777 Y34.5125 
G01 X-22.7649 Y34.5291 
G01 X-22.7483 Y34.5419 
G01 X-22.7334 Y34.5568 
G01 X-22.7153 Y34.5673 
G01 X-22.6986 Y34.5800 
G01 X-22.6792 Y34.5881 
G01 X-22.6610 Y34.5986 
G01 X-22.6408 Y34.6040 
G01 X-22.6214 Y34.6120 
G01 X-22.6006 Y34.6148 
G01 X-22.5803 Y34.6202 
G01 X-22.5593 Y34.6202 
G01 X-22.5385 Y34.6229 
G01 X-22.5177 Y34.6202 
G01 X-22.4707 Y34.6202 
G01 X-21.9202 Y35.1707 
G01 X-21.9202 Y35.2425 
G01 X-21.9456 Y35.2425 
G01 X-21.9456 Y35.1812 
G01 X-22.4812 Y34.6456 
G01 X-23.2388 Y34.6456 
G01 X-23.7744 Y35.1812 
G01 X-23.7744 Y35.2425 
G01 X-23.7998 Y35.2425 
G01 X-23.7998 Y35.1707 
G01 X-23.2493 Y34.6202 
G01 X-23.2023 Y34.6202 
G01 X-23.1815 Y34.6229 
G01 X-23.1607 Y34.6202 
G01 X-23.1397 Y34.6202 
G01 X-23.1194 Y34.6148 
G01 X-23.0986 Y34.6120 
G01 X-23.0792 Y34.6040 
G01 X-23.0589 Y34.5986 
G01 X-23.0408 Y34.5881 
G01 X-23.0214 Y34.5800 
G01 X-23.0047 Y34.5673 
G01 X-22.9866 Y34.5568 
G01 X-22.9717 Y34.5419 
G01 X-22.9551 Y34.5291 
G01 X-22.9423 Y34.5125 
G01 X-22.9274 Y34.4976 
G01 X-22.9169 Y34.4795 
G01 X-22.9042 Y34.4628 
G01 X-22.8961 Y34.4434 
G01 X-22.8856 Y34.4252 
G01 X-22.8802 Y34.4050 
G01 X-22.8722 Y34.3856 
G01 X-22.8694 Y34.3648 
G01 X-22.8640 Y34.3445 
G01 X-22.8640 Y34.3235 
G01 X-22.8613 Y34.3027 
G01 X-22.8640 Y34.2819 
G01 X-22.8640 Y34.2609 
G01 X-22.8694 Y34.2406 
G01 X-22.8722 Y34.2198 
G01 X-22.8802 Y34.2004 
G01 X-22.8856 Y34.1801 
G01 X-22.8961 Y34.1620 
G01 X-22.9042 Y34.1426 
G01 X-22.9169 Y34.1259 
G01 X-22.9274 Y34.1078 
G01 X-22.9423 Y34.0929 
G01 X-22.9551 Y34.0763 
G01 X-22.9717 Y34.0635 
G01 X-22.9866 Y34.0486 
G01 X-23.0047 Y34.0381 
G01 X-23.0214 Y34.0254 
G01 X-23.0408 Y34.0173 
G01 X-23.0589 Y34.0068 
G01 X-23.0792 Y34.0014 
G01 X-23.4211 Y33.8598 
G01 X-23.6998 Y33.5811 
G01 X-23.7039 Y33.5711 
G01 X-23.7167 Y33.5544 
G01 X-23.7272 Y33.5362 
G01 X-23.7421 Y33.5214 
G01 X-23.7548 Y33.5048 
G01 X-23.7715 Y33.4920 
G01 X-23.7863 Y33.4771 
G01 X-23.8045 Y33.4666 
G01 X-23.8212 Y33.4539 
G01 X-23.8405 Y33.4458 
G01 X-23.8587 Y33.4353 
G01 X-23.8790 Y33.4299 
G01 X-23.8984 Y33.4219 
G01 X-23.9192 Y33.4191 
G01 X-23.9395 Y33.4137 
G01 X-23.9605 Y33.4137 
G01 X-23.9813 Y33.4110 
G01 X-24.0021 Y33.4137 
G01 X-31.3056 Y33.4137 
G01 X-31.3264 Y33.4110 
G01 X-31.3472 Y33.4137 
G01 X-31.3682 Y33.4137 
G01 X-31.3885 Y33.4191 
G01 X-31.4093 Y33.4219 
G01 X-31.4287 Y33.4299 
G01 X-31.4489 Y33.4353 
G01 X-31.4671 Y33.4458 
G01 X-31.4865 Y33.4539 
G01 X-31.5032 Y33.4666 
G01 X-31.5213 Y33.4771 
G01 X-31.5362 Y33.4920 
G01 X-31.5528 Y33.5048 
G01 X-31.5656 Y33.5214 
G01 X-31.5805 Y33.5362 
G01 X-31.5909 Y33.5544 
G01 X-31.6037 Y33.5711 
G01 X-31.6118 Y33.5905 
G01 X-31.6223 Y33.6086 
G01 X-31.6277 Y33.6289 
G01 X-31.6357 Y33.6483 
G01 X-31.6385 Y33.6691 
G01 X-31.6439 Y33.6894 
G01 X-31.6439 Y33.7104 
G01 X-31.6466 Y33.7312 
G01 X-31.6439 Y33.7520 
G01 X-31.6439 Y33.7730 
G01 X-31.6385 Y33.7933 
G01 X-31.6357 Y33.8141 
G01 X-31.6277 Y33.8335 
G01 X-31.6223 Y33.8537 
G01 X-31.6118 Y33.8719 
G01 X-31.5087 Y34.1207 
G01 X-31.5087 Y34.4593 
G01 X-31.6382 Y34.7720 
G01 X-31.8776 Y35.0114 
G01 X-32.1903 Y35.1409 
G01 X-33.8497 Y35.1409 
G01 X-34.1624 Y35.0114 
G01 X-34.4018 Y34.7720 
G01 X-34.5313 Y34.4593 
G01 X-34.5313 Y34.1207 
G01 X-34.4018 Y33.8080 
G01 X-34.1624 Y33.5686 
G01 X-33.8497 Y33.4391 
G01 X-32.8156 Y33.4391 
G01 X-32.7348 Y33.4175 
G01 X-32.6624 Y33.3757 
G01 X-32.6033 Y33.3165 
G01 X-32.0989 Y32.8121 
G01 X-31.9730 Y32.6862 
G01 X-31.8283 Y32.6263 
G01 X-24.0021 Y32.6263 
G01 X-23.9813 Y32.6290 
G01 X-23.9605 Y32.6263 
G01 X-23.9395 Y32.6263 
G01 X-23.9192 Y32.6209 
G01 X-23.8984 Y32.6181 
G01 X-23.8790 Y32.6101 
G01 X-23.8587 Y32.6047 
G01 X-23.8405 Y32.5942 
G01 X-23.8212 Y32.5861 
G01 X-23.8045 Y32.5734 
G01 X-23.7863 Y32.5629 
G01 X-23.7715 Y32.5480 
G01 X-23.7548 Y32.5352 
G01 X-23.7421 Y32.5186 
G01 X-23.7272 Y32.5037 
G01 X-23.7167 Y32.4856 
G01 X-23.7039 Y32.4689 
G01 X-23.6998 Y32.4589 
G01 X-23.4211 Y32.1802 
G01 X-23.0570 Y32.0294 
G01 X-22.6630 Y32.0294 
G01 X-22.6529 Y32.0336 
G01 X-22.6321 Y32.0363 
G01 X-22.6118 Y32.0417 
G01 X-22.5909 Y32.0417 
G01 X-22.5701 Y32.0445 
G01 X-22.5492 Y32.0417 
G01 X-22.5282 Y32.0417 
G01 X-22.5080 Y32.0363 
G01 X-22.4872 Y32.0336 
G01 X-22.4678 Y32.0255 
G01 X-22.4475 Y32.0201 
G01 X-22.4293 Y32.0096 
G01 X-22.4099 Y32.0016 
G01 X-22.3933 Y31.9888 
G01 X-22.3751 Y31.9783 
G01 X-22.3602 Y31.9635 
G01 X-22.3436 Y31.9507 
G01 X-22.3308 Y31.9340 
G01 X-19.0118 Y28.6151 
G01 X-18.9700 Y28.5427 
G01 X-18.9484 Y28.4619 
G01 X-18.9484 Y27.5875 
G01 X-18.4500 Y27.0891 
G01 X-17.7450 Y27.0891 
G01 X-17.3513 Y27.4829 
G01 X-17.2789 Y27.5247 
G01 X-17.1981 Y27.5463 
G01 X-16.4317 Y27.5463 
G01 X-16.2870 Y27.6062 
G01 X-16.1762 Y27.7170 
G01 X-16.1163 Y27.8617 
G01 X-16.1163 Y28.0725 
G01 X-16.1181 Y28.1059 
G01 X-16.1163 Y28.1142 
G01 X-16.1163 Y28.1227 
G01 X-16.1076 Y28.1550 
G01 X-16.1007 Y28.1876 
G01 X-16.0969 Y28.1952 
G01 X-16.0947 Y28.2034 
G01 X-16.0780 Y28.2323 
G01 X-16.0628 Y28.2621 
G01 X-16.0571 Y28.2685 
G01 X-16.0529 Y28.2758 
G01 X-16.0292 Y28.2994 
G01 X-16.0069 Y28.3243 
G01 X-15.9998 Y28.3289 
G01 X-15.9937 Y28.3349 
G01 X-15.9648 Y28.3516 
G01 X-15.9368 Y28.3699 
G01 X-15.9287 Y28.3725 
G01 X-15.9214 Y28.3767 
G01 X-15.8891 Y28.3854 
G01 X-15.8573 Y28.3957 
G01 X-15.8488 Y28.3962 
G01 X-15.8406 Y28.3984 
G01 X-15.8072 Y28.3984 
G01 X-15.7738 Y28.4001 
G01 X-15.7655 Y28.3984 
G01 X-15.7570 Y28.3984 
G01 X-15.7247 Y28.3897 
G01 X-15.6920 Y28.3828 
G01 X-15.6845 Y28.3789 
G01 X-15.6762 Y28.3767 
G01 X-15.6473 Y28.3600 
G01 X-15.6175 Y28.3449 
G01 X-15.6112 Y28.3392 
G01 X-15.6039 Y28.3349 
G01 X-15.5802 Y28.3113 
G01 X-15.5554 Y28.2889 
G01 X-15.5507 Y28.2818 
G01 X-15.5447 Y28.2758 
G01 X-15.5280 Y28.2469 
G01 X-12.8456 Y24.1201 
G01 X-12.8396 Y24.1141 
G01 X-12.8229 Y24.0852 
G01 X-12.8047 Y24.0572 
G01 X-12.8021 Y24.0491 
G01 X-12.7978 Y24.0417 
G01 X-12.7892 Y24.0095 
G01 X-12.7788 Y23.9777 
G01 X-12.7784 Y23.9692 
G01 X-12.7762 Y23.9610 
G01 X-12.7762 Y23.9275 
G01 X-12.7744 Y23.8942 
G01 X-12.7762 Y23.8859 
G01 X-12.7762 Y16.6003 
G01 X-12.7755 Y16.5611 
G01 X-12.7762 Y16.5585 
G01 X-12.7762 Y16.5557 
G01 X-12.7834 Y16.5290 
G01 X-12.7823 Y16.5220 
G01 X-12.7762 Y16.4992 
G01 X-12.7762 Y16.4809 
G01 X-12.7735 Y16.4628 
G01 X-12.7762 Y16.4392 
G01 X-12.7762 Y16.4322 
G01 X-12.7652 Y16.4068 
G01 X-12.7648 Y16.4041 
G01 X-12.7601 Y16.3742 
G01 X-12.7565 Y16.3681 
G01 X-12.7421 Y16.3493 
G01 X-12.7351 Y16.3324 
G01 X-12.7257 Y16.3167 
G01 X-12.7192 Y16.2940 
G01 X-12.7165 Y16.2874 
G01 X-12.6966 Y16.2682 
G01 X-12.6932 Y16.2640 
G01 X-12.6794 Y16.2400 
G01 X-12.6737 Y16.2358 
G01 X-12.6532 Y16.2240 
G01 X-12.6403 Y16.2110 
G01 X-12.6256 Y16.2001 
G01 X-12.6109 Y16.1816 
G01 X-12.6059 Y16.1766 
G01 X-12.5801 Y16.1664 
G01 X-12.5754 Y16.1638 
G01 X-12.5535 Y16.1469 
G01 X-12.5466 Y16.1452 
G01 X-12.5231 Y16.1421 
G01 X-12.5063 Y16.1351 
G01 X-12.4885 Y16.1307 
G01 X-12.4678 Y16.1192 
G01 X-12.4613 Y16.1165 
G01 X-12.4336 Y16.1170 
G01 X-12.4310 Y16.1163 
G01 X-12.4283 Y16.1163 
G01 X-12.3905 Y16.1062 
G01 X-9.3683 Y15.3506 
G01 X-9.3656 Y15.3506 
G01 X-9.3277 Y15.3405 
G01 X-9.2898 Y15.3310 
G01 X-9.2848 Y15.3290 
G01 X-9.2510 Y15.3094 
G01 X-9.2167 Y15.2904 
G01 X-9.2124 Y15.2872 
G01 X-9.1848 Y15.2596 
G01 X-9.1566 Y15.2323 
G01 X-9.1533 Y15.2281 
G01 X-9.1338 Y15.1943 
G01 X-9.1136 Y15.1606 
G01 X-9.1129 Y15.1580 
G01 X-9.1014 Y15.1179 
G01 X-9.0906 Y15.0803 
G01 X-9.0906 Y15.0776 
G01 X-9.0899 Y15.0749 
G01 X-9.0899 Y15.0359 
G01 X-9.0892 Y14.9967 
G01 X-9.0899 Y14.9940 
G01 X-9.0899 Y14.9913 
G01 X-9.1000 Y14.9535 
G01 X-9.1095 Y14.9156 
G01 X-9.1115 Y14.9106 
G01 X-9.1311 Y14.8767 
G01 X-9.1501 Y14.8425 
G01 X-9.1533 Y14.8382 
G01 X-9.1809 Y14.8106 
G01 X-9.2082 Y14.7824 
G01 X-9.6901 Y14.3014 
G01 X-9.6901 Y14.2875 
G01 X-9.6647 Y14.2875 
G01 X-9.6647 Y14.2909 
G01 X-9.2109 Y14.7447 
G01 X-8.5691 Y14.7447 
G01 X-8.1153 Y14.2909 
G01 X-8.1153 Y14.2875 
G01 X-8.0899 Y14.2875 
G01 X-8.0899 Y14.3014 
G01 X-8.2503 Y14.4618 
G01 X-8.2784 Y14.4890 
G01 X-8.2818 Y14.4933 
G01 X-8.3013 Y14.5271 
G01 X-8.3214 Y14.5607 
G01 X-8.3222 Y14.5633 
G01 X-8.3336 Y14.6033 
G01 X-8.3444 Y14.6411 
G01 X-8.3445 Y14.6438 
G01 X-8.3452 Y14.6464 
G01 X-8.3452 Y14.6854 
G01 X-8.3458 Y14.7247 
G01 X-8.3452 Y14.7273 
G01 X-8.3452 Y14.7300 
G01 X-8.3351 Y14.7676 
G01 X-8.3256 Y14.8058 
G01 X-8.3236 Y14.8108 
G01 X-8.3040 Y14.8445 
G01 X-8.2850 Y14.8789 
G01 X-8.2818 Y14.8832 
G01 X-8.2541 Y14.9108 
G01 X-8.2269 Y14.9390 
G01 X-8.2226 Y14.9423 
G01 X-8.1888 Y14.9618 
G01 X-8.1552 Y14.9820 
G01 X-8.1526 Y14.9827 
G01 X-8.1126 Y14.9942 
G01 X-8.0748 Y15.0050 
G01 X-8.0721 Y15.0050 
G01 X-8.0695 Y15.0057 
G01 X-8.0305 Y15.0057 
G01 X-7.9912 Y15.0064 
G01 X-7.9886 Y15.0057 
G01 X-7.9859 Y15.0057 
G01 X-7.9483 Y14.9956 
G01 X-7.6416 Y14.9190 
G01 X-7.6282 Y14.9181 
G01 X-7.6012 Y14.9089 
G01 X-7.5735 Y14.9019 
G01 X-7.5618 Y14.8954 
G01 X-7.5491 Y14.8911 
G01 X-7.5254 Y14.8752 
G01 X-7.5004 Y14.8614 
G01 X-7.4908 Y14.8520 
G01 X-7.4796 Y14.8446 
G01 X-7.4608 Y14.8231 
G01 X-7.4403 Y14.8033 
G01 X-7.4334 Y14.7918 
G01 X-5.4740 Y12.5525 
G01 X-5.4658 Y12.5462 
G01 X-5.4466 Y12.5211 
G01 X-5.4258 Y12.4973 
G01 X-5.4212 Y12.4880 
G01 X-5.4149 Y12.4798 
G01 X-5.4138 Y12.4770 
G01 X-5.3971 Y12.4604 
G01 X-5.3882 Y12.4544 
G01 X-5.3676 Y12.4309 
G01 X-5.3456 Y12.4088 
G01 X-5.3402 Y12.3995 
G01 X-5.3156 Y12.3713 
G01 X-5.3076 Y12.3643 
G01 X-5.2828 Y12.3453 
G01 X-5.2763 Y12.3368 
G01 X-5.2682 Y12.3297 
G01 X-5.2509 Y12.3037 
G01 X-5.2319 Y12.2790 
G01 X-5.2278 Y12.2691 
G01 X-5.2218 Y12.2602 
G01 X-5.2118 Y12.2306 
G01 X-5.1999 Y12.2017 
G01 X-5.1985 Y12.1911 
G01 X-5.1951 Y12.1810 
G01 X-5.1931 Y12.1498 
G01 X-5.1890 Y12.1189 
G01 X-5.1904 Y12.1082 
G01 X-5.1897 Y12.0975 
G01 X-5.1958 Y12.0669 
G01 X-5.1999 Y12.0360 
G01 X-5.2040 Y12.0261 
G01 X-5.2061 Y12.0156 
G01 X-5.2199 Y11.9876 
G01 X-5.2319 Y11.9587 
G01 X-5.2384 Y11.9502 
G01 X-5.2431 Y11.9406 
G01 X-5.2638 Y11.9172 
G01 X-5.2828 Y11.8924 
G01 X-5.2913 Y11.8859 
G01 X-5.2983 Y11.8778 
G01 X-5.3243 Y11.8605 
G01 X-5.3491 Y11.8415 
G01 X-5.3590 Y11.8374 
G01 X-5.3679 Y11.8315 
G01 X-5.3975 Y11.8215 
G01 X-5.6108 Y11.7331 
G01 X-5.6408 Y11.7187 
G01 X-5.6493 Y11.7171 
G01 X-5.6574 Y11.7138 
G01 X-5.6903 Y11.7095 
G01 X-5.7229 Y11.7034 
G01 X-5.7316 Y11.7040 
G01 X-5.7403 Y11.7029 
G01 X-5.7732 Y11.7072 
G01 X-5.8063 Y11.7098 
G01 X-5.8145 Y11.7127 
G01 X-5.8232 Y11.7138 
G01 X-5.8538 Y11.7265 
G01 X-5.8852 Y11.7375 
G01 X-5.8923 Y11.7425 
G01 X-5.9004 Y11.7458 
G01 X-5.9267 Y11.7660 
G01 X-5.9541 Y11.7848 
G01 X-5.9598 Y11.7914 
G01 X-5.9667 Y11.7967 
G01 X-5.9869 Y11.8230 
G01 X-6.5908 Y12.5276 
G01 X-6.5978 Y12.5329 
G01 X-6.6179 Y12.5592 
G01 X-6.6396 Y12.5844 
G01 X-6.6433 Y12.5923 
G01 X-6.6486 Y12.5992 
G01 X-6.6513 Y12.6055 
G01 X-6.6665 Y12.6207 
G01 X-6.6767 Y12.6277 
G01 X-6.6959 Y12.6502 
G01 X-6.7169 Y12.6711 
G01 X-6.7230 Y12.6818 
G01 X-6.7370 Y12.6982 
G01 X-6.7431 Y12.7012 
G01 X-6.7496 Y12.7071 
G01 X-6.7572 Y12.7114 
G01 X-6.7620 Y12.7163 
G01 X-6.7819 Y12.7245 
G01 X-6.7940 Y12.7270 
G01 X-6.8203 Y12.7404 
G01 X-6.8477 Y12.7518 
G01 X-6.8575 Y12.7593 
G01 X-6.8767 Y12.7690 
G01 X-6.8835 Y12.7695 
G01 X-6.8918 Y12.7725 
G01 X-6.9004 Y12.7736 
G01 X-6.9067 Y12.7762 
G01 X-6.9282 Y12.7762 
G01 X-6.9403 Y12.7739 
G01 X-6.9699 Y12.7762 
G01 X-6.9995 Y12.7762 
G01 X-7.0114 Y12.7794 
G01 X-7.0329 Y12.7810 
G01 X-7.0394 Y12.7789 
G01 X-7.0481 Y12.7785 
G01 X-7.0565 Y12.7762 
G01 X-7.0897 Y12.7762 
G01 X-7.1229 Y12.7744 
G01 X-7.1314 Y12.7762 
G01 X-8.2276 Y12.7762 
G01 X-8.3083 Y12.7978 
G01 X-8.3807 Y12.8396 
G01 X-8.4398 Y12.8987 
G01 X-8.4660 Y12.9441 
G01 X-8.4816 Y12.9711 
G01 X-8.5033 Y13.0519 
G01 X-8.5033 Y13.1355 
G01 X-8.4816 Y13.2162 
G01 X-8.4398 Y13.2886 
G01 X-8.0899 Y13.6386 
G01 X-8.0899 Y13.6525 
G01 X-8.1153 Y13.6525 
G01 X-8.1153 Y13.6491 
G01 X-8.5691 Y13.1953 
G01 X-9.2109 Y13.1953 
G01 X-9.6647 Y13.6491 
G01 X-9.6647 Y13.6525 
G01 X-9.6901 Y13.6525 
G01 X-9.6901 Y13.6386 
G01 X-9.3402 Y13.2886 
G01 X-9.2984 Y13.2162 
G01 X-9.2767 Y13.1355 
G01 X-9.2767 Y13.0519 
G01 X-9.2984 Y12.9711 
G01 X-9.3133 Y12.9452 
G01 X-9.3402 Y12.8987 
G01 X-9.3993 Y12.8396 
G01 X-9.4717 Y12.7978 
G01 X-9.5524 Y12.7762 
G01 X-14.6697 Y12.7762 
G01 X-14.7505 Y12.7978 
G01 X-14.8229 Y12.8396 
G01 X-14.8820 Y12.8987 
G01 X-15.5957 Y13.6124 
G01 X-15.6375 Y13.6848 
G01 X-15.6591 Y13.7656 
G01 X-15.6591 Y14.3225 
G01 X-16.2188 Y14.8821 
G01 X-16.2274 Y14.8879 
G01 X-16.2482 Y14.9116 
G01 X-16.2705 Y14.9339 
G01 X-16.2757 Y14.9429 
G01 X-16.2826 Y14.9507 
G01 X-16.2966 Y14.9790 
G01 X-16.3123 Y15.0063 
G01 X-16.3150 Y15.0163 
G01 X-16.3196 Y15.0256 
G01 X-16.3258 Y15.0566 
G01 X-16.3340 Y15.0871 
G01 X-16.3340 Y15.0974 
G01 X-16.4256 Y15.5556 
G01 X-16.4338 Y15.5861 
G01 X-16.4338 Y15.5965 
G01 X-16.4358 Y15.6066 
G01 X-16.4339 Y15.6358 
G01 X-16.4469 Y15.6620 
G01 X-16.4490 Y15.6725 
G01 X-16.4531 Y15.6824 
G01 X-16.4569 Y15.7114 
G01 X-16.4747 Y15.7346 
G01 X-16.4787 Y15.7442 
G01 X-16.4844 Y15.7528 
G01 X-16.4939 Y15.7805 
G01 X-16.5159 Y15.7997 
G01 X-16.5218 Y15.8086 
G01 X-16.5294 Y15.8162 
G01 X-16.5440 Y15.8415 
G01 X-16.5693 Y15.8561 
G01 X-16.5767 Y15.8634 
G01 X-16.5853 Y15.8692 
G01 X-16.6061 Y15.8929 
G01 X-17.1299 Y16.4167 
G01 X-17.1717 Y16.4890 
G01 X-17.1933 Y16.5698 
G01 X-17.1933 Y16.6534 
G01 X-17.1717 Y16.7341 
G01 X-17.1299 Y16.8065 
G01 X-17.0708 Y16.8657 
G01 X-16.9984 Y16.9075 
G01 X-16.9176 Y16.9291 
G01 X-16.1575 Y16.9291 
G01 X-15.6591 Y17.4275 
G01 X-15.6591 Y18.1325 
G01 X-16.1575 Y18.6309 
G01 X-16.7144 Y18.6309 
G01 X-16.7952 Y18.6525 
G01 X-16.8676 Y18.6943 
G01 X-16.9267 Y18.7534 
G01 X-17.6040 Y19.4307 
G01 X-17.6206 Y19.4435 
G01 X-17.6334 Y19.4602 
G01 X-17.6482 Y19.4750 
G01 X-17.6587 Y19.4932 
G01 X-17.6715 Y19.5099 
G01 X-17.6796 Y19.5292 
G01 X-17.6900 Y19.5474 
G01 X-17.6955 Y19.5677 
G01 X-17.7035 Y19.5871 
G01 X-17.7062 Y19.6079 
G01 X-17.7117 Y19.6282 
G01 X-17.7117 Y19.6492 
G01 X-17.7144 Y19.6700 
G01 X-17.7117 Y19.6908 
G01 X-17.7117 Y19.7118 
G01 X-17.7062 Y19.7320 
G01 X-17.7035 Y19.7529 
G01 X-17.6955 Y19.7722 
G01 X-17.6900 Y19.7925 
G01 X-17.6796 Y19.8107 
G01 X-17.5387 Y20.1507 
G01 X-17.5387 Y20.4893 
G01 X-17.6682 Y20.8020 
G01 X-17.9076 Y21.0414 
G01 X-18.2203 Y21.1709 
G01 X-19.8797 Y21.1709 
G01 X-20.1924 Y21.0414 
G01 X-20.4318 Y20.8020 
G01 X-20.5613 Y20.4893 
G01 X-20.5613 Y20.1507 
G01 X-20.4318 Y19.8380 
G01 X-20.1924 Y19.5986 
G01 X-19.8797 Y19.4691 
G01 X-18.8456 Y19.4691 
G01 X-18.7648 Y19.4475 
G01 X-18.7378 Y19.4318 
G01 X-18.6924 Y19.4057 
G01 X-18.4301 Y19.1433 
G01 X-18.3883 Y19.0709 
G01 X-18.3667 Y18.9902 
G01 X-18.3667 Y18.9066 
G01 X-18.3883 Y18.8258 
G01 X-18.4033 Y18.7999 
G01 X-18.4301 Y18.7534 
G01 X-18.4892 Y18.6943 
G01 X-18.5616 Y18.6525 
G01 X-18.6424 Y18.6309 
G01 X-19.8797 Y18.6309 
G01 X-20.1924 Y18.5014 
G01 X-20.4318 Y18.2620 
G01 X-20.5613 Y17.9493 
G01 X-20.5613 Y17.6107 
G01 X-20.4318 Y17.2980 
G01 X-20.1924 Y17.0586 
G01 X-19.8797 Y16.9291 
G01 X-18.8456 Y16.9291 
G01 X-18.7648 Y16.9075 
G01 X-18.7378 Y16.8918 
G01 X-18.6924 Y16.8657 
G01 X-18.4301 Y16.6033 
G01 X-18.3883 Y16.5309 
G01 X-18.3667 Y16.4502 
G01 X-18.3667 Y16.3666 
G01 X-18.3883 Y16.2858 
G01 X-18.4033 Y16.2599 
G01 X-18.4301 Y16.2134 
G01 X-18.4892 Y16.1543 
G01 X-18.5616 Y16.1125 
G01 X-18.6424 Y16.0909 
G01 X-19.8797 Y16.0909 
G01 X-20.1924 Y15.9614 
G01 X-20.4318 Y15.7220 
G01 X-20.5613 Y15.4093 
G01 X-20.5613 Y15.0707 
G01 X-20.4318 Y14.7580 
G01 X-20.1924 Y14.5186 
G01 X-19.8797 Y14.3891 
G01 X-18.2203 Y14.3891 
G01 X-17.9076 Y14.5186 
G01 X-17.8734 Y14.5529 
G01 X-17.8549 Y14.5636 
G01 X-17.8010 Y14.5947 
G01 X-17.7860 Y14.5987 
G01 X-17.7202 Y14.6163 
G01 X-17.6366 Y14.6163 
G01 X-17.5726 Y14.5992 
G01 X-17.5559 Y14.5947 
G01 X-17.5228 Y14.5756 
G01 X-17.4835 Y14.5529 
G01 X-17.4243 Y14.4938 
G01 X-17.4137 Y14.4753 
G01 X-17.3825 Y14.4214 
G01 X-17.3785 Y14.4065 
G01 X-17.3609 Y14.3406 
G01 X-17.3609 Y13.5993 
G01 X-17.3780 Y13.5354 
G01 X-17.3825 Y13.5186 
G01 X-17.4126 Y13.4665 
G01 X-17.4243 Y13.4462 
G01 X-17.4825 Y13.3880 
G01 X-17.5217 Y13.3650 
G01 X-17.5558 Y13.3453 
G01 X-17.5708 Y13.3413 
G01 X-17.6366 Y13.3237 
G01 X-17.7202 Y13.3237 
G01 X-17.7842 Y13.3408 
G01 X-17.8009 Y13.3453 
G01 X-17.8530 Y13.3754 
G01 X-17.8733 Y13.3871 
G01 X-17.9076 Y13.4214 
G01 X-18.2203 Y13.5509 
G01 X-19.8797 Y13.5509 
G01 X-20.1924 Y13.4214 
G01 X-20.4318 Y13.1820 
G01 X-20.5613 Y12.8693 
G01 X-20.5613 Y12.7851 
G01 X-20.5587 Y12.7698 
G01 X-20.5613 Y12.7435 
G01 X-20.5613 Y12.7170 
G01 X-20.5653 Y12.7020 
G01 X-20.5668 Y12.6866 
G01 X-20.5761 Y12.6618 
G01 X-20.5829 Y12.6363 
G01 X-20.5907 Y12.6228 
G01 X-20.5961 Y12.6083 
G01 X-20.6115 Y12.5868 
G01 X-20.6247 Y12.5639 
G01 X-20.6357 Y12.5529 
G01 X-20.6383 Y12.5492 
G01 X-20.6086 Y12.5267 
G01 X-20.5790 Y12.5056 
G01 X-20.5755 Y12.5013 
G01 X-20.5711 Y12.4979 
G01 X-20.5490 Y12.4691 
G01 X-20.5259 Y12.4410 
G01 X-20.5236 Y12.4360 
G01 X-20.5202 Y12.4316 
G01 X-20.5063 Y12.3981 
G01 X-20.4913 Y12.3649 
G01 X-20.4904 Y12.3595 
G01 X-20.4318 Y12.2180 
G01 X-20.1924 Y11.9786 
G01 X-19.8797 Y11.8491 
G01 X-18.8456 Y11.8491 
G01 X-18.7648 Y11.8275 
G01 X-18.6924 Y11.7857 
G01 X-18.6333 Y11.7265 
G01 X-18.3793 Y11.4725 
G01 X-18.3375 Y11.4001 
G01 X-18.3159 Y11.3194 
G01 X-18.3159 Y11.2358 
G01 X-18.3375 Y11.1550 
G01 X-18.3793 Y11.0826 
G01 X-18.4384 Y11.0235 
G01 X-18.5108 Y10.9817 
G01 X-18.5916 Y10.9601 
G01 X-18.7325 Y10.9601 
G01 X-18.7325 Y10.9347 
G01 X-18.3133 Y10.9347 
G01 X-18.1636 Y10.9049 
G01 X-18.0226 Y10.8465 
G01 X-17.8958 Y10.7617 
G01 X-17.7879 Y10.6538 
G01 X-17.7031 Y10.5270 
G01 X-17.6826 Y10.4775 
G01 X-17.5673 Y10.4775 
G01 X-17.5661 Y10.4806 
G01 X-17.5517 Y10.5004 
G01 X-17.5396 Y10.5216 
G01 X-17.5272 Y10.5341 
G01 X-17.5169 Y10.5483 
G01 X-17.4979 Y10.5636 
G01 X-17.4807 Y10.5810 
G01 X-17.4656 Y10.5898 
G01 X-17.4520 Y10.6009 
G01 X-17.4297 Y10.6108 
G01 X-17.4085 Y10.6231 
G01 X-17.3916 Y10.6277 
G01 X-17.3756 Y10.6349 
G01 X-17.3514 Y10.6387 
G01 X-17.3279 Y10.6451 
G01 X-17.3104 Y10.6452 
G01 X-17.2930 Y10.6479 
G01 X-17.2687 Y10.6454 
G01 X-17.2443 Y10.6455 
G01 X-17.2273 Y10.6410 
G01 X-17.2099 Y10.6392 
G01 X-17.1871 Y10.6304 
G01 X-17.1634 Y10.6242 
G01 X-17.1482 Y10.6155 
G01 X-17.1318 Y10.6093 
G01 X-17.1121 Y10.5949 
G01 X-15.8712 Y9.8858 
G01 X-15.8351 Y9.8652 
G01 X-15.7992 Y9.8447 
G01 X-15.7805 Y9.8262 
G01 X-15.7696 Y9.8217 
G01 X-15.7500 Y9.8166 
G01 X-15.7312 Y9.8058 
G01 X-15.7111 Y9.7975 
G01 X-15.6950 Y9.7851 
G01 X-15.6848 Y9.7793 
G01 X-15.6602 Y9.7762 
G01 X-15.6358 Y9.7663 
G01 X-15.6240 Y9.7663 
G01 X-15.6039 Y9.7690 
G01 X-15.5824 Y9.7663 
G01 X-15.5607 Y9.7663 
G01 X-15.5411 Y9.7610 
G01 X-15.5295 Y9.7596 
G01 X-15.5055 Y9.7661 
G01 X-15.4630 Y9.7663 
G01 X-15.4219 Y9.7665 
G01 X-9.1544 Y9.7663 
G01 X-9.0736 Y9.7447 
G01 X-9.0012 Y9.7029 
G01 X-8.9421 Y9.6437 
G01 X-8.9250 Y9.6266 
G01 X-8.2200 Y9.6266 
G01 X-7.7216 Y10.1250 
G01 X-7.7216 Y10.8300 
G01 X-8.2200 Y11.3284 
G01 X-8.9250 Y11.3284 
G01 X-9.4234 Y10.8300 
G01 X-9.4450 Y10.7486 
G01 X-9.4868 Y10.6762 
G01 X-9.5459 Y10.6171 
G01 X-9.6183 Y10.5753 
G01 X-9.6991 Y10.5537 
G01 X-15.3679 Y10.5537 
G01 X-15.4090 Y10.5535 
G01 X-15.4499 Y10.5643 
G01 X-15.4899 Y10.5748 
G01 X-15.5265 Y10.5957 
G01 X-17.4663 Y11.7042 
G01 X-17.5025 Y11.7249 
G01 X-17.5383 Y11.7453 
G01 X-17.5681 Y11.7749 
G01 X-17.5976 Y11.8042 
G01 X-17.6040 Y11.8107 
G01 X-17.6206 Y11.8235 
G01 X-17.6334 Y11.8402 
G01 X-17.6482 Y11.8550 
G01 X-17.6587 Y11.8732 
G01 X-17.6715 Y11.8898 
G01 X-17.6796 Y11.9093 
G01 X-17.6900 Y11.9274 
G01 X-17.6955 Y11.9477 
G01 X-17.7035 Y11.9671 
G01 X-17.7063 Y11.9879 
G01 X-17.7117 Y12.0082 
G01 X-17.7117 Y12.0292 
G01 X-17.7144 Y12.0500 
G01 X-17.7117 Y12.0708 
G01 X-17.7117 Y12.0918 
G01 X-17.7063 Y12.1120 
G01 X-17.7035 Y12.1329 
G01 X-17.6955 Y12.1522 
G01 X-17.6900 Y12.1725 
G01 X-17.6796 Y12.1907 
G01 X-17.5387 Y12.5307 
G01 X-17.5387 Y12.8693 
G01 X-17.5748 Y12.9563 
G01 X-17.5852 Y12.9745 
G01 X-17.5907 Y12.9947 
G01 X-17.5987 Y13.0141 
G01 X-17.6015 Y13.0350 
G01 X-17.6069 Y13.0552 
G01 X-17.6069 Y13.0762 
G01 X-17.6096 Y13.0970 
G01 X-17.6069 Y13.1178 
G01 X-17.6069 Y13.1388 
G01 X-17.6014 Y13.1591 
G01 X-17.5987 Y13.1799 
G01 X-17.5907 Y13.1993 
G01 X-17.5852 Y13.2196 
G01 X-17.5748 Y13.2378 
G01 X-17.5667 Y13.2571 
G01 X-17.5539 Y13.2738 
G01 X-17.5434 Y13.2920 
G01 X-17.5286 Y13.3068 
G01 X-17.5158 Y13.3235 
G01 X-17.4992 Y13.3362 
G01 X-17.4843 Y13.3511 
G01 X-17.4662 Y13.3616 
G01 X-17.4495 Y13.3744 
G01 X-17.4301 Y13.3824 
G01 X-17.4119 Y13.3929 
G01 X-17.3917 Y13.3983 
G01 X-17.3723 Y13.4063 
G01 X-17.3514 Y13.4091 
G01 X-17.3312 Y13.4145 
G01 X-17.3102 Y13.4145 
G01 X-17.2894 Y13.4173 
G01 X-17.2686 Y13.4145 
G01 X-17.2476 Y13.4145 
G01 X-17.2273 Y13.4091 
G01 X-17.2065 Y13.4063 
G01 X-17.1871 Y13.3983 
G01 X-17.1668 Y13.3929 
G01 X-17.1487 Y13.3824 
G01 X-17.1293 Y13.3744 
G01 X-17.1126 Y13.3616 
G01 X-17.0944 Y13.3511 
G01 X-17.0796 Y13.3362 
G01 X-17.0629 Y13.3235 
G01 X-17.0502 Y13.3068 
G01 X-16.8624 Y13.1191 
G01 X-16.3056 Y13.1191 
G01 X-16.2248 Y13.0975 
G01 X-16.1524 Y13.0557 
G01 X-16.0933 Y12.9965 
G01 X-15.1455 Y12.0487 
G01 X-15.0008 Y11.9888 
G01 X-7.3416 Y11.9888 
G01 X-7.3294 Y11.9911 
G01 X-7.2999 Y11.9888 
G01 X-7.2703 Y11.9888 
G01 X-7.2584 Y11.9856 
G01 X-7.2461 Y11.9847 
G01 X-7.2181 Y11.9748 
G01 X-7.1896 Y11.9672 
G01 X-7.1789 Y11.9610 
G01 X-7.1672 Y11.9569 
G01 X-7.1428 Y11.9402 
G01 X-7.1172 Y11.9254 
G01 X-7.1084 Y11.9166 
G01 X-7.0982 Y11.9097 
G01 X-7.0790 Y11.8872 
G01 X-7.0580 Y11.8662 
G01 X-7.0519 Y11.8556 
G01 X-6.1168 Y10.7647 
G01 X-6.0959 Y10.7438 
G01 X-6.0898 Y10.7331 
G01 X-6.0817 Y10.7237 
G01 X-6.0689 Y10.6970 
G01 X-6.0541 Y10.6714 
G01 X-6.0509 Y10.6595 
G01 X-6.0456 Y10.6483 
G01 X-6.0402 Y10.6192 
G01 X-6.0325 Y10.5906 
G01 X-6.0325 Y10.5783 
G01 X-6.0302 Y10.5662 
G01 X-6.0325 Y10.5366 
G01 X-6.0325 Y9.2085 
G01 X-5.8875 Y8.8584 
G01 X-5.6196 Y8.5905 
G01 X-5.4391 Y8.5158 
G01 X-5.4296 Y8.5139 
G01 X-5.4006 Y8.4998 
G01 X-5.3707 Y8.4874 
G01 X-5.3631 Y8.4816 
G01 X-5.3545 Y8.4774 
G01 X-5.3300 Y8.4562 
G01 X-5.3044 Y8.4365 
G01 X-5.2985 Y8.4289 
G01 X-5.2913 Y8.4226 
G01 X-5.2732 Y8.3959 
G01 X-5.2535 Y8.3702 
G01 X-5.2498 Y8.3614 
G01 X-5.2444 Y8.3534 
G01 X-5.2339 Y8.3228 
G01 X-5.2215 Y8.2930 
G01 X-5.2202 Y8.2835 
G01 X-5.2171 Y8.2744 
G01 X-5.2148 Y8.2422 
G01 X-5.2106 Y8.2101 
G01 X-5.2118 Y8.2006 
G01 X-5.2111 Y8.1910 
G01 X-5.2173 Y8.1593 
G01 X-5.2215 Y8.1272 
G01 X-5.2251 Y8.1184 
G01 X-5.2270 Y8.1089 
G01 X-5.2411 Y8.0799 
G01 X-5.2535 Y8.0500 
G01 X-5.2593 Y8.0424 
G01 X-5.2635 Y8.0337 
G01 X-5.2847 Y8.0093 
G01 X-5.3044 Y7.9837 
G01 X-5.3120 Y7.9778 
G01 X-5.3182 Y7.9706 
G01 X-5.3450 Y7.9524 
G01 X-5.3707 Y7.9328 
G01 X-5.3795 Y7.9291 
G01 X-5.3875 Y7.9237 
G01 X-5.4181 Y7.9131 
G01 X-5.4479 Y7.9008 
G01 X-5.4574 Y7.8995 
G01 X-5.4665 Y7.8964 
G01 X-5.4987 Y7.8941 
G01 X-5.5308 Y7.8899 
G01 X-5.5403 Y7.8911 
G01 X-8.2236 Y7.6994 
G01 X-8.2378 Y7.6959 
G01 X-8.2651 Y7.6965 
G01 X-8.2924 Y7.6945 
G01 X-8.3068 Y7.6973 
G01 X-8.3255 Y7.6977 
G01 X-8.3367 Y7.6933 
G01 X-8.3431 Y7.6926 
G01 X-8.3492 Y7.6905 
G01 X-8.3612 Y7.6896 
G01 X-8.3779 Y7.6812 
G01 X-8.3897 Y7.6726 
G01 X-8.4151 Y7.6626 
G01 X-8.4396 Y7.6504 
G01 X-8.4539 Y7.6474 
G01 X-8.4714 Y7.6406 
G01 X-8.4800 Y7.6323 
G01 X-8.4857 Y7.6292 
G01 X-8.4905 Y7.6249 
G01 X-8.5012 Y7.6195 
G01 X-8.5135 Y7.6054 
G01 X-8.5211 Y7.5928 
G01 X-8.5408 Y7.5739 
G01 X-8.5587 Y7.5532 
G01 X-8.5708 Y7.5450 
