( Made using CamBam - http://www.cambam.co.uk )
( xpark 3/7/2013 6:29:01 PM )
( T10 : 0.5 )
G21 G90 G64 G40
G0 Z3.0
( T10 : 0.5 )
T10 M6
( Tasche1 )
G17
M3 S1000
G0 X16.8859 Y-27.8228
G0 Z0.2
G1 F300.0 Z-0.4
G3 F500.0 X17.1804 Y-27.8092 I0.118 J0.6392
G3 X17.1746 Y-27.9213 I0.6438 J-0.0893
G3 X16.8802 Y-27.935 I-0.118 J-0.6392
G3 X16.8859 Y-27.8228 I-0.6438 J0.0893
G1 F300.0 X16.9222 Y-27.6261
G3 F500.0 X17.2573 Y-27.5555 I0.0817 J0.4425
G1 X20.966 Y-25.0288
G1 Y-25.2778
G1 X17.5757 Y-27.5233
G3 X17.5715 Y-28.2708 I0.2485 J-0.3752
G1 X20.966 Y-30.5744
G1 Y-30.739
G1 X17.3141 Y-28.1915
G3 X16.8035 Y-28.1885 I-0.2575 J-0.3691
G1 X13.1414 Y-30.6807
G1 Y-30.4369
G1 X16.4849 Y-28.2208
G3 X16.4888 Y-27.4732 I-0.2486 J0.3751
G1 X13.1414 Y-25.2047
G1 Y-25.035
G1 X16.7463 Y-27.5525
G3 X16.9222 Y-27.6261 I0.2577 J0.3689
G1 F300.0 X16.9585 Y-27.4294
G3 F500.0 X17.1447 Y-27.3902 I0.0454 J0.2458
G1 X21.166 Y-24.6506
G1 Y-25.3852
G1 X17.6862 Y-27.69
G3 X17.6838 Y-28.1053 I0.138 J-0.2084
G1 X21.166 Y-30.4684
G1 Y-31.1223
G1 X17.1997 Y-28.3555
G3 X16.916 Y-28.3539 I-0.143 J-0.205
G1 X12.9414 Y-31.0587
G1 Y-30.3295
G1 X16.3744 Y-28.0541
G3 X16.3766 Y-27.6387 I-0.1381 J0.2084
G1 X12.9414 Y-25.3108
G1 Y-24.6514
G1 X16.8608 Y-27.3886
G3 X16.9585 Y-27.4294 I0.1431 J0.205
G0 Z3.0
G0 X17.576 Y-21.9574
G0 Z0.2
G1 F300.0 Z-0.4
G3 F500.0 X17.6687 Y-21.8681 I-0.4021 J0.5102
G3 X17.7613 Y-21.9574 I0.4954 J0.4208
G1 X17.576
G1 F300.0 X17.4522 Y-21.8004
G3 F500.0 X17.6234 Y-21.4473 I-0.2783 J0.3531
G1 Y-20.4696
G3 X17.5972 Y-19.8546 I-6.6566 J0.0244
G3 X17.4853 Y-19.2106 I-3.7095 J-0.3131
G3 X17.4849 Y-19.2093 I-0.4345 J-0.1156
G3 X16.9703 Y-18.2995 I-2.0256 J-0.5452
G3 X16.9673 Y-18.2963 I-0.3239 J-0.3119
G3 X16.2144 Y-17.8043 I-1.4995 J-1.4726
G3 X16.2076 Y-17.8018 I-0.1597 J-0.4203
G3 X15.3592 Y-17.6578 I-0.8226 J-2.2742
G3 X14.389 Y-17.8551 I-0.0423 J-2.276
G3 X14.3795 Y-17.8594 I0.1833 J-0.4106
G3 X13.6485 Y-18.504 I0.7572 J-1.5956
G3 X13.6476 Y-18.5054 I0.3788 J-0.2421
G3 X13.3286 Y-19.3027 I1.9797 J-1.2544
G3 X13.2379 Y-20.3026 I4.6091 J-0.9222
G1 Y-21.4473
G3 X13.6875 Y-21.8969 I0.4496 J0.0
G1 X17.1738
G3 X17.4522 Y-21.8004 I0.0 J0.4496
G1 F300.0 X17.3286 Y-21.6436
G3 F500.0 X17.4238 Y-21.4473 I-0.1548 J0.1963
G1 Y-20.4692
G3 X17.3984 Y-19.8719 I-6.457 J0.024
G3 X17.2924 Y-19.2619 I-3.5107 J-0.2958
G3 X17.2922 Y-19.2612 I-0.2416 J-0.0643
G3 X16.8266 Y-18.4379 I-1.8329 J-0.4933
G3 X16.8249 Y-18.4362 I-0.1801 J-0.1734
G3 X16.1435 Y-17.9909 I-1.357 J-1.3327
G3 X16.1397 Y-17.9895 I-0.0888 J-0.2337
G3 X15.3584 Y-17.8574 I-0.7547 J-2.0865
G3 X14.4704 Y-18.0373 I-0.0415 J-2.0764
G3 X14.4651 Y-18.0398 I0.1019 J-0.2283
G3 X13.8167 Y-18.6115 I0.6717 J-1.4153
G3 X13.8162 Y-18.6123 I0.2107 J-0.1346
G3 X13.5244 Y-19.3417 I1.8111 J-1.1476
G3 X13.4375 Y-20.301 I4.4133 J-0.8832
G1 Y-21.4473
G3 X13.6875 Y-21.6973 I0.25 J0.0
G1 X17.1738
G3 X17.3286 Y-21.6436 I0.0 J0.25
G0 Z3.0
G0 X17.726 Y-21.5502
G0 Z0.2
G1 F300.0 Z-0.4
G3 F500.0 X18.1641 Y-21.8973 I0.4381 J0.1029
G1 X20.966
G1 Y-22.1574
G1 X13.1414
G1 Y-20.2402
G3 X13.1413 Y-20.2328 I-0.45 J0.0
G2 X13.2653 Y-19.0086 I5.2547 J0.0865
G2 X13.6127 Y-18.19 I2.442 J-0.5535
G2 X14.283 Y-17.5713 I1.5724 J-1.031
G2 X14.764 Y-17.4014 I0.7873 J-1.4627
G3 X14.7651 Y-17.4012 I-0.083 J0.4423
G2 X15.3249 Y-17.3504 I0.5394 J-2.835
G3 X15.3321 I0.0032 J0.45
G2 X16.2373 Y-17.5226 I0.0209 J-2.3557
G3 X16.2396 Y-17.5235 I0.1689 J0.4171
G2 X16.9436 Y-17.9863 I-0.7764 J-1.948
G2 X17.5176 Y-18.8856 I-1.7568 J-1.7539
G2 X17.6712 Y-19.5541 I-2.9932 J-1.0396
G3 X17.6714 Y-19.556 I0.4469 J0.0527
G2 X17.7141 Y-20.285 I-5.7363 J-0.7016
G3 Y-20.2871 I0.45 J-0.0021
G1 Y-21.4473
G3 X17.726 Y-21.5502 I0.45 J0.0
G1 F300.0 X17.9207 Y-21.5045
G3 F500.0 X18.1641 Y-21.6973 I0.2434 J0.0572
G1 X21.166
G1 Y-22.3574
G1 X12.9414
G1 Y-20.2402
G3 Y-20.2361 I-0.25 J0.0
G2 X13.0701 Y-18.9648 I5.4547 J0.0897
G2 X13.4454 Y-18.0804 I2.6372 J-0.5972
G2 X14.1876 Y-17.3955 I1.7396 J-1.1406
G2 X14.7271 Y-17.2048 I0.8827 J-1.6385
G3 X14.7277 Y-17.2047 I-0.0461 J0.2457
G2 X15.3264 Y-17.1504 I0.5768 J-3.0314
G3 X15.3303 I0.0018 J0.25
G2 X16.3124 Y-17.3372 I0.0227 J-2.5557
G3 X16.3137 Y-17.3377 I0.0938 J0.2317
G2 X17.085 Y-17.8448 I-0.8505 J-2.1338
G2 X17.7059 Y-18.8184 I-1.8982 J-1.8954
G2 X17.8698 Y-19.5307 I-3.1815 J-1.1068
G3 X17.8699 Y-19.5317 I0.2483 J0.0293
G2 X17.9141 Y-20.2859 I-5.9349 J-0.7259
G3 Y-20.2871 I0.25 J-0.0012
G1 Y-21.4473
G3 X17.9207 Y-21.5045 I0.25 J0.0
G0 Z3.0
G0 X19.0715 Y-15.4441
G0 Z0.2
G1 F300.0 Z-0.4
G2 F500.0 X18.9927 Y-15.4276 I0.4212 J2.2182
G3 X18.9919 Y-15.4275 I-0.0997 J-0.4388
G2 X18.5739 Y-15.2481 I0.2732 J1.213
G2 X18.0052 Y-14.5299 I0.9986 J1.3751
G2 X17.6804 Y-13.2252 I4.162 J1.7287
G3 X17.6797 Y-13.2185 I-0.448 J-0.0423
G1 X17.6796 Y-13.2176
G3 X17.8038 Y-13.8444 I6.692 J1.0001
G3 X17.8049 Y-13.8485 I0.4364 J0.1081
G3 X18.334 Y-14.8113 I2.1468 J0.5531
G3 X18.338 Y-14.8155 I0.3281 J0.3074
G3 X18.8764 Y-15.1578 I0.9723 J0.9345
G3 X18.8797 Y-15.1589 I0.1446 J0.4257
G3 X19.4409 Y-15.2465 I0.5437 J1.642
G3 X20.0508 Y-15.1487 I0.0228 J1.8082
G3 X20.0544 Y-15.1474 I-0.146 J0.4252
G3 X20.6342 Y-14.7474 I-0.448 J1.2697
G3 X20.6453 Y-14.7339 I-0.3432 J0.2904
G3 X20.9586 Y-14.053 I-1.2841 J1.0036
G3 X21.0219 Y-13.4201 I-2.8568 J0.6051
G3 X20.9333 Y-12.6724 I-2.9439 J0.0302
G2 X21.066 Y-13.084 I-2.5104 J-1.0366
G3 X21.0665 Y-13.0863 I0.4379 J0.1035
G2 X21.1477 Y-13.8118 I-2.8224 J-0.6831
G3 X21.1478 Y-13.8283 I0.45 J-0.0066
G2 X20.6877 Y-15.0061 I-1.6443 J-0.0364
G3 X20.6851 Y-15.0088 I0.324 J-0.3123
G2 X19.5315 Y-15.4838 I-1.1066 J1.049
G3 X19.5134 Y-15.4836 I-0.0139 J-0.4498
G2 X19.0715 Y-15.4441 I-0.0208 J2.2578
G0 Z3.0
G0 X15.5211 Y-14.9035
G0 Z0.2
G1 F300.0 Z-0.4
G1 F500.0 X15.3682
G2 X15.2624 Y-14.3491 I10.551 J2.2997
G3 X15.2616 Y-14.3443 I-0.4441 J-0.0727
G2 X15.1629 Y-13.2199 I6.4887 J1.1363
G3 Y-13.2147 I-0.45 J-0.0008
G2 X15.2704 Y-12.1124 I5.0169 J0.0669
G3 X15.2713 Y-12.108 I-0.4403 J0.0929
G2 X15.5816 Y-11.3925 I1.8246 J-0.3661
G2 X16.0957 Y-10.9781 I1.0324 J-0.7549
G2 X16.5036 Y-10.8588 I0.6616 J-1.5057
G3 X16.5049 Y-10.8586 I-0.0694 J0.4446
G2 X16.9721 Y-10.823 I0.4508 J-2.8335
G3 X16.9746 I0.0026 J0.45
G1 X20.966
G1 Y-11.0188
G1 X20.7188
G3 X20.2824 Y-11.3587 I0.0 J-0.45
G3 X20.161 Y-11.1945 I-4.3571 J-3.0956
G3 X19.8047 Y-11.0192 I-0.3563 J-0.2742
G1 X17.9824
G3 X17.5373 Y-11.4054 I0.0 J-0.4496
G3 X17.0918 Y-11.0188 I-0.4455 J-0.0634
G1 X16.9289
G3 X16.1005 Y-11.2005 I-0.0509 J-1.7464
G3 X16.0931 Y-11.2043 I0.2002 J-0.403
G3 X15.5214 Y-11.7587 I0.6417 J-1.2337
G3 X15.5195 Y-11.7622 I0.3927 J-0.2198
G3 X15.2863 Y-12.482 I1.7731 J-0.972
G3 X15.2355 Y-13.2277 I5.2495 J-0.7318
G3 X15.2356 Y-13.2328 I0.45 J0.0012
G3 X15.3634 Y-14.291 I5.0216 J0.0699
G3 X15.5211 Y-14.9035 I7.5534 J1.6171
G1 F300.0 Y-15.1035
G1 F500.0 X15.2083
G2 X15.0651 Y-14.3815 I10.7109 J2.4997
G3 X15.0646 Y-14.3788 I-0.2467 J-0.0404
G2 X14.9629 Y-13.2203 I6.6857 J1.1708
G3 Y-13.2174 I-0.25 J-0.0005
G2 X15.0747 Y-12.0711 I5.2169 J0.0696
G3 X15.0752 Y-12.0687 I-0.2446 J0.0516
G2 X15.4194 Y-11.2753 I2.0207 J-0.4054
G2 X16.015 Y-10.7951 I1.1945 J-0.8721
G2 X16.4728 Y-10.6612 I0.7424 J-1.6887
G3 X16.4735 Y-10.6611 I-0.0386 J0.247
G2 X16.9732 Y-10.623 I0.4823 J-3.031
G3 X16.9746 I0.0014 J0.25
G1 X21.166
G1 Y-11.2188
G1 X20.7188
G3 X20.5127 Y-11.6104 I0.0 J-0.25
G3 X20.7975 Y-12.0139 I16.5327 J11.3679
G3 X20.7977 Y-12.014 I0.2025 J0.1467
G2 X21.0542 Y-12.4522 I-2.0971 J-1.5218
G3 X21.0555 Y-12.4552 I0.2271 J0.1045
G2 X21.2606 Y-13.038 I-2.6327 J-1.2538
G3 X21.2609 Y-13.0393 I0.2433 J0.0575
G2 X21.3477 Y-13.8147 I-3.0168 J-0.7301
G3 Y-13.8239 I0.25 J-0.0037
G2 X20.8317 Y-15.1449 I-1.8442 J-0.0409
G3 X20.8303 Y-15.1464 I0.18 J-0.1735
G2 X19.5253 Y-15.6837 I-1.2517 J1.1866
G3 X19.5153 Y-15.6836 I-0.0077 J-0.2499
G2 X18.9484 Y-15.6227 I-0.0226 J2.4578
G3 X18.9479 Y-15.6226 I-0.0554 J-0.2438
G2 X18.4595 Y-15.4121 I0.3171 J1.4081
G2 X17.8206 Y-14.6069 I1.113 J1.5392
G2 X17.4813 Y-13.2441 I4.3466 J1.8057
G3 X17.4809 Y-13.2403 I-0.2489 J-0.0235
G2 X17.3415 Y-11.457 I28.5066 J3.1256
G3 X17.0918 Y-11.2188 I-0.2497 J-0.0117
G1 X16.9259
G3 X16.1895 Y-11.3796 I-0.0479 J-1.5464
G3 X16.1854 Y-11.3817 I0.1112 J-0.2239
G3 X15.6959 Y-11.8564 I0.5494 J-1.0563
G3 X15.6948 Y-11.8583 I0.2181 J-0.1221
G3 X15.4846 Y-12.5083 I1.5977 J-0.8759
G3 X15.4355 Y-13.2272 I5.0512 J-0.7056
G3 X15.4356 Y-13.23 I0.25 J0.0007
G3 X15.5587 Y-14.2476 I4.8216 J0.0671
G3 X15.7953 Y-15.1035 I7.3581 J1.5737
G1 X15.5211
G0 Z3.0
G0 X18.0839 Y-14.0576
G0 Z0.2
G1 F300.0 Z-0.4
G3 F500.0 X18.4797 Y-14.6749 I1.8678 J0.7622
G3 X18.4819 Y-14.6772 I0.1824 J0.1709
G3 X18.9406 Y-14.9688 I0.8284 J0.7962
G3 X18.9424 Y-14.9695 I0.0804 J0.2367
G3 X19.4411 Y-15.0469 I0.4809 J1.4525
G3 X19.986 Y-14.9599 I0.0226 J1.6086
G3 X19.988 Y-14.9592 I-0.0812 J0.2365
G3 X20.4819 Y-14.6185 I-0.3816 J1.0815
G3 X20.488 Y-14.611 I-0.1908 J0.1615
G3 X20.7632 Y-14.0126 I-1.1268 J0.8807
G3 X20.8223 Y-13.42 I-2.6613 J0.5647
G3 X20.5773 Y-12.2561 I-2.7442 J0.0301
G3 X20.5756 Y-12.2524 I-0.2277 J-0.1033
G3 X20.0028 Y-11.3163 I-4.6503 J-2.202
G3 X19.8047 Y-11.2188 I-0.1981 J-0.1525
G1 X17.9824
G3 X17.7329 Y-11.4839 I0.0 J-0.25
G3 X17.8211 Y-12.6778 I45.0051 J2.7242
G3 X17.9976 Y-13.7964 I6.5506 J0.4603
G3 X17.9981 Y-13.7987 I0.2427 J0.0601
G3 X18.0839 Y-14.0576 I1.9535 J0.5033
G0 Z3.0
G0 Y-7.802
G0 Z0.2
G1 F300.0 Z-0.4
G1 F500.0 X15.3211
G1 Y-7.6004
G1 X15.8379
G3 X16.2766 Y-7.2504 I0.0 J0.45
G3 X16.4218 Y-7.4361 I3.9206 J2.9164
G3 X16.7695 Y-7.6004 I0.3477 J0.2857
G1 X20.966
G1 Y-7.802
G1 X18.0839
G0 Z3.0
G0 X15.6461 Y-6.0924
G0 Z0.2
G1 F300.0 Z-0.4
G2 F500.0 X15.504 Y-5.8112 I3.0926 J1.7393
G3 X15.5039 Y-5.811 I-0.4102 J-0.1849
G2 X15.3211 Y-4.969 I1.8829 J0.8497
G3 X15.321 Y-4.9644 I-0.45 J-0.0017
G2 X15.3347 Y-4.618 I3.2529 J0.0456
G1 X15.5472
G3 X15.5429 Y-4.6581 I4.0655 J-0.4603
G3 X15.5109 Y-5.254 I4.8307 J-0.5578
G3 X15.6461 Y-6.0924 I2.6937 J0.0042
G1 F300.0 X15.4718 Y-6.1904
G2 F500.0 X15.3217 Y-5.8934 I3.2669 J1.8373
G3 X15.3216 Y-5.8933 I-0.2279 J-0.1027
G2 X15.1211 Y-4.9698 I2.0651 J0.9319
G3 Y-4.9672 I-0.25 J-0.0009
G2 X15.1374 Y-4.5803 I3.4529 J0.0484
G2 X15.1568 Y-4.418 I6.4331 J-0.6886
G1 X15.7777
G3 X15.7417 Y-4.6799 I3.8351 J-0.6603
G3 X15.7109 Y-5.2531 I4.6319 J-0.5361
G3 X15.9642 Y-6.3449 I2.4937 J0.0033
G3 X16.5764 Y-7.3091 I4.233 J2.0109
G3 X16.7695 Y-7.4004 I0.1932 J0.1587
G1 X21.166
G1 Y-8.002
G1 X15.1211
G1 Y-7.4004
G1 X15.8379
G3 X16.0322 Y-6.9931 I0.0 J0.25
G2 X15.6371 Y-6.4575 I5.7469 J4.6532
G3 X15.6363 Y-6.4564 I-0.2077 J-0.1392
G2 X15.4718 Y-6.1904 I3.1023 J2.1033
G0 Z3.0
G0 X18.614 Y-2.434
G0 Z0.2
G1 F300.0 Z-0.4
G3 F500.0 X18.6828 Y-2.3497 I-0.4675 J0.4516
G1 X18.7594 Y-2.4303
G3 X18.7629 Y-2.434 I0.4711 J0.4479
G1 X18.614
G1 F300.0 Y-2.634
G1 F500.0 X12.7488
G1 Y-2.4324
G1 X18.1465
G3 X18.5963 Y-1.9685 I0.0 J0.45
G1 X18.9044 Y-2.2925
G3 X19.2305 Y-2.4324 I0.3261 J0.3101
G1 X20.966
G1 Y-2.634
G1 X18.614
G0 Z3.0
G0 X18.1031 Y-1.3129
G0 Z0.2
G1 F300.0 Z-0.4
G1 F500.0 X15.3211 Y1.3895
G1 Y1.497
G1 X17.5754 Y-0.7704
G3 X18.2004 Y-0.7832 I0.3191 J0.3173
G1 X20.966 Y1.7799
G1 Y1.5555
G1 X18.2468 Y-0.9358
G3 X18.1031 Y-1.3129 I0.304 J-0.3318
G1 F300.0 X17.9637 Y-1.4564
G1 F500.0 X15.1211 Y1.3049
G1 Y1.9819
G1 X17.7172 Y-0.6294
G3 X18.0645 Y-0.6365 I0.1773 J0.1763
G1 X21.166 Y2.238
G1 Y1.4674
G1 X18.3819 Y-1.0832
G3 X18.3696 Y-1.4398 I0.1689 J-0.1843
G1 X19.0493 Y-2.1547
G3 X19.2305 Y-2.2324 I0.1812 J0.1723
G1 X21.166
G1 Y-2.834
G1 X12.5488
G1 Y-2.2324
G1 X18.1465
G3 X18.3207 Y-1.8031 I0.0 J0.25
G1 X17.9637 Y-1.4564
G0 Z3.0
G0 X14.6902 Y7.5368
G0 Z0.2
G1 F300.0 Z-0.4
G1 F500.0 X13.1414 Y6.973
G1 Y7.2552
G1 X20.5183 Y9.885
G3 Y10.7327 I-0.1511 J0.4239
G1 X13.1414 Y13.3625
G1 Y13.5861
G1 X20.966 Y10.7379
G1 Y9.8212
G1 X14.6902 Y7.5368
G1 F300.0 X14.7586 Y7.3489
G1 F500.0 X12.9414 Y6.6874
G1 Y7.3962
G1 X20.4511 Y10.0734
G3 Y10.5443 I-0.0839 J0.2355
G1 X12.9414 Y13.2215
G1 Y13.8717
G1 X21.166 Y10.878
G1 Y9.6812
G1 X14.7586 Y7.3489
G0 Z3.0
G0 X15.7428 Y15.5072
G0 Z0.2
G1 F300.0 Z-0.4
G2 F500.0 X15.3368 Y15.5644 I1.2266 J10.167
G2 X14.5113 Y15.7699 I0.9081 J5.41
G3 X14.5104 Y15.7702 I-0.079 J-0.2372
G2 X13.7644 Y16.1264 I1.0159 J3.0869
G3 X13.7639 Y16.1267 I-0.1355 J-0.2101
G2 X12.9959 Y17.0116 I1.1225 J1.7499
G2 X12.7656 Y18.1962 I2.6245 J1.125
G3 Y18.2068 I-0.2499 J0.0052
G2 X12.9985 Y19.3984 I2.8496 J0.0615
G2 X13.7783 Y20.28 I1.8598 J-0.8593
G3 X13.78 Y20.2811 I-0.1318 J0.2124
G2 X14.5223 Y20.632 I1.8025 J-2.8527
G2 X15.7607 Y20.8989 I1.9002 J-5.8094
G3 X15.7618 Y20.899 I-0.0271 J0.2485
G2 X17.0497 Y20.969 I1.2391 J-10.9167
G3 X17.053 I0.0011 J0.25
G2 X18.7862 Y20.8382 I0.0924 J-10.3255
G2 X19.6162 Y20.6317 I-0.9033 J-5.3994
G3 X19.6171 Y20.6314 I0.0792 J0.2371
G2 X20.3652 Y20.2714 I-1.0011 J-3.0385
G1 X20.3653
G1 X20.3652
G2 X21.1218 Y19.3861 I-1.1323 J-1.7335
G2 X21.3477 Y18.2066 I-2.6563 J-1.1202
G3 Y18.1962 I0.2499 J-0.0051
G2 X21.1192 Y17.0041 I-2.9035 J-0.0613
G2 X20.3504 Y16.1156 I-1.8735 J0.8443
G2 X19.6052 Y15.7658 I-1.7699 J2.8016
G2 X18.3594 Y15.5025 I-1.8975 J5.8991
G3 X18.3582 Y15.5024 I0.0263 J-0.2486
G2 X17.0636 Y15.4339 I-1.2443 J11.2451
G3 X17.0603 I-0.0011 J-0.25
G2 X15.7428 Y15.5072 I-0.0909 J10.2403
G0 Z3.0
G0 X15.7788 Y15.971
G0 Z0.2
G1 F300.0 Z-0.4
G3 F500.0 X17.0617 Y15.9237 I1.2237 J15.7644
G3 X18.6331 Y15.9901 I0.1188 J15.8255
G3 X18.6335 I-0.0413 J0.4477
G3 X19.8627 Y16.2966 I-0.3888 J4.177
G3 X20.757 Y16.9975 I-0.7364 J1.8608
G3 X20.7668 Y17.0118 I-0.3664 J0.2606
G3 X21.0197 Y17.6168 I-1.5026 J0.9836
G3 X21.0805 Y18.2017 I-2.5922 J0.5648
G3 X21.0201 Y18.7715 I-2.565 J0.0165
G3 X20.7848 Y19.3518 I-1.8261 J-0.4026
G3 X20.7779 Y19.3627 I-0.3825 J-0.2363
G3 X19.8794 Y20.0949 I-1.6123 J-1.0612
G3 X18.6428 Y20.4007 I-1.6506 J-4.0207
G3 X17.0506 Y20.4792 I-1.4869 J-13.9811
G3 X15.4606 Y20.4009 I-0.0965 J-14.2306
G3 X14.2139 Y20.0856 I0.3575 J-4.0349
G3 X13.3369 Y19.3591 I0.7748 J-1.828
G3 X13.3315 Y19.3508 I0.3741 J-0.2494
G3 X13.0919 Y18.7676 I1.5174 J-0.9642
G3 X13.0328 Y18.2013 I2.5106 J-0.5481
G3 X13.0931 Y17.6314 I2.565 J-0.0166
G3 X13.3285 Y17.051 I1.8261 J0.4026
G3 X13.338 Y17.0362 I0.3825 J0.2363
G3 X14.2238 Y16.3064 I1.671 J1.1256
G3 X14.8605 Y16.0984 I1.342 J3.0306
G3 X15.4864 Y15.9965 I1.2046 J5.4223
G3 X15.4902 Y15.9961 I0.0469 J0.4472
G3 X15.7788 Y15.971 I1.5123 J15.7394
G1 F300.0 X15.7943 Y16.17
G3 F500.0 X17.062 Y16.1233 I1.2082 J15.5654
G3 X18.6147 Y16.1888 I0.1185 J15.6259
G3 X18.615 I-0.0229 J0.2489
G3 X19.7875 Y16.4815 I-0.3703 J3.9782
G3 X20.5943 Y17.1132 I-0.6612 J1.6759
G3 X20.5998 Y17.1212 I-0.2037 J0.1449
G3 X20.8247 Y17.6591 I-1.3356 J0.8742
G3 X20.8809 Y18.2016 I-2.3972 J0.5226
G3 X20.8252 Y18.7285 I-2.3654 J0.0166
G3 X20.615 Y19.2469 I-1.6312 J-0.3596
G3 X20.6112 Y19.2529 I-0.2127 J-0.1314
G3 X19.8046 Y19.9098 I-1.4456 J-0.9515
G3 X18.6227 Y20.2021 I-1.5758 J-3.8356
G3 X17.0507 Y20.2796 I-1.4668 J-13.7825
G3 X15.4798 Y20.2022 I-0.0966 J-14.031
G3 X14.2924 Y19.902 I0.3382 J-3.8362
G3 X13.5029 Y19.2483 I0.6963 J-1.6444
G3 X13.4999 Y19.2437 I0.208 J-0.1387
G3 X13.2869 Y18.7252 I1.3489 J-0.8572
G3 X13.2324 Y18.2014 I2.3156 J-0.5057
G3 X13.288 Y17.6744 I2.3654 J-0.0167
G3 X13.4983 Y17.156 I1.6312 J0.3596
G3 X13.5036 Y17.1477 I0.2127 J0.1314
G3 X14.3031 Y16.4896 I1.5055 J1.0141
G3 X14.9034 Y16.2934 I1.2627 J2.8474
G3 X15.5072 Y16.195 I1.1618 J5.2274
G3 X15.5093 Y16.1948 I0.0261 J0.2486
G3 X15.7943 Y16.17 I1.4932 J15.5407
G0 Z3.0
G0 X15.7373 Y15.7093
G0 Z0.2
G1 F300.0 Z-0.4
G3 F500.0 X17.0585 Y15.6338 I1.2321 J9.9648
G2 X17.0645 Y15.6339 I0.004 J-0.45
G3 X18.3362 Y15.7012 I0.0494 J11.1136
G2 X18.3384 Y15.7014 I0.0495 J-0.4473
G3 X19.5436 Y15.9561 I-0.6307 J5.9635
G3 X20.2432 Y16.2845 I-0.9631 J2.9612
G3 X20.9359 Y17.0841 I-0.9976 J1.5638
G3 X21.1478 Y18.1919 I-2.4916 J1.0507
G2 Y18.2107 I0.4499 J0.0095
G3 X20.9384 Y19.3063 I-2.6823 J0.0552
G3 X20.2559 Y20.104 I-1.7054 J-0.7683
G3 X19.5545 Y20.4414 I-1.6399 J-2.5112
G2 X19.5528 Y20.4419 I0.1408 J0.4274
G3 X18.7538 Y20.6409 I-1.6699 J-5.0031
G3 X17.0548 Y20.769 I-1.6084 J-9.9974
G2 X17.0488 I-0.004 J0.45
G3 X15.7844 Y20.7003 I-0.0478 J-10.7867
G2 X15.7823 Y20.7001 I-0.0508 J0.4471
G3 X14.5848 Y20.442 I0.6401 J-5.8775
G3 X13.8869 Y20.112 I0.9977 J-3.0135
G2 X13.8837 Y20.1101 I-0.2404 J0.3804
G3 X13.1811 Y19.3168 I0.9746 J-1.571
G3 X12.9655 Y18.2111 I2.434 J-1.0485
G2 Y18.192 I-0.4499 J-0.0097
G3 X13.1788 Y17.0926 I2.6549 J-0.0555
G3 X13.8719 Y16.2951 I1.7076 J0.7841
G2 X13.8729 Y16.2944 I-0.243 J-0.3788
G3 X14.5729 Y15.9601 I1.6535 J2.5627
G2 X14.5745 Y15.9596 I-0.1407 J-0.4274
G3 X15.3693 Y15.7618 I1.6704 J5.0148
G3 X15.7373 Y15.7093 I1.6002 J9.9124
G0 Z3.0
G0 X20.3961 Y24.1425
G0 Z0.2
G1 F300.0 Z-0.4
G1 F500.0 Y24.2428
G1 X20.766
G1 Y24.1425
G1 X20.3961
G1 F300.0 X20.1961
G1 F500.0 Y24.4428
G1 X20.966
G1 Y23.9425
G1 X20.1961
G1 Y24.1425
G1 F300.0 X19.9961
G1 F500.0 Y24.6428
G1 X21.166
G1 Y23.7425
G1 X19.9961
G1 Y24.1425
G0 Z3.0
G0 X14.0517 Y29.9954
G0 Z0.2
G1 F300.0 Z-0.4
G3 F500.0 X13.7651 Y30.2956 I-1.4632 J-1.1097
G1 X14.234
G3 X14.0517 Y29.9954 I0.4437 J-0.475
G1 F300.0 X14.2443 Y29.9416
G3 F500.0 X14.2277 Y29.8206 I0.4334 J-0.121
G1 Y29.0825
G3 X14.1932 Y29.2309 I-3.6001 J-0.7594
G3 X14.0415 Y29.6384 I-1.8348 J-0.4513
G3 X14.0397 Y29.6418 I-0.4008 J-0.2045
G3 X13.5305 Y30.2237 I-1.4512 J-0.7561
G3 X13.5096 Y30.2375 I-0.2591 J-0.3679
G3 X13.1121 Y30.4175 I-0.8736 J-1.4005
G1 Y30.4956
G1 X20.5254
G3 X20.966 Y30.8542 I0.0 J0.45
G1 Y29.912
G3 X20.5254 Y30.2706 I-0.4406 J-0.0914
G1 X14.6777
G3 X14.2443 Y29.9416 I0.0 J-0.45
G1 F300.0 X14.4369 Y29.8878
G3 F500.0 X14.4277 Y29.8206 I0.2408 J-0.0672
G1 Y28.2542
G1 X14.1244
G3 X14.0697 Y28.8307 I-6.0281 J-0.2808
G3 X14.0696 Y28.8317 I-0.2475 J-0.0355
G3 X13.9992 Y29.1823 I-3.4419 J-0.5086
G3 X13.8633 Y29.5475 I-1.6408 J-0.4027
G3 X13.8623 Y29.5494 I-0.2227 J-0.1136
G3 X13.4154 Y30.0602 I-1.2738 J-0.6637
G3 X13.4038 Y30.0679 I-0.1439 J-0.2044
G3 X12.9121 Y30.2612 I-0.7677 J-1.2308
G1 Y30.6956
G1 X20.5254
G3 X20.7754 Y30.9456 I0.0 J0.25
G1 Y32.4768
G1 X21.166
G1 Y28.2542
G1 X20.7754
G1 Y29.8206
G3 X20.5254 Y30.0706 I-0.25 J0.0
G1 X14.6777
G3 X14.4369 Y29.8878 I0.0 J-0.25
G0 Z3.0
M5
M30
