(.../Program Files (x86)/EAGLE-6.4.0/ulp/pcb-gcode.ulp)
(Copyright 2005 - 2012 by John Johnson)
(See readme.txt for licensing terms.)
(This file generated from the board:)
(.../Dropbox/GitHub/Xpark/xpark.brd)
(Current profile is .../EAGLE-6.4.0/ulp/profiles/generic.pp  )
(This file generated 20.05.2013 12:26:46)
(Settings from pcb-machine.h)
(  Tool Size)
(0.1778 )
(Z Axis Settings)
(  High     Up        Down     Drill)
(12.7000 	2.5400 	-0.1778 	-2.0000 )
(spindle on time = 1.0000)
(milling depth = -0.5000)
(text depth = -0.1270)
(tool change at 0.0000 0.0000 30.0000 )
(feed rate xy = F508.00 )
(feed rate z  = F254.00 )
(Settings from pcb-defaults.h)
(isolate min = 0.0254)
(isolate max = 0.5080)
(isolate step = 0.1270)
(Generated bottom outlines, bottom drill, )
(Unit of measure: mm)
( Tool|       Size       |  Min Sub |  Max Sub |   Count )
( T01  0.813mm 0.0320in 0.0000in 0.0000in )
( T02  1.016mm 0.0400in 0.0000in 0.0000in )
( T03  1.118mm 0.0440in 0.0000in 0.0000in )
(Metric Mode)
G21
(Absolute Coordinates)
G90
M05
G00 Z30.0000 
G00 X0.0000 Y0.0000 
M06 T01  ; 0.8128 
G01 Z0.0000 F254.00 
M06 T01  ; 0.8128 
G00 Z2.5400 
M03
G04 P1.000000
G00 Z2.540000
G00 X-33.0200 Y34.2900 
G01 Z-2.0000 F254.00 
G01 Z2.540000
(R2.5400  P0.200000)
(G00 Z2.540000)
G00 X-33.0200 Y19.0500 
G01 Z-2.000000
G01 Z2.540000
(G00 Z2.540000)
G00 X-33.0200 Y24.1300 
G01 Z-2.000000
G01 Z2.540000
(G00 Z2.540000)
G00 X-33.0200 Y29.2100 
G01 Z-2.000000
G01 Z2.540000
(G00 Z2.540000)
G00 X-8.5725 Y10.4775 
G01 Z-2.000000
G01 Z2.540000
(G00 Z2.540000)
G00 X-8.5725 Y2.8575 
G01 Z-2.000000
G01 Z2.540000
(G00 Z2.540000)
G00 X-8.8900 Y13.9700 
G01 Z-2.000000
G01 Z2.540000
(G00 Z2.540000)
G00 X-8.8900 Y17.7800 
G01 Z-2.000000
G01 Z2.540000
(G00 Z2.540000)
G00 X-8.8900 Y22.2250 
G01 Z-2.000000
G01 Z2.540000
(G00 Z2.540000)
G00 X-8.8900 Y26.0350 
G01 Z-2.000000
G01 Z2.540000
(G00 Z2.540000)
G00 X-10.1600 Y33.0200 
G01 Z-2.000000
G01 Z2.540000
(G00 Z2.540000)
G00 X-10.1600 Y30.4800 
G01 Z-2.000000
G01 Z2.540000
(G00 Z2.540000)
G00 X-14.6050 Y31.7500 
G01 Z-2.000000
G01 Z2.540000
(G00 Z2.540000)
G00 X-16.5100 Y33.0200 
G01 Z-2.000000
G01 Z2.540000
(G00 Z2.540000)
G00 X-16.5100 Y13.9700 
G01 Z-2.000000
G01 Z2.540000
(G00 Z2.540000)
G00 X-16.5100 Y17.7800 
G01 Z-2.000000
G01 Z2.540000
(G00 Z2.540000)
G00 X-16.5100 Y22.2250 
G01 Z-2.000000
G01 Z2.540000
(G00 Z2.540000)
G00 X-16.5100 Y26.0350 
G01 Z-2.000000
G01 Z2.540000
(G00 Z2.540000)
G00 X-16.5100 Y30.4800 
G01 Z-2.000000
G01 Z2.540000
(G00 Z2.540000)
G00 X-18.0975 Y27.9400 
G01 Z-2.000000
G01 Z2.540000
(G00 Z2.540000)
G00 X-19.0500 Y10.1600 
G01 Z-2.000000
G01 Z2.540000
(G00 Z2.540000)
G00 X-19.0500 Y12.7000 
G01 Z-2.000000
G01 Z2.540000
(G00 Z2.540000)
G00 X-19.0500 Y15.2400 
G01 Z-2.000000
G01 Z2.540000
(G00 Z2.540000)
G00 X-19.0500 Y17.7800 
G01 Z-2.000000
G01 Z2.540000
(G00 Z2.540000)
G00 X-19.0500 Y20.3200 
G01 Z-2.000000
G01 Z2.540000
(G00 Z2.540000)
G00 X-19.0500 Y22.8600 
G01 Z-2.000000
G01 Z2.540000
(G00 Z2.540000)
G00 X-19.0500 Y25.4000 
G01 Z-2.000000
G01 Z2.540000
(G00 Z2.540000)
G00 X-22.8600 Y33.0200 
G01 Z-2.000000
G01 Z2.540000
(G00 Z2.540000)
G00 X-22.8600 Y35.5600 
G01 Z-2.000000
G01 Z2.540000
(G00 Z2.540000)
G00 X-25.7175 Y27.9400 
G01 Z-2.000000
G01 Z2.540000
(G00 Z2.540000)
G00 X-26.6700 Y10.1600 
G01 Z-2.000000
G01 Z2.540000
(G00 Z2.540000)
G00 X-26.6700 Y12.7000 
G01 Z-2.000000
G01 Z2.540000
(G00 Z2.540000)
G00 X-26.6700 Y15.2400 
G01 Z-2.000000
G01 Z2.540000
(G00 Z2.540000)
G00 X-26.6700 Y17.7800 
G01 Z-2.000000
G01 Z2.540000
(G00 Z2.540000)
G00 X-26.6700 Y20.3200 
G01 Z-2.000000
G01 Z2.540000
(G00 Z2.540000)
G00 X-26.6700 Y22.8600 
G01 Z-2.000000
G01 Z2.540000
(G00 Z2.540000)
G00 X-26.6700 Y25.4000 
G01 Z-2.000000
G01 Z2.540000
M05
G00 Z30.0000 
M06 T02  ; 1.0160 
G01 Z0.0000 F254.00 
M06 T02  ; 1.0160 
G00 Z2.5400 
M03
G04 P1.000000
G00 Z2.540000
G00 X-33.0200 Y4.7625 
G01 Z-2.0000 F254.00 
G01 Z2.540000
(R2.5400  P0.200000)
(G00 Z2.540000)
G00 X-33.0200 Y7.3025 
G01 Z-2.000000
G01 Z2.540000
(G00 Z2.540000)
G00 X-33.0200 Y9.8425 
G01 Z-2.000000
G01 Z2.540000
(G00 Z2.540000)
G00 X-33.0200 Y12.3825 
G01 Z-2.000000
G01 Z2.540000
(G00 Z2.540000)
G00 X-5.0800 Y3.8100 
G01 Z-2.000000
G01 Z2.540000
(G00 Z2.540000)
G00 X-5.0800 Y10.1600 
G01 Z-2.000000
G01 Z2.540000
(G00 Z2.540000)
G00 X-5.0800 Y15.8750 
G01 Z-2.000000
G01 Z2.540000
(G00 Z2.540000)
G00 X-5.0800 Y19.6850 
G01 Z-2.000000
G01 Z2.540000
(G00 Z2.540000)
G00 X-5.0800 Y23.4950 
G01 Z-2.000000
G01 Z2.540000
(G00 Z2.540000)
G00 X-12.3825 Y5.0800 
G01 Z-2.000000
G01 Z2.540000
(G00 Z2.540000)
G00 X-14.9225 Y5.0800 
G01 Z-2.000000
G01 Z2.540000
(G00 Z2.540000)
G00 X-17.4625 Y5.0800 
G01 Z-2.000000
G01 Z2.540000
(G00 Z2.540000)
G00 X-20.0025 Y5.0800 
G01 Z-2.000000
G01 Z2.540000
(G00 Z2.540000)
G00 X-22.5425 Y5.0800 
G01 Z-2.000000
G01 Z2.540000
(G00 Z2.540000)
G00 X-25.0825 Y5.0800 
G01 Z-2.000000
G01 Z2.540000
(G00 Z2.540000)
G00 X-2.5400 Y3.8100 
G01 Z-2.000000
G01 Z2.540000
(G00 Z2.540000)
G00 X-2.5400 Y10.1600 
G01 Z-2.000000
G01 Z2.540000
(G00 Z2.540000)
G00 X-2.5400 Y15.8750 
G01 Z-2.000000
G01 Z2.540000
(G00 Z2.540000)
G00 X-2.5400 Y19.6850 
G01 Z-2.000000
G01 Z2.540000
(G00 Z2.540000)
G00 X-2.5400 Y23.4950 
G01 Z-2.000000
G01 Z2.540000
M05
G00 Z30.0000 
M06 T03  ; 1.1176 
G01 Z0.0000 F254.00 
M06 T03  ; 1.1176 
G00 Z2.5400 
M03
G04 P1.000000
G00 Z2.540000
G00 X-3.8100 Y34.2900 
G01 Z-2.0000 F254.00 
G01 Z2.540000
(R2.5400  P0.200000)
(G00 Z2.540000)
G00 X-3.8100 Y29.2100 
G01 Z-2.000000
G01 Z2.540000
(G00 Z2.540000)
G00 X-8.5725 Y35.2425 
G01 Z-2.000000
G01 Z2.540000
(G00 Z2.540000)
G00 X-18.7325 Y35.2425 
G01 Z-2.000000
G01 Z2.540000
(G00 Z2.540000)
G00 X-29.5275 Y35.2425 
G01 Z-2.000000
G01 Z2.540000
(G00 Z2.540000)
G00 X-29.5275 Y25.0825 
G01 Z-2.000000
G01 Z2.540000
T01 
G00 Z12.7000 
M05
M02
