( Made using CamBam - http://www.cambam.co.uk )
( xpark 3/7/2013 6:56:38 PM )
( T0 : 2.0 )
G21 G90 G64 G40
G0 Z3.0
( T0 : 2.0 )
T0 M6
( Profil1 )
G17
M3 S1000
G0 X-78.1 Y20.0
G0 Z0.2
G1 F200.0 Z0.0
G2 F500.0 X-82.45 Y17.4885 Z-0.1667 I-2.9 J0.0
G2 Y22.5115 Z-0.3333 I1.45 J2.5115
G2 X-78.1 Y20.0 Z-0.5 I1.45 J-2.5115
G2 X-82.45 Y17.4885 Z-0.6667 I-2.9 J0.0
G2 Y22.5115 Z-0.8333 I1.45 J2.5115
G2 X-78.1 Y20.0 Z-1.0 I1.45 J-2.5115
G2 X-82.45 Y17.4885 Z-1.1667 I-2.9 J0.0
G2 Y22.5115 Z-1.3333 I1.45 J2.5115
G2 X-78.1 Y20.0 Z-1.5 I1.45 J-2.5115
G2 X-82.45 Y17.4885 Z-1.6667 I-2.9 J0.0
G2 Y22.5115 Z-1.8333 I1.45 J2.5115
G2 X-78.1 Y20.0 Z-2.0 I1.45 J-2.5115
G2 X-82.45 Y17.4885 Z-2.1667 I-2.9 J0.0
G2 Y22.5115 Z-2.3333 I1.45 J2.5115
G2 X-78.1 Y20.0 Z-2.5 I1.45 J-2.5115
G2 X-82.45 Y17.4885 Z-2.6 I-2.9 J0.0
G2 Y22.5115 Z-2.7 I1.45 J2.5115
G2 X-78.1 Y20.0 Z-2.8 I1.45 J-2.5115
G2 X-82.45 Y17.4885 I-2.9 J0.0
G2 Y22.5115 I1.45 J2.5115
G2 X-78.1 Y20.0 I1.45 J-2.5115
G0 Z3.0
G0 X-69.3073 Y2.5886
G0 Z0.2
G1 F200.0 Z0.0
G2 F500.0 X-65.1 Y0.0 Z-0.1622 I1.3073 J-2.5886
G2 X-69.45 Y-2.5115 Z-0.3289 I-2.9 J0.0
G2 Y2.5115 Z-0.4955 I1.45 J2.5115
G2 X-69.3073 Y2.5886 Z-0.5 I1.45 J-2.5115
G2 X-65.1 Y0.0 Z-0.6622 I1.3073 J-2.5886
G2 X-69.45 Y-2.5115 Z-0.8289 I-2.9 J0.0
G2 Y2.5115 Z-0.9955 I1.45 J2.5115
G2 X-69.3073 Y2.5886 Z-1.0 I1.45 J-2.5115
G2 X-65.1 Y0.0 Z-1.1622 I1.3073 J-2.5886
G2 X-69.45 Y-2.5115 Z-1.3289 I-2.9 J0.0
G2 Y2.5115 Z-1.4955 I1.45 J2.5115
G2 X-69.3073 Y2.5886 Z-1.5 I1.45 J-2.5115
G2 X-65.1 Y0.0 Z-1.6622 I1.3073 J-2.5886
G2 X-69.45 Y-2.5115 Z-1.8289 I-2.9 J0.0
G2 Y2.5115 Z-1.9955 I1.45 J2.5115
G2 X-69.3073 Y2.5886 Z-2.0 I1.45 J-2.5115
G2 X-65.1 Y0.0 Z-2.1622 I1.3073 J-2.5886
G2 X-69.45 Y-2.5115 Z-2.3289 I-2.9 J0.0
G2 Y2.5115 Z-2.4955 I1.45 J2.5115
G2 X-69.3073 Y2.5886 Z-2.5 I1.45 J-2.5115
G2 X-65.1 Y0.0 Z-2.5973 I1.3073 J-2.5886
G2 X-69.45 Y-2.5115 Z-2.6973 I-2.9 J0.0
G2 Y2.5115 Z-2.7973 I1.45 J2.5115
G2 X-69.3073 Y2.5886 Z-2.8 I1.45 J-2.5115
G2 X-65.1 Y0.0 I1.3073 J-2.5886
G2 X-69.45 Y-2.5115 I-2.9 J0.0
G2 Y2.5115 I1.45 J2.5115
G2 X-69.3073 Y2.5886 I1.45 J-2.5115
G0 Z3.0
G0 X-50.8788 Y0.3498
G0 Z0.2
G1 F200.0 Z0.0
G2 F500.0 X-49.45 Y2.5115 Z-0.0737 I2.8788 J-0.3498
G2 X-45.1 Y0.0 Z-0.2404 I1.45 J-2.5115
G2 X-49.45 Y-2.5115 Z-0.407 I-2.9 J0.0
G2 X-50.8788 Y0.3498 Z-0.5 I1.45 J2.5115
G2 X-49.45 Y2.5115 Z-0.5737 I2.8788 J-0.3498
G2 X-45.1 Y0.0 Z-0.7404 I1.45 J-2.5115
G2 X-49.45 Y-2.5115 Z-0.907 I-2.9 J0.0
G2 X-50.8788 Y0.3498 Z-1.0 I1.45 J2.5115
G2 X-49.45 Y2.5115 Z-1.0737 I2.8788 J-0.3498
G2 X-45.1 Y0.0 Z-1.2404 I1.45 J-2.5115
G2 X-49.45 Y-2.5115 Z-1.407 I-2.9 J0.0
G2 X-50.8788 Y0.3498 Z-1.5 I1.45 J2.5115
G2 X-49.45 Y2.5115 Z-1.5737 I2.8788 J-0.3498
G2 X-45.1 Y0.0 Z-1.7404 I1.45 J-2.5115
G2 X-49.45 Y-2.5115 Z-1.907 I-2.9 J0.0
G2 X-50.8788 Y0.3498 Z-2.0 I1.45 J2.5115
G2 X-49.45 Y2.5115 Z-2.0737 I2.8788 J-0.3498
G2 X-45.1 Y0.0 Z-2.2404 I1.45 J-2.5115
G2 X-49.45 Y-2.5115 Z-2.407 I-2.9 J0.0
G2 X-50.8788 Y0.3498 Z-2.5 I1.45 J2.5115
G2 X-49.45 Y2.5115 Z-2.5442 I2.8788 J-0.3498
G2 X-45.1 Y0.0 Z-2.6442 I1.45 J-2.5115
G2 X-49.45 Y-2.5115 Z-2.7442 I-2.9 J0.0
G2 X-50.8788 Y0.3498 Z-2.8 I1.45 J2.5115
G2 X-49.45 Y2.5115 I2.8788 J-0.3498
G2 X-45.1 Y0.0 I1.45 J-2.5115
G2 X-49.45 Y-2.5115 I-2.9 J0.0
G2 X-50.8788 Y0.3498 I1.45 J2.5115
G0 Z3.0
G0 X-30.8997 Y0.0443
G0 Z0.2
G1 F200.0 Z0.0
G2 F500.0 X-29.45 Y2.5115 Z-0.0821 I2.8997 J-0.0443
G2 X-25.1 Y0.0 Z-0.2488 I1.45 J-2.5115
G2 X-29.45 Y-2.5115 Z-0.4155 I-2.9 J0.0
G2 X-30.8997 Y0.0443 Z-0.5 I1.45 J2.5115
G2 X-29.45 Y2.5115 Z-0.5821 I2.8997 J-0.0443
G2 X-25.1 Y0.0 Z-0.7488 I1.45 J-2.5115
G2 X-29.45 Y-2.5115 Z-0.9155 I-2.9 J0.0
G2 X-30.8997 Y0.0443 Z-1.0 I1.45 J2.5115
G2 X-29.45 Y2.5115 Z-1.0821 I2.8997 J-0.0443
G2 X-25.1 Y0.0 Z-1.2488 I1.45 J-2.5115
G2 X-29.45 Y-2.5115 Z-1.4155 I-2.9 J0.0
G2 X-30.8997 Y0.0443 Z-1.5 I1.45 J2.5115
G2 X-29.45 Y2.5115 Z-1.5821 I2.8997 J-0.0443
G2 X-25.1 Y0.0 Z-1.7488 I1.45 J-2.5115
G2 X-29.45 Y-2.5115 Z-1.9155 I-2.9 J0.0
G2 X-30.8997 Y0.0443 Z-2.0 I1.45 J2.5115
G2 X-29.45 Y2.5115 Z-2.0821 I2.8997 J-0.0443
G2 X-25.1 Y0.0 Z-2.2488 I1.45 J-2.5115
G2 X-29.45 Y-2.5115 Z-2.4155 I-2.9 J0.0
G2 X-30.8997 Y0.0443 Z-2.5 I1.45 J2.5115
G2 X-29.45 Y2.5115 Z-2.5493 I2.8997 J-0.0443
G2 X-25.1 Y0.0 Z-2.6493 I1.45 J-2.5115
G2 X-29.45 Y-2.5115 Z-2.7493 I-2.9 J0.0
G2 X-30.8997 Y0.0443 Z-2.8 I1.45 J2.5115
G2 X-29.45 Y2.5115 I2.8997 J-0.0443
G2 X-25.1 Y0.0 I1.45 J-2.5115
G2 X-29.45 Y-2.5115 I-2.9 J0.0
G2 X-30.8997 Y0.0443 I1.45 J2.5115
G0 Z3.0
G0 X-6.6471 Y10.6054
G0 Z0.2
G1 F200.0 Z0.0
G2 F500.0 X-3.625 Y19.7787 Z-0.116 I6.6471 J2.8946
G2 X7.25 Y13.5 Z-0.2827 I3.625 J-6.2787
G2 X-3.625 Y7.2213 Z-0.4493 I-7.25 J0.0
G2 X-6.6471 Y10.6054 Z-0.5 I3.625 J6.2787
G2 X-3.625 Y19.7787 Z-0.616 I6.6471 J2.8946
G2 X7.25 Y13.5 Z-0.7827 I3.625 J-6.2787
G2 X-3.625 Y7.2213 Z-0.9493 I-7.25 J0.0
G2 X-6.6471 Y10.6054 Z-1.0 I3.625 J6.2787
G2 X-3.625 Y19.7787 Z-1.116 I6.6471 J2.8946
G2 X7.25 Y13.5 Z-1.2827 I3.625 J-6.2787
G2 X-3.625 Y7.2213 Z-1.4493 I-7.25 J0.0
G2 X-6.6471 Y10.6054 Z-1.5 I3.625 J6.2787
G2 X-3.625 Y19.7787 Z-1.616 I6.6471 J2.8946
G2 X7.25 Y13.5 Z-1.7827 I3.625 J-6.2787
G2 X-3.625 Y7.2213 Z-1.9493 I-7.25 J0.0
G2 X-6.6471 Y10.6054 Z-2.0 I3.625 J6.2787
G2 X-3.625 Y19.7787 Z-2.116 I6.6471 J2.8946
G2 X7.25 Y13.5 Z-2.2827 I3.625 J-6.2787
G2 X-3.625 Y7.2213 Z-2.4493 I-7.25 J0.0
G2 X-6.6471 Y10.6054 Z-2.5 I3.625 J6.2787
G2 X-3.625 Y19.7787 Z-2.5696 I6.6471 J2.8946
G2 X7.25 Y13.5 Z-2.6696 I3.625 J-6.2787
G2 X-3.625 Y7.2213 Z-2.7696 I-7.25 J0.0
G2 X-6.6471 Y10.6054 Z-2.8 I3.625 J6.2787
G2 X-3.625 Y19.7787 I6.6471 J2.8946
G2 X7.25 Y13.5 I3.625 J-6.2787
G2 X-3.625 Y7.2213 I-7.25 J0.0
G2 X-6.6471 Y10.6054 I3.625 J6.2787
G0 Z3.0
G0 X-1.9273 Y-6.5109
G0 Z0.2
G1 F200.0 Z0.0
G2 F500.0 X7.25 Y-13.5 Z-0.1464 I1.9273 J-6.9891
G2 X-3.625 Y-19.7787 Z-0.3131 I-7.25 J0.0
G2 Y-7.2213 Z-0.4797 I3.625 J6.2787
G2 X-1.9273 Y-6.5109 Z-0.5 I3.625 J-6.2787
G2 X7.25 Y-13.5 Z-0.6464 I1.9273 J-6.9891
G2 X-3.625 Y-19.7787 Z-0.8131 I-7.25 J0.0
G2 Y-7.2213 Z-0.9797 I3.625 J6.2787
G2 X-1.9273 Y-6.5109 Z-1.0 I3.625 J-6.2787
G2 X7.25 Y-13.5 Z-1.1464 I1.9273 J-6.9891
G2 X-3.625 Y-19.7787 Z-1.3131 I-7.25 J0.0
G2 Y-7.2213 Z-1.4797 I3.625 J6.2787
G2 X-1.9273 Y-6.5109 Z-1.5 I3.625 J-6.2787
G2 X7.25 Y-13.5 Z-1.6464 I1.9273 J-6.9891
G2 X-3.625 Y-19.7787 Z-1.8131 I-7.25 J0.0
G2 Y-7.2213 Z-1.9797 I3.625 J6.2787
G2 X-1.9273 Y-6.5109 Z-2.0 I3.625 J-6.2787
G2 X7.25 Y-13.5 Z-2.1464 I1.9273 J-6.9891
G2 X-3.625 Y-19.7787 Z-2.3131 I-7.25 J0.0
G2 Y-7.2213 Z-2.4797 I3.625 J6.2787
G2 X-1.9273 Y-6.5109 Z-2.5 I3.625 J-6.2787
G2 X7.25 Y-13.5 Z-2.5878 I1.9273 J-6.9891
G2 X-3.625 Y-19.7787 Z-2.6878 I-7.25 J0.0
G2 Y-7.2213 Z-2.7878 I3.625 J6.2787
G2 X-1.9273 Y-6.5109 Z-2.8 I3.625 J-6.2787
G2 X7.25 Y-13.5 I1.9273 J-6.9891
G2 X-3.625 Y-19.7787 I-7.25 J0.0
G2 Y-7.2213 I3.625 J6.2787
G2 X-1.9273 Y-6.5109 I3.625 J-6.2787
G0 Z3.0
G0 X-79.0285 Y-19.6637
G0 Z0.2
G1 F200.0 Z0.0
G2 F500.0 X-79.0 Y-20.0 Z-0.0134 I-1.9715 J-0.3363
G2 X-82.0 Y-21.7321 Z-0.1801 I-2.0 J0.0
G2 Y-18.2679 Z-0.3468 I1.0 J1.7321
G2 X-79.0285 Y-19.6637 Z-0.5 I1.0 J-1.7321
G2 X-79.0 Y-20.0 Z-0.5134 I-1.9715 J-0.3363
G2 X-82.0 Y-21.7321 Z-0.6801 I-2.0 J0.0
G2 Y-18.2679 Z-0.8468 I1.0 J1.7321
G2 X-79.0285 Y-19.6637 Z-1.0 I1.0 J-1.7321
G2 X-79.0 Y-20.0 Z-1.0134 I-1.9715 J-0.3363
G2 X-82.0 Y-21.7321 Z-1.1801 I-2.0 J0.0
G2 Y-18.2679 Z-1.3468 I1.0 J1.7321
G2 X-79.0285 Y-19.6637 Z-1.5 I1.0 J-1.7321
G2 X-79.0 Y-20.0 Z-1.5134 I-1.9715 J-0.3363
G2 X-82.0 Y-21.7321 Z-1.6801 I-2.0 J0.0
G2 Y-18.2679 Z-1.8468 I1.0 J1.7321
G2 X-79.0285 Y-19.6637 Z-2.0 I1.0 J-1.7321
G2 X-79.0 Y-20.0 Z-2.0134 I-1.9715 J-0.3363
G2 X-82.0 Y-21.7321 Z-2.1801 I-2.0 J0.0
G2 Y-18.2679 Z-2.3468 I1.0 J1.7321
G2 X-79.0285 Y-19.6637 Z-2.5 I1.0 J-1.7321
G2 X-79.0 Y-20.0 Z-2.5081 I-1.9715 J-0.3363
G2 X-82.0 Y-21.7321 Z-2.6081 I-2.0 J0.0
G2 Y-18.2679 Z-2.7081 I1.0 J1.7321
G2 X-79.0285 Y-19.6637 Z-2.8 I1.0 J-1.7321
G2 X-79.0 Y-20.0 I-1.9715 J-0.3363
G2 X-82.0 Y-21.7321 I-2.0 J0.0
G2 Y-18.2679 I1.0 J1.7321
G2 X-79.0285 Y-19.6637 I1.0 J-1.7321
G0 Z3.0
M5
M30
